(Created with GRBL post processor 2017/05/03 10:11)
(tool change to 6.35 mm End Mill)
T4 M06
G17 G90 G21
G00 X-25.896 Y-25.896 S7000 M03
Z2
G01 Z-0.1 F20
G00 Z2
Z-0.1
G01 Z-0.2 
G00 Z2
Z-0.2
G01 Z-0.3 
G00 Z2
Z-0.3
G01 Z-0.4 
G00 Z2
Z-0.4
G01 Z-0.5 
G00 Z2
Z-0.5
G01 Z-0.6 
G00 Z2
Z-0.6
G01 Z-0.7 
G00 Z2
Z-0.7
G01 Z-0.8 
G00 Z2
Z-0.8
G01 Z-0.9 
G00 Z2
Z-0.9
G01 Z-1 
G00 Z2
Z-1
G01 Z-1.1 
G00 Z2
Z-1.1
G01 Z-1.2 
G00 Z2
Z-1.2
G01 Z-1.3 
G00 Z2
Z-1.3
G01 Z-1.4 
G00 Z2
Z-1.4
G01 Z-1.5 
G00 Z2
Z-1.5
G01 Z-1.6 
G00 Z2
Z-1.6
G01 Z-1.7 
G00 Z2
Z-1.7
G01 Z-1.8 
G00 Z2
Z-1.8
G01 Z-1.9 
G00 Z2
Z-1.9
G01 Z-2 
G00 Z2
Z-2
G01 Z-2.1 
G00 Z2
Z-2.1
G01 Z-2.2 
G00 Z2
Z-2.2
G01 Z-2.3 
G00 Z2
Z-2.3
G01 Z-2.4 
G00 Z2
Z-2.4
G01 Z-2.5 
G00 Z2
Z-2.5
G01 Z-2.6 
G00 Z2
Z-2.6
G01 Z-2.7 
G00 Z2
Z-2.7
G01 Z-2.8 
G00 Z2
Z-2.8
G01 Z-2.9 
G00 Z2
Z-2.9
G01 Z-3 
G00 Z2
Z-3
G01 Z-3.1 
G00 Z2
Z-3.1
G01 Z-3.2 
G00 Z2
Z-3.2
G01 Z-3.3 
G00 Z2
Z-3.3
G01 Z-3.4 
G00 Z2
Z-3.4
G01 Z-3.5 
G00 Z2
Z-3.5
G01 Z-3.6 
G00 Z2
Z-3.6
G01 Z-3.7 
G00 Z2
Z-3.7
G01 Z-3.8 
G00 Z2
Z-3.8
G01 Z-3.9 
G00 Z2
Z-3.9
G01 Z-4 
G00 Z2
Z-4
G01 Z-4.1 
G00 Z2
Z-4.1
G01 Z-4.2 
G00 Z2
Z-4.2
G01 Z-4.3 
G00 Z2
Z-4.3
G01 Z-4.4 
G00 Z2
Z-4.4
G01 Z-4.5 
G00 Z2
Z-4.5
G01 Z-4.6 
G00 Z2
Z-4.6
G01 Z-4.7 
G00 Z2
Z-4.7
G01 Z-4.8 
G00 Z2
Z-4.8
G01 Z-4.9 
G00 Z2
Z-4.9
G01 Z-5 
G00 Z2
Z-5
G01 Z-5.1 
G00 Z2
Z-5.1
G01 Z-5.2 
G00 Z2
Z-5.2
G01 Z-5.3 
G00 Z2
Z-5.3
G01 Z-5.4 
G00 Z2
Z-5.4
G01 Z-5.5 
G00 Z2
Z-5.5
G01 Z-5.6 
G00 Z2
Z-5.6
G01 Z-5.7 
G04 P5
G00 Z5
X25.896 Y25.896
Z2
G01 Z-0.1 
G00 Z2
Z-0.1
G01 Z-0.2 
G00 Z2
Z-0.2
G01 Z-0.3 
G00 Z2
Z-0.3
G01 Z-0.4 
G00 Z2
Z-0.4
G01 Z-0.5 
G00 Z2
Z-0.5
G01 Z-0.6 
G00 Z2
Z-0.6
G01 Z-0.7 
G00 Z2
Z-0.7
G01 Z-0.8 
G00 Z2
Z-0.8
G01 Z-0.9 
G00 Z2
Z-0.9
G01 Z-1 
G00 Z2
Z-1
G01 Z-1.1 
G00 Z2
Z-1.1
G01 Z-1.2 
G00 Z2
Z-1.2
G01 Z-1.3 
G00 Z2
Z-1.3
G01 Z-1.4 
G00 Z2
Z-1.4
G01 Z-1.5 
G00 Z2
Z-1.5
G01 Z-1.6 
G00 Z2
Z-1.6
G01 Z-1.7 
G00 Z2
Z-1.7
G01 Z-1.8 
G00 Z2
Z-1.8
G01 Z-1.9 
G00 Z2
Z-1.9
G01 Z-2 
G00 Z2
Z-2
G01 Z-2.1 
G00 Z2
Z-2.1
G01 Z-2.2 
G00 Z2
Z-2.2
G01 Z-2.3 
G00 Z2
Z-2.3
G01 Z-2.4 
G00 Z2
Z-2.4
G01 Z-2.5 
G00 Z2
Z-2.5
G01 Z-2.6 
G00 Z2
Z-2.6
G01 Z-2.7 
G00 Z2
Z-2.7
G01 Z-2.8 
G00 Z2
Z-2.8
G01 Z-2.9 
G00 Z2
Z-2.9
G01 Z-3 
G00 Z2
Z-3
G01 Z-3.1 
G00 Z2
Z-3.1
G01 Z-3.2 
G00 Z2
Z-3.2
G01 Z-3.3 
G00 Z2
Z-3.3
G01 Z-3.4 
G00 Z2
Z-3.4
G01 Z-3.5 
G00 Z2
Z-3.5
G01 Z-3.6 
G00 Z2
Z-3.6
G01 Z-3.7 
G00 Z2
Z-3.7
G01 Z-3.8 
G00 Z2
Z-3.8
G01 Z-3.9 
G00 Z2
Z-3.9
G01 Z-4 
G00 Z2
Z-4
G01 Z-4.1 
G00 Z2
Z-4.1
G01 Z-4.2 
G00 Z2
Z-4.2
G01 Z-4.3 
G00 Z2
Z-4.3
G01 Z-4.4 
G00 Z2
Z-4.4
G01 Z-4.5 
G00 Z2
Z-4.5
G01 Z-4.6 
G00 Z2
Z-4.6
G01 Z-4.7 
G00 Z2
Z-4.7
G01 Z-4.8 
G00 Z2
Z-4.8
G01 Z-4.9 
G00 Z2
Z-4.9
G01 Z-5 
G00 Z2
Z-5
G01 Z-5.1 
G00 Z2
Z-5.1
G01 Z-5.2 
G00 Z2
Z-5.2
G01 Z-5.3 
G00 Z2
Z-5.3
G01 Z-5.4 
G00 Z2
Z-5.4
G01 Z-5.5 
G00 Z2
Z-5.5
G01 Z-5.6 
G00 Z2
Z-5.6
G01 Z-5.7 
G04 P5
G00 Z5
X-25.896 Y25.896
Z2
G01 Z-0.1 
G00 Z2
Z-0.1
G01 Z-0.2 
G00 Z2
Z-0.2
G01 Z-0.3 
G00 Z2
Z-0.3
G01 Z-0.4 
G00 Z2
Z-0.4
G01 Z-0.5 
G00 Z2
Z-0.5
G01 Z-0.6 
G00 Z2
Z-0.6
G01 Z-0.7 
G00 Z2
Z-0.7
G01 Z-0.8 
G00 Z2
Z-0.8
G01 Z-0.9 
G00 Z2
Z-0.9
G01 Z-1 
G00 Z2
Z-1
G01 Z-1.1 
G00 Z2
Z-1.1
G01 Z-1.2 
G00 Z2
Z-1.2
G01 Z-1.3 
G00 Z2
Z-1.3
G01 Z-1.4 
G00 Z2
Z-1.4
G01 Z-1.5 
G00 Z2
Z-1.5
G01 Z-1.6 
G00 Z2
Z-1.6
G01 Z-1.7 
G00 Z2
Z-1.7
G01 Z-1.8 
G00 Z2
Z-1.8
G01 Z-1.9 
G00 Z2
Z-1.9
G01 Z-2 
G00 Z2
Z-2
G01 Z-2.1 
G00 Z2
Z-2.1
G01 Z-2.2 
G00 Z2
Z-2.2
G01 Z-2.3 
G00 Z2
Z-2.3
G01 Z-2.4 
G00 Z2
Z-2.4
G01 Z-2.5 
G00 Z2
Z-2.5
G01 Z-2.6 
G00 Z2
Z-2.6
G01 Z-2.7 
G00 Z2
Z-2.7
G01 Z-2.8 
G00 Z2
Z-2.8
G01 Z-2.9 
G00 Z2
Z-2.9
G01 Z-3 
G00 Z2
Z-3
G01 Z-3.1 
G00 Z2
Z-3.1
G01 Z-3.2 
G00 Z2
Z-3.2
G01 Z-3.3 
G00 Z2
Z-3.3
G01 Z-3.4 
G00 Z2
Z-3.4
G01 Z-3.5 
G00 Z2
Z-3.5
G01 Z-3.6 
G00 Z2
Z-3.6
G01 Z-3.7 
G00 Z2
Z-3.7
G01 Z-3.8 
G00 Z2
Z-3.8
G01 Z-3.9 
G00 Z2
Z-3.9
G01 Z-4 
G00 Z2
Z-4
G01 Z-4.1 
G00 Z2
Z-4.1
G01 Z-4.2 
G00 Z2
Z-4.2
G01 Z-4.3 
G00 Z2
Z-4.3
G01 Z-4.4 
G00 Z2
Z-4.4
G01 Z-4.5 
G00 Z2
Z-4.5
G01 Z-4.6 
G00 Z2
Z-4.6
G01 Z-4.7 
G00 Z2
Z-4.7
G01 Z-4.8 
G00 Z2
Z-4.8
G01 Z-4.9 
G00 Z2
Z-4.9
G01 Z-5 
G00 Z2
Z-5
G01 Z-5.1 
G00 Z2
Z-5.1
G01 Z-5.2 
G00 Z2
Z-5.2
G01 Z-5.3 
G00 Z2
Z-5.3
G01 Z-5.4 
G00 Z2
Z-5.4
G01 Z-5.5 
G00 Z2
Z-5.5
G01 Z-5.6 
G00 Z2
Z-5.6
G01 Z-5.7 
G04 P5
G00 Z5
X25.896 Y-25.896
Z2
G01 Z-0.1 
G00 Z2
Z-0.1
G01 Z-0.2 
G00 Z2
Z-0.2
G01 Z-0.3 
G00 Z2
Z-0.3
G01 Z-0.4 
G00 Z2
Z-0.4
G01 Z-0.5 
G00 Z2
Z-0.5
G01 Z-0.6 
G00 Z2
Z-0.6
G01 Z-0.7 
G00 Z2
Z-0.7
G01 Z-0.8 
G00 Z2
Z-0.8
G01 Z-0.9 
G00 Z2
Z-0.9
G01 Z-1 
G00 Z2
Z-1
G01 Z-1.1 
G00 Z2
Z-1.1
G01 Z-1.2 
G00 Z2
Z-1.2
G01 Z-1.3 
G00 Z2
Z-1.3
G01 Z-1.4 
G00 Z2
Z-1.4
G01 Z-1.5 
G00 Z2
Z-1.5
G01 Z-1.6 
G00 Z2
Z-1.6
G01 Z-1.7 
G00 Z2
Z-1.7
G01 Z-1.8 
G00 Z2
Z-1.8
G01 Z-1.9 
G00 Z2
Z-1.9
G01 Z-2 
G00 Z2
Z-2
G01 Z-2.1 
G00 Z2
Z-2.1
G01 Z-2.2 
G00 Z2
Z-2.2
G01 Z-2.3 
G00 Z2
Z-2.3
G01 Z-2.4 
G00 Z2
Z-2.4
G01 Z-2.5 
G00 Z2
Z-2.5
G01 Z-2.6 
G00 Z2
Z-2.6
G01 Z-2.7 
G00 Z2
Z-2.7
G01 Z-2.8 
G00 Z2
Z-2.8
G01 Z-2.9 
G00 Z2
Z-2.9
G01 Z-3 
G00 Z2
Z-3
G01 Z-3.1 
G00 Z2
Z-3.1
G01 Z-3.2 
G00 Z2
Z-3.2
G01 Z-3.3 
G00 Z2
Z-3.3
G01 Z-3.4 
G00 Z2
Z-3.4
G01 Z-3.5 
G00 Z2
Z-3.5
G01 Z-3.6 
G00 Z2
Z-3.6
G01 Z-3.7 
G00 Z2
Z-3.7
G01 Z-3.8 
G00 Z2
Z-3.8
G01 Z-3.9 
G00 Z2
Z-3.9
G01 Z-4 
G00 Z2
Z-4
G01 Z-4.1 
G00 Z2
Z-4.1
G01 Z-4.2 
G00 Z2
Z-4.2
G01 Z-4.3 
G00 Z2
Z-4.3
G01 Z-4.4 
G00 Z2
Z-4.4
G01 Z-4.5 
G00 Z2
Z-4.5
G01 Z-4.6 
G00 Z2
Z-4.6
G01 Z-4.7 
G00 Z2
Z-4.7
G01 Z-4.8 
G00 Z2
Z-4.8
G01 Z-4.9 
G00 Z2
Z-4.9
G01 Z-5 
G00 Z2
Z-5
G01 Z-5.1 
G00 Z2
Z-5.1
G01 Z-5.2 
G00 Z2
Z-5.2
G01 Z-5.3 
G00 Z2
Z-5.3
G01 Z-5.4 
G00 Z2
Z-5.4
G01 Z-5.5 
G00 Z2
Z-5.5
G01 Z-5.6 
G00 Z2
Z-5.6
G01 Z-5.7 
G04 P5
G00 Z5
(outer)
X-31.652 Y0.607 S7000 M03
Z2
G01 Z-0.2 F50
X-31.652 Y-28.937 F200
G03 X-31.128 Y-30.076 I1.499 J0 
G02 X-30.076 Y-31.128 I-6.348 J-7.4 
G03 X-28.937 Y-31.652 I1.138 J0.976 
G01 X30.152 Y-31.652 
G03 X31.652 Y-30.152 I0 J1.499 
G01 X31.652 Y25.456 
G03 X31.25 Y26.478 I-1.5 J0 
X26.478 Y31.25 I-68.726 J-63.954 
X25.456 Y31.652 I-1.021 J-1.098 
G01 X-30.152 Y31.652 
G03 X-31.652 Y30.152 I0 J-1.499 
G01 X-31.652 Y0.607 
G00 Z5
G90
X24.725 Y24.725 S7000 M03
Z2
G01 Z-0.247 F50
X24.725 Y-24.725 F200
X-24.725 Y-24.725 
X-24.725 Y24.725 
X-22.775 Y24.725 
X-19.2 Y24.725 
X-19.2 Y22.675 
G03 X-22.675 Y19.2 I0.001 J-3.476 
G01 X-22.675 Y-19.2 
G03 X-19.2 Y-22.675 I3.476 J0.001 
G01 X19.2 Y-22.675 
G03 X22.675 Y-19.2 I-0.001 J3.476 
G01 X22.675 Y19.2 
G03 X19.2 Y22.675 I-3.476 J-0.001 
G01 X-19.2 Y22.675 
X-19.2 Y24.725 
X24.725 Y24.725 
G00 Z5
Z1.752
G01 Z-0.495 F50
X24.725 Y-24.725 F200
X-24.725 Y-24.725 
X-24.725 Y24.725 
X-22.775 Y24.725 
X-19.2 Y24.725 
X-19.2 Y22.675 
G03 X-22.675 Y19.2 I0.001 J-3.476 
G01 X-22.675 Y-19.2 
G03 X-19.2 Y-22.675 I3.476 J0.001 
G01 X19.2 Y-22.675 
G03 X22.675 Y-19.2 I-0.001 J3.476 
G01 X22.675 Y19.2 
G03 X19.2 Y22.675 I-3.476 J-0.001 
G01 X-19.2 Y22.675 
X-19.2 Y24.725 
X24.725 Y24.725 
G00 Z5
Z1.504
G01 Z-0.743 F50
X24.725 Y-24.725 F200
X-24.725 Y-24.725 
X-24.725 Y24.725 
X-22.775 Y24.725 
X-19.2 Y24.725 
X-19.2 Y22.675 
G03 X-22.675 Y19.2 I0.001 J-3.476 
G01 X-22.675 Y-19.2 
G03 X-19.2 Y-22.675 I3.476 J0.001 
G01 X19.2 Y-22.675 
G03 X22.675 Y-19.2 I-0.001 J3.476 
G01 X22.675 Y19.2 
G03 X19.2 Y22.675 I-3.476 J-0.001 
G01 X-19.2 Y22.675 
X-19.2 Y24.725 
X24.725 Y24.725 
G00 Z5
Z1.256
G01 Z-0.991 F50
X24.725 Y-24.725 F200
X-24.725 Y-24.725 
X-24.725 Y24.725 
X-22.775 Y24.725 
X-19.2 Y24.725 
X-19.2 Y22.675 
G03 X-22.675 Y19.2 I0.001 J-3.476 
G01 X-22.675 Y-19.2 
G03 X-19.2 Y-22.675 I3.476 J0.001 
G01 X19.2 Y-22.675 
G03 X22.675 Y-19.2 I-0.001 J3.476 
G01 X22.675 Y19.2 
G03 X19.2 Y22.675 I-3.476 J-0.001 
G01 X-19.2 Y22.675 
X-19.2 Y24.725 
X24.725 Y24.725 
G00 Z5
Z1.008
G01 Z-1.239 F50
X24.725 Y-24.725 F200
X-24.725 Y-24.725 
X-24.725 Y24.725 
X-22.775 Y24.725 
X-19.2 Y24.725 
X-19.2 Y22.675 
G03 X-22.675 Y19.2 I0.001 J-3.476 
G01 X-22.675 Y-19.2 
G03 X-19.2 Y-22.675 I3.476 J0.001 
G01 X19.2 Y-22.675 
G03 X22.675 Y-19.2 I-0.001 J3.476 
G01 X22.675 Y19.2 
G03 X19.2 Y22.675 I-3.476 J-0.001 
G01 X-19.2 Y22.675 
X-19.2 Y24.725 
X24.725 Y24.725 
G00 Z5
Z0.76
G01 Z-1.486 F50
X24.725 Y-24.725 F200
X-24.725 Y-24.725 
X-24.725 Y24.725 
X-22.775 Y24.725 
X-19.2 Y24.725 
X-19.2 Y22.675 
G03 X-22.675 Y19.2 I0.001 J-3.476 
G01 X-22.675 Y-19.2 
G03 X-19.2 Y-22.675 I3.476 J0.001 
G01 X19.2 Y-22.675 
G03 X22.675 Y-19.2 I-0.001 J3.476 
G01 X22.675 Y19.2 
G03 X19.2 Y22.675 I-3.476 J-0.001 
G01 X-19.2 Y22.675 
X-19.2 Y24.725 
X24.725 Y24.725 
G00 Z5
Z0.513
G01 Z-1.734 F50
X24.725 Y-24.725 F200
X-24.725 Y-24.725 
X-24.725 Y24.725 
X-22.775 Y24.725 
X-19.2 Y24.725 
X-19.2 Y22.675 
G03 X-22.675 Y19.2 I0.001 J-3.476 
G01 X-22.675 Y-19.2 
G03 X-19.2 Y-22.675 I3.476 J0.001 
G01 X19.2 Y-22.675 
G03 X22.675 Y-19.2 I-0.001 J3.476 
G01 X22.675 Y19.2 
G03 X19.2 Y22.675 I-3.476 J-0.001 
G01 X-19.2 Y22.675 
X-19.2 Y24.725 
X24.725 Y24.725 
G00 Z5
Z0.265
G01 Z-1.982 F50
X24.725 Y-24.725 F200
X-24.725 Y-24.725 
X-24.725 Y24.725 
X-22.775 Y24.725 
X-19.2 Y24.725 
X-19.2 Y22.675 
G03 X-22.675 Y19.2 I0.001 J-3.476 
G01 X-22.675 Y-19.2 
G03 X-19.2 Y-22.675 I3.476 J0.001 
G01 X19.2 Y-22.675 
G03 X22.675 Y-19.2 I-0.001 J3.476 
G01 X22.675 Y19.2 
G03 X19.2 Y22.675 I-3.476 J-0.001 
G01 X-19.2 Y22.675 
X-19.2 Y24.725 
X24.725 Y24.725 
G00 Z5
Z0.017
G01 Z-2.23 F50
X24.725 Y-24.725 F200
X-24.725 Y-24.725 
X-24.725 Y24.725 
X-22.775 Y24.725 
X-19.2 Y24.725 
X-19.2 Y22.675 
G03 X-22.675 Y19.2 I0.001 J-3.476 
G01 X-22.675 Y-19.2 
G03 X-19.2 Y-22.675 I3.476 J0.001 
G01 X19.2 Y-22.675 
G03 X22.675 Y-19.2 I-0.001 J3.476 
G01 X22.675 Y19.2 
G03 X19.2 Y22.675 I-3.476 J-0.001 
G01 X-19.2 Y22.675 
X-19.2 Y24.725 
X24.725 Y24.725 
G00 Z5
Z-0.23
G01 Z-2.478 F50
X24.725 Y-24.725 F200
X-24.725 Y-24.725 
X-24.725 Y24.725 
X-22.775 Y24.725 
X-19.2 Y24.725 
X-19.2 Y22.675 
G03 X-22.675 Y19.2 I0.001 J-3.476 
G01 X-22.675 Y-19.2 
G03 X-19.2 Y-22.675 I3.476 J0.001 
G01 X19.2 Y-22.675 
G03 X22.675 Y-19.2 I-0.001 J3.476 
G01 X22.675 Y19.2 
G03 X19.2 Y22.675 I-3.476 J-0.001 
G01 X-19.2 Y22.675 
X-19.2 Y24.725 
X24.725 Y24.725 
G00 Z5
Z-0.478
G01 Z-2.726 F50
X24.725 Y-24.725 F200
X-24.725 Y-24.725 
X-24.725 Y24.725 
X-22.775 Y24.725 
X-19.2 Y24.725 
X-19.2 Y22.675 
G03 X-22.675 Y19.2 I0.001 J-3.476 
G01 X-22.675 Y-19.2 
G03 X-19.2 Y-22.675 I3.476 J0.001 
G01 X19.2 Y-22.675 
G03 X22.675 Y-19.2 I-0.001 J3.476 
G01 X22.675 Y19.2 
G03 X19.2 Y22.675 I-3.476 J-0.001 
G01 X-19.2 Y22.675 
X-19.2 Y24.725 
X24.725 Y24.725 
G00 Z5
Z-0.726
G01 Z-2.973 F50
X24.725 Y-24.725 F200
X-24.725 Y-24.725 
X-24.725 Y24.725 
X-22.775 Y24.725 
X-19.2 Y24.725 
X-19.2 Y22.675 
G03 X-22.675 Y19.2 I0.001 J-3.476 
G01 X-22.675 Y-19.2 
G03 X-19.2 Y-22.675 I3.476 J0.001 
G01 X19.2 Y-22.675 
G03 X22.675 Y-19.2 I-0.001 J3.476 
G01 X22.675 Y19.2 
G03 X19.2 Y22.675 I-3.476 J-0.001 
G01 X-19.2 Y22.675 
X-19.2 Y24.725 
X24.725 Y24.725 
G00 Z5
Z-0.973
G01 Z-3.221 F50
X24.725 Y-24.725 F200
X-24.725 Y-24.725 
X-24.725 Y24.725 
X-22.775 Y24.725 
X-19.2 Y24.725 
X-19.2 Y22.675 
G03 X-22.675 Y19.2 I0.001 J-3.476 
G01 X-22.675 Y-19.2 
G03 X-19.2 Y-22.675 I3.476 J0.001 
G01 X19.2 Y-22.675 
G03 X22.675 Y-19.2 I-0.001 J3.476 
G01 X22.675 Y19.2 
G03 X19.2 Y22.675 I-3.476 J-0.001 
G01 X-19.2 Y22.675 
X-19.2 Y24.725 
X24.725 Y24.725 
G00 Z5
Z-1.221
G01 Z-3.469 F50
X24.725 Y-24.725 F200
X-24.725 Y-24.725 
X-24.725 Y24.725 
X-22.775 Y24.725 
X-19.2 Y24.725 
X-19.2 Y22.675 
G03 X-22.675 Y19.2 I0.001 J-3.476 
G01 X-22.675 Y-19.2 
G03 X-19.2 Y-22.675 I3.476 J0.001 
G01 X19.2 Y-22.675 
G03 X22.675 Y-19.2 I-0.001 J3.476 
G01 X22.675 Y19.2 
G03 X19.2 Y22.675 I-3.476 J-0.001 
G01 X-19.2 Y22.675 
X-19.2 Y24.725 
X24.725 Y24.725 
G00 Z5
Z-1.469
G01 Z-3.717 F50
X24.725 Y-24.725 F200
X-24.725 Y-24.725 
X-24.725 Y24.725 
X-22.775 Y24.725 
X-19.2 Y24.725 
X-19.2 Y22.675 
G03 X-22.675 Y19.2 I0.001 J-3.476 
G01 X-22.675 Y-19.2 
G03 X-19.2 Y-22.675 I3.476 J0.001 
G01 X19.2 Y-22.675 
G03 X22.675 Y-19.2 I-0.001 J3.476 
G01 X22.675 Y19.2 
G03 X19.2 Y22.675 I-3.476 J-0.001 
G01 X-19.2 Y22.675 
X-19.2 Y24.725 
X24.725 Y24.725 
G00 Z5
Z-1.717
G01 Z-3.965 F50
X24.725 Y-24.725 F200
X-24.725 Y-24.725 
X-24.725 Y24.725 
X-22.775 Y24.725 
X-19.2 Y24.725 
X-19.2 Y22.675 
G03 X-22.675 Y19.2 I0.001 J-3.476 
G01 X-22.675 Y-19.2 
G03 X-19.2 Y-22.675 I3.476 J0.001 
G01 X19.2 Y-22.675 
G03 X22.675 Y-19.2 I-0.001 J3.476 
G01 X22.675 Y19.2 
G03 X19.2 Y22.675 I-3.476 J-0.001 
G01 X-19.2 Y22.675 
X-19.2 Y24.725 
X24.725 Y24.725 
G00 Z5
Z-1.965
G01 Z-4.213 F50
X24.725 Y-24.725 F200
X-24.725 Y-24.725 
X-24.725 Y24.725 
X-22.775 Y24.725 
X-19.2 Y24.725 
X-19.2 Y22.675 
G03 X-22.675 Y19.2 I0.001 J-3.476 
G01 X-22.675 Y-19.2 
G03 X-19.2 Y-22.675 I3.476 J0.001 
G01 X19.2 Y-22.675 
G03 X22.675 Y-19.2 I-0.001 J3.476 
G01 X22.675 Y19.2 
G03 X19.2 Y22.675 I-3.476 J-0.001 
G01 X-19.2 Y22.675 
X-19.2 Y24.725 
X24.725 Y24.725 
G00 Z5
Z-2.213
G01 Z-4.46 F50
X24.725 Y-24.725 F200
X-24.725 Y-24.725 
X-24.725 Y24.725 
X-22.775 Y24.725 
X-19.2 Y24.725 
X-19.2 Y22.675 
G03 X-22.675 Y19.2 I0.001 J-3.476 
G01 X-22.675 Y-19.2 
G03 X-19.2 Y-22.675 I3.476 J0.001 
G01 X19.2 Y-22.675 
G03 X22.675 Y-19.2 I-0.001 J3.476 
G01 X22.675 Y19.2 
G03 X19.2 Y22.675 I-3.476 J-0.001 
G01 X-19.2 Y22.675 
X-19.2 Y24.725 
X24.725 Y24.725 
G00 Z5
Z-2.46
G01 Z-4.708 F50
X24.725 Y-24.725 F200
X-24.725 Y-24.725 
X-24.725 Y24.725 
X-22.775 Y24.725 
X-19.2 Y24.725 
X-19.2 Y22.675 
G03 X-22.675 Y19.2 I0.001 J-3.476 
G01 X-22.675 Y-19.2 
G03 X-19.2 Y-22.675 I3.476 J0.001 
G01 X19.2 Y-22.675 
G03 X22.675 Y-19.2 I-0.001 J3.476 
G01 X22.675 Y19.2 
G03 X19.2 Y22.675 I-3.476 J-0.001 
G01 X-19.2 Y22.675 
X-19.2 Y24.725 
X24.725 Y24.725 
G00 Z5
Z-2.708
G01 Z-4.956 F50
X24.725 Y-24.725 F200
X-24.725 Y-24.725 
X-24.725 Y24.725 
X-22.775 Y24.725 
X-19.2 Y24.725 
X-19.2 Y22.675 
G03 X-22.675 Y19.2 I0.001 J-3.476 
G01 X-22.675 Y-19.2 
G03 X-19.2 Y-22.675 I3.476 J0.001 
G01 X19.2 Y-22.675 
G03 X22.675 Y-19.2 I-0.001 J3.476 
G01 X22.675 Y19.2 
G03 X19.2 Y22.675 I-3.476 J-0.001 
G01 X-19.2 Y22.675 
X-19.2 Y24.725 
X24.725 Y24.725 
G00 Z5
Z-2.956
G01 Z-5.204 F50
X24.725 Y-24.725 F200
X-24.725 Y-24.725 
X-24.725 Y24.725 
X-22.775 Y24.725 
X-19.2 Y24.725 
X-19.2 Y22.675 
G03 X-22.675 Y19.2 I0.001 J-3.476 
G01 X-22.675 Y-19.2 
G03 X-19.2 Y-22.675 I3.476 J0.001 
G01 X19.2 Y-22.675 
G03 X22.675 Y-19.2 I-0.001 J3.476 
G01 X22.675 Y19.2 
G03 X19.2 Y22.675 I-3.476 J-0.001 
G01 X-19.2 Y22.675 
X-19.2 Y24.725 
X24.725 Y24.725 
G00 Z5
Z-3.204
G01 Z-5.452 F50
X24.725 Y-24.725 F200
X-24.725 Y-24.725 
X-24.725 Y24.725 
X-22.775 Y24.725 
X-19.2 Y24.725 
X-19.2 Y22.675 
G03 X-22.675 Y19.2 I0.001 J-3.476 
G01 X-22.675 Y-19.2 
G03 X-19.2 Y-22.675 I3.476 J0.001 
G01 X19.2 Y-22.675 
G03 X22.675 Y-19.2 I-0.001 J3.476 
G01 X22.675 Y19.2 
G03 X19.2 Y22.675 I-3.476 J-0.001 
G01 X-19.2 Y22.675 
X-19.2 Y24.725 
X24.725 Y24.725 
G00 Z5
Z-3.452
G01 Z-5.7 F50
X24.725 Y-24.725 F200
X-24.725 Y-24.725 
X-24.725 Y24.725 
X-22.775 Y24.725 
X-19.2 Y24.725 
X-19.2 Y22.675 
G03 X-22.675 Y19.2 I0.001 J-3.476 
G01 X-22.675 Y-19.2 
G03 X-19.2 Y-22.675 I3.476 J0.001 
G01 X19.2 Y-22.675 
G03 X22.675 Y-19.2 I-0.001 J3.476 
G01 X22.675 Y19.2 
G03 X19.2 Y22.675 I-3.476 J-0.001 
G01 X-19.2 Y22.675 
X-19.2 Y24.725 
X24.725 Y24.725 
G00 Z5
(inner)
X0 Y-22.725 S7000 M03
Z2
G01 Z-5.7 F50
G02 X0 Y-24.725 I0 J-1 F200
G01 X-24.725 Y-24.725 
X-24.725 Y24.725 
X24.725 Y24.725 
X24.725 Y-24.725 
X0 Y-24.725 
G02 X0 Y-22.725 I0 J1 
G00 Z5
G90
(inner)
X0 Y-23.025
Z2
G01 Z-5.7 F50
G02 X0 Y-25.025 I0 J-1 
G01 X-25.025 Y-25.025 
X-25.025 Y25.025 
X25.025 Y25.025 
X25.025 Y-25.025 
X0 Y-25.025 
G02 X0 Y-23.025 I0 J1 
G00 Z5
G90
(inner)
Z2 S7000 M03
G01 Z-5.7 
G03 X0 Y-25.025 I0 J-1 
G01 X25.025 Y-25.025 
X25.025 Y25.025 
X-25.025 Y25.025 
X-25.025 Y-25.025 
X0 Y-25.025 
G03 X0 Y-23.025 I0 J1 
G00 Z5
G90
(ledges)
X-14.825 Y-22.825 S7000 M03
Z-3.7
G01 Z-5.9 
G02 X-14.825 Y-24.825 I0 J-1 F200
G01 X-24.824 Y-24.824 
X-24.825 Y-4.711 
G03 X-24.825 Y4.711 I-4.549 J4.711 
G01 X-24.824 Y24.824 
X-4.711 Y24.825 
G03 X4.711 Y24.825 I4.711 J4.549 
G01 X24.824 Y24.824 
X24.825 Y4.711 
G03 X24.825 Y-4.711 I4.549 J-4.711 
G01 X24.824 Y-24.824 
X4.711 Y-24.825 
G03 X-4.711 Y-24.825 I-4.711 J-4.549 
G01 X-14.825 Y-24.825 
G02 X-14.825 Y-22.825 I0 J1 
G01 Z-6.1 F50
G02 X-14.825 Y-24.825 I0 J-1 F200
G01 X-24.824 Y-24.824 
X-24.825 Y-4.711 
G03 X-24.825 Y4.711 I-4.549 J4.711 
G01 X-24.824 Y24.824 
X-4.711 Y24.825 
G03 X4.711 Y24.825 I4.711 J4.549 
G01 X24.824 Y24.824 
X24.825 Y4.711 
G03 X24.825 Y-4.711 I4.549 J-4.711 
G01 X24.824 Y-24.824 
X4.711 Y-24.825 
G03 X-4.711 Y-24.825 I-4.711 J-4.549 
G01 X-14.825 Y-24.825 
G02 X-14.825 Y-22.825 I0 J1 
G01 Z-6.3 F50
G02 X-14.825 Y-24.825 I0 J-1 F200
G01 X-24.824 Y-24.824 
X-24.825 Y-4.711 
G03 X-24.825 Y4.711 I-4.549 J4.711 
G01 X-24.824 Y24.824 
X-4.711 Y24.825 
G03 X4.711 Y24.825 I4.711 J4.549 
G01 X24.824 Y24.824 
X24.825 Y4.711 
G03 X24.825 Y-4.711 I4.549 J-4.711 
G01 X24.824 Y-24.824 
X4.711 Y-24.825 
G03 X-4.711 Y-24.825 I-4.711 J-4.549 
G01 X-14.825 Y-24.825 
G02 X-14.825 Y-22.825 I0 J1 
G01 Z-6.5 F50
G02 X-14.825 Y-24.825 I0 J-1 F200
G01 X-24.824 Y-24.824 
X-24.825 Y-4.711 
G03 X-24.825 Y4.711 I-4.549 J4.711 
G01 X-24.824 Y24.824 
X-4.711 Y24.825 
G03 X4.711 Y24.825 I4.711 J4.549 
G01 X24.824 Y24.824 
X24.825 Y4.711 
G03 X24.825 Y-4.711 I4.549 J-4.711 
G01 X24.824 Y-24.824 
X4.711 Y-24.825 
G03 X-4.711 Y-24.825 I-4.711 J-4.549 
G01 X-14.825 Y-24.825 
G02 X-14.825 Y-22.825 I0 J1 
G00 Z5
G90
X25.375 Y35.176 S7000 M03
Z2
G01 Z-0.25 F50
G02 X28.798 Y33.895 I0.069 J-5.028 F200
X33.792 Y28.918 I-61.61 J-66.815 
X35.176 Y25.375 I-3.69 J-3.483 
G01 X35.176 Y-30.071 
G02 X30.076 Y-35.176 I-5.035 J-0.069 
G01 X-28.855 Y-35.176 
G02 X-32.459 Y-33.73 I-0.064 J5.052 
G03 X-33.782 Y-32.405 I-12.836 J-11.494 
G02 X-35.176 Y-28.855 I3.655 J3.484 
G01 X-35.176 Y30.072 
G02 X-30.152 Y35.172 I5.028 J0.071 
G01 X-30.152 Y35.126 
G03 X-35.126 Y30.152 I0.015 J-4.989 
G01 X-35.126 Y-28.937 
G03 X-33.499 Y-32.615 I4.968 J-0 
G02 X-32.539 Y-33.58 I-6.242 J-7.169 
G03 X-28.937 Y-35.126 I3.601 J3.421 
G01 X30.152 Y-35.126 
G03 X35.126 Y-30.152 I-0.013 J4.987 
G01 X35.126 Y25.456 
G03 X33.766 Y28.874 I-4.986 J-0.004 
X28.478 Y34.102 I-59.945 J-55.344 
X25.456 Y35.126 I-3.058 J-4.055 
G01 X-30.152 Y35.126 
X-30.152 Y35.172 
X-30.072 Y35.176 
X25.375 Y35.176 
G00 Z5
Z1.75
G01 Z-0.5 F50
G02 X28.798 Y33.895 I0.069 J-5.028 F200
X33.792 Y28.918 I-61.61 J-66.815 
X35.176 Y25.375 I-3.69 J-3.483 
G01 X35.176 Y-30.071 
G02 X30.076 Y-35.176 I-5.035 J-0.069 
G01 X-28.855 Y-35.176 
G02 X-32.459 Y-33.73 I-0.064 J5.052 
G03 X-33.782 Y-32.405 I-12.836 J-11.494 
G02 X-35.176 Y-28.855 I3.655 J3.484 
G01 X-35.176 Y30.072 
G02 X-30.152 Y35.172 I5.028 J0.071 
G01 X-30.152 Y35.126 
G03 X-35.126 Y30.152 I0.015 J-4.989 
G01 X-35.126 Y-28.937 
G03 X-33.499 Y-32.615 I4.968 J-0 
G02 X-32.539 Y-33.58 I-6.242 J-7.169 
G03 X-28.937 Y-35.126 I3.601 J3.421 
G01 X30.152 Y-35.126 
G03 X35.126 Y-30.152 I-0.013 J4.987 
G01 X35.126 Y25.456 
G03 X33.766 Y28.874 I-4.986 J-0.004 
X28.478 Y34.102 I-59.945 J-55.344 
X25.456 Y35.126 I-3.058 J-4.055 
G01 X-30.152 Y35.126 
X-30.152 Y35.172 
X-30.072 Y35.176 
X25.375 Y35.176 
G00 Z5
Z1.5
G01 Z-0.75 F50
G02 X28.798 Y33.895 I0.069 J-5.028 F200
X33.792 Y28.918 I-61.61 J-66.815 
X35.176 Y25.375 I-3.69 J-3.483 
G01 X35.176 Y-30.071 
G02 X30.076 Y-35.176 I-5.035 J-0.069 
G01 X-28.855 Y-35.176 
G02 X-32.459 Y-33.73 I-0.064 J5.052 
G03 X-33.782 Y-32.405 I-12.836 J-11.494 
G02 X-35.176 Y-28.855 I3.655 J3.484 
G01 X-35.176 Y30.072 
G02 X-30.152 Y35.172 I5.028 J0.071 
G01 X-30.152 Y35.126 
G03 X-35.126 Y30.152 I0.015 J-4.989 
G01 X-35.126 Y-28.937 
G03 X-33.499 Y-32.615 I4.968 J-0 
G02 X-32.539 Y-33.58 I-6.242 J-7.169 
G03 X-28.937 Y-35.126 I3.601 J3.421 
G01 X30.152 Y-35.126 
G03 X35.126 Y-30.152 I-0.013 J4.987 
G01 X35.126 Y25.456 
G03 X33.766 Y28.874 I-4.986 J-0.004 
X28.478 Y34.102 I-59.945 J-55.344 
X25.456 Y35.126 I-3.058 J-4.055 
G01 X-30.152 Y35.126 
X-30.152 Y35.172 
X-30.072 Y35.176 
X25.375 Y35.176 
G00 Z5
Z1.25
G01 Z-1 F50
G02 X28.798 Y33.895 I0.069 J-5.028 F200
X33.792 Y28.918 I-61.61 J-66.815 
X35.176 Y25.375 I-3.69 J-3.483 
G01 X35.176 Y-30.071 
G02 X30.076 Y-35.176 I-5.035 J-0.069 
G01 X-28.855 Y-35.176 
G02 X-32.459 Y-33.73 I-0.064 J5.052 
G03 X-33.782 Y-32.405 I-12.836 J-11.494 
G02 X-35.176 Y-28.855 I3.655 J3.484 
G01 X-35.176 Y30.072 
G02 X-30.152 Y35.172 I5.028 J0.071 
G01 X-30.152 Y35.126 
G03 X-35.126 Y30.152 I0.015 J-4.989 
G01 X-35.126 Y-28.937 
G03 X-33.499 Y-32.615 I4.968 J-0 
G02 X-32.539 Y-33.58 I-6.242 J-7.169 
G03 X-28.937 Y-35.126 I3.601 J3.421 
G01 X30.152 Y-35.126 
G03 X35.126 Y-30.152 I-0.013 J4.987 
G01 X35.126 Y25.456 
G03 X33.766 Y28.874 I-4.986 J-0.004 
X28.478 Y34.102 I-59.945 J-55.344 
X25.456 Y35.126 I-3.058 J-4.055 
G01 X-30.152 Y35.126 
X-30.152 Y35.172 
X-30.072 Y35.176 
X25.375 Y35.176 
G00 Z5
Z1
G01 Z-1.25 F50
G02 X28.798 Y33.895 I0.069 J-5.028 F200
X33.792 Y28.918 I-61.61 J-66.815 
X35.176 Y25.375 I-3.69 J-3.483 
G01 X35.176 Y-30.071 
G02 X30.076 Y-35.176 I-5.035 J-0.069 
G01 X-28.855 Y-35.176 
G02 X-32.459 Y-33.73 I-0.064 J5.052 
G03 X-33.782 Y-32.405 I-12.836 J-11.494 
G02 X-35.176 Y-28.855 I3.655 J3.484 
G01 X-35.176 Y30.072 
G02 X-30.152 Y35.172 I5.028 J0.071 
G01 X-30.152 Y35.126 
G03 X-35.126 Y30.152 I0.015 J-4.989 
G01 X-35.126 Y-28.937 
G03 X-33.499 Y-32.615 I4.968 J-0 
G02 X-32.539 Y-33.58 I-6.242 J-7.169 
G03 X-28.937 Y-35.126 I3.601 J3.421 
G01 X30.152 Y-35.126 
G03 X35.126 Y-30.152 I-0.013 J4.987 
G01 X35.126 Y25.456 
G03 X33.766 Y28.874 I-4.986 J-0.004 
X28.478 Y34.102 I-59.945 J-55.344 
X25.456 Y35.126 I-3.058 J-4.055 
G01 X-30.152 Y35.126 
X-30.152 Y35.172 
X-30.072 Y35.176 
X25.375 Y35.176 
G00 Z5
Z0.75
G01 Z-1.5 F50
G02 X28.798 Y33.895 I0.069 J-5.028 F200
X33.792 Y28.918 I-61.61 J-66.815 
X35.176 Y25.375 I-3.69 J-3.483 
G01 X35.176 Y-30.071 
G02 X30.076 Y-35.176 I-5.035 J-0.069 
G01 X-28.855 Y-35.176 
G02 X-32.459 Y-33.73 I-0.064 J5.052 
G03 X-33.782 Y-32.405 I-12.836 J-11.494 
G02 X-35.176 Y-28.855 I3.655 J3.484 
G01 X-35.176 Y30.072 
G02 X-30.152 Y35.172 I5.028 J0.071 
G01 X-30.152 Y35.126 
G03 X-35.126 Y30.152 I0.015 J-4.989 
G01 X-35.126 Y-28.937 
G03 X-33.499 Y-32.615 I4.968 J-0 
G02 X-32.539 Y-33.58 I-6.242 J-7.169 
G03 X-28.937 Y-35.126 I3.601 J3.421 
G01 X30.152 Y-35.126 
G03 X35.126 Y-30.152 I-0.013 J4.987 
G01 X35.126 Y25.456 
G03 X33.766 Y28.874 I-4.986 J-0.004 
X28.478 Y34.102 I-59.945 J-55.344 
X25.456 Y35.126 I-3.058 J-4.055 
G01 X-30.152 Y35.126 
X-30.152 Y35.172 
X-30.072 Y35.176 
X25.375 Y35.176 
G00 Z5
Z0.5
G01 Z-1.75 F50
G02 X28.798 Y33.895 I0.069 J-5.028 F200
X33.792 Y28.918 I-61.61 J-66.815 
X35.176 Y25.375 I-3.69 J-3.483 
G01 X35.176 Y-30.071 
G02 X30.076 Y-35.176 I-5.035 J-0.069 
G01 X-28.855 Y-35.176 
G02 X-32.459 Y-33.73 I-0.064 J5.052 
G03 X-33.782 Y-32.405 I-12.836 J-11.494 
G02 X-35.176 Y-28.855 I3.655 J3.484 
G01 X-35.176 Y30.072 
G02 X-30.152 Y35.172 I5.028 J0.071 
G01 X-30.152 Y35.126 
G03 X-35.126 Y30.152 I0.015 J-4.989 
G01 X-35.126 Y-28.937 
G03 X-33.499 Y-32.615 I4.968 J-0 
G02 X-32.539 Y-33.58 I-6.242 J-7.169 
G03 X-28.937 Y-35.126 I3.601 J3.421 
G01 X30.152 Y-35.126 
G03 X35.126 Y-30.152 I-0.013 J4.987 
G01 X35.126 Y25.456 
G03 X33.766 Y28.874 I-4.986 J-0.004 
X28.478 Y34.102 I-59.945 J-55.344 
X25.456 Y35.126 I-3.058 J-4.055 
G01 X-30.152 Y35.126 
X-30.152 Y35.172 
X-30.072 Y35.176 
X25.375 Y35.176 
G00 Z5
Z0.25
G01 Z-2 F50
G02 X28.798 Y33.895 I0.069 J-5.028 F200
X33.792 Y28.918 I-61.61 J-66.815 
X35.176 Y25.375 I-3.69 J-3.483 
G01 X35.176 Y-30.071 
G02 X30.076 Y-35.176 I-5.035 J-0.069 
G01 X-28.855 Y-35.176 
G02 X-32.459 Y-33.73 I-0.064 J5.052 
G03 X-33.782 Y-32.405 I-12.836 J-11.494 
G02 X-35.176 Y-28.855 I3.655 J3.484 
G01 X-35.176 Y30.072 
G02 X-30.152 Y35.172 I5.028 J0.071 
G01 X-30.152 Y35.126 
G03 X-35.126 Y30.152 I0.015 J-4.989 
G01 X-35.126 Y-28.937 
G03 X-33.499 Y-32.615 I4.968 J-0 
G02 X-32.539 Y-33.58 I-6.242 J-7.169 
G03 X-28.937 Y-35.126 I3.601 J3.421 
G01 X30.152 Y-35.126 
G03 X35.126 Y-30.152 I-0.013 J4.987 
G01 X35.126 Y25.456 
G03 X33.766 Y28.874 I-4.986 J-0.004 
X28.478 Y34.102 I-59.945 J-55.344 
X25.456 Y35.126 I-3.058 J-4.055 
G01 X-30.152 Y35.126 
X-30.152 Y35.172 
X-30.072 Y35.176 
X25.375 Y35.176 
G00 Z5
Z0
G01 Z-2.25 F50
G02 X28.798 Y33.895 I0.069 J-5.028 F200
X33.792 Y28.918 I-61.61 J-66.815 
X35.176 Y25.375 I-3.69 J-3.483 
G01 X35.176 Y-30.071 
G02 X30.076 Y-35.176 I-5.035 J-0.069 
G01 X-28.855 Y-35.176 
G02 X-32.459 Y-33.73 I-0.064 J5.052 
G03 X-33.782 Y-32.405 I-12.836 J-11.494 
G02 X-35.176 Y-28.855 I3.655 J3.484 
G01 X-35.176 Y30.072 
G02 X-30.152 Y35.172 I5.028 J0.071 
G01 X-30.152 Y35.126 
G03 X-35.126 Y30.152 I0.015 J-4.989 
G01 X-35.126 Y-28.937 
G03 X-33.499 Y-32.615 I4.968 J-0 
G02 X-32.539 Y-33.58 I-6.242 J-7.169 
G03 X-28.937 Y-35.126 I3.601 J3.421 
G01 X30.152 Y-35.126 
G03 X35.126 Y-30.152 I-0.013 J4.987 
G01 X35.126 Y25.456 
G03 X33.766 Y28.874 I-4.986 J-0.004 
X28.478 Y34.102 I-59.945 J-55.344 
X25.456 Y35.126 I-3.058 J-4.055 
G01 X-30.152 Y35.126 
X-30.152 Y35.172 
X-30.072 Y35.176 
X25.375 Y35.176 
G00 Z5
Z-0.25
G01 Z-2.5 F50
G02 X28.798 Y33.895 I0.069 J-5.028 F200
X33.792 Y28.918 I-61.61 J-66.815 
X35.176 Y25.375 I-3.69 J-3.483 
G01 X35.176 Y-30.071 
G02 X30.076 Y-35.176 I-5.035 J-0.069 
G01 X-28.855 Y-35.176 
G02 X-32.459 Y-33.73 I-0.064 J5.052 
G03 X-33.782 Y-32.405 I-12.836 J-11.494 
G02 X-35.176 Y-28.855 I3.655 J3.484 
G01 X-35.176 Y30.072 
G02 X-30.152 Y35.172 I5.028 J0.071 
G01 X-30.152 Y35.126 
G03 X-35.126 Y30.152 I0.015 J-4.989 
G01 X-35.126 Y-28.937 
G03 X-33.499 Y-32.615 I4.968 J-0 
G02 X-32.539 Y-33.58 I-6.242 J-7.169 
G03 X-28.937 Y-35.126 I3.601 J3.421 
G01 X30.152 Y-35.126 
G03 X35.126 Y-30.152 I-0.013 J4.987 
G01 X35.126 Y25.456 
G03 X33.766 Y28.874 I-4.986 J-0.004 
X28.478 Y34.102 I-59.945 J-55.344 
X25.456 Y35.126 I-3.058 J-4.055 
G01 X-30.152 Y35.126 
X-30.152 Y35.172 
X-30.072 Y35.176 
X25.375 Y35.176 
G00 Z5
Z-0.5
G01 Z-2.75 F50
G02 X28.798 Y33.895 I0.069 J-5.028 F200
X33.792 Y28.918 I-61.61 J-66.815 
X35.176 Y25.375 I-3.69 J-3.483 
G01 X35.176 Y-30.071 
G02 X30.076 Y-35.176 I-5.035 J-0.069 
G01 X-28.855 Y-35.176 
G02 X-32.459 Y-33.73 I-0.064 J5.052 
G03 X-33.782 Y-32.405 I-12.836 J-11.494 
G02 X-35.176 Y-28.855 I3.655 J3.484 
G01 X-35.176 Y30.072 
G02 X-30.152 Y35.172 I5.028 J0.071 
G01 X-30.152 Y35.126 
G03 X-35.126 Y30.152 I0.015 J-4.989 
G01 X-35.126 Y-28.937 
G03 X-33.499 Y-32.615 I4.968 J-0 
G02 X-32.539 Y-33.58 I-6.242 J-7.169 
G03 X-28.937 Y-35.126 I3.601 J3.421 
G01 X30.152 Y-35.126 
G03 X35.126 Y-30.152 I-0.013 J4.987 
G01 X35.126 Y25.456 
G03 X33.766 Y28.874 I-4.986 J-0.004 
X28.478 Y34.102 I-59.945 J-55.344 
X25.456 Y35.126 I-3.058 J-4.055 
G01 X-30.152 Y35.126 
X-30.152 Y35.172 
X-30.072 Y35.176 
X25.375 Y35.176 
G00 Z5
Z-0.75
G01 Z-3 F50
G02 X28.798 Y33.895 I0.069 J-5.028 F200
X33.792 Y28.918 I-61.61 J-66.815 
X35.176 Y25.375 I-3.69 J-3.483 
G01 X35.176 Y-30.071 
G02 X30.076 Y-35.176 I-5.035 J-0.069 
G01 X-28.855 Y-35.176 
G02 X-32.459 Y-33.73 I-0.064 J5.052 
G03 X-33.782 Y-32.405 I-12.836 J-11.494 
G02 X-35.176 Y-28.855 I3.655 J3.484 
G01 X-35.176 Y30.072 
G02 X-30.152 Y35.172 I5.028 J0.071 
G01 X-30.152 Y35.126 
G03 X-35.126 Y30.152 I0.015 J-4.989 
G01 X-35.126 Y-28.937 
G03 X-33.499 Y-32.615 I4.968 J-0 
G02 X-32.539 Y-33.58 I-6.242 J-7.169 
G03 X-28.937 Y-35.126 I3.601 J3.421 
G01 X30.152 Y-35.126 
G03 X35.126 Y-30.152 I-0.013 J4.987 
G01 X35.126 Y25.456 
G03 X33.766 Y28.874 I-4.986 J-0.004 
X28.478 Y34.102 I-59.945 J-55.344 
X25.456 Y35.126 I-3.058 J-4.055 
G01 X-30.152 Y35.126 
X-30.152 Y35.172 
X-30.072 Y35.176 
X25.375 Y35.176 
G00 Z5
Z-1
G01 Z-3.25 F50
G02 X28.798 Y33.895 I0.069 J-5.028 F200
X33.792 Y28.918 I-61.61 J-66.815 
X35.176 Y25.375 I-3.69 J-3.483 
G01 X35.176 Y-30.071 
G02 X30.076 Y-35.176 I-5.035 J-0.069 
G01 X-28.855 Y-35.176 
G02 X-32.459 Y-33.73 I-0.064 J5.052 
G03 X-33.782 Y-32.405 I-12.836 J-11.494 
G02 X-35.176 Y-28.855 I3.655 J3.484 
G01 X-35.176 Y30.072 
G02 X-30.152 Y35.172 I5.028 J0.071 
G01 X-30.152 Y35.126 
G03 X-35.126 Y30.152 I0.015 J-4.989 
G01 X-35.126 Y-28.937 
G03 X-33.499 Y-32.615 I4.968 J-0 
G02 X-32.539 Y-33.58 I-6.242 J-7.169 
G03 X-28.937 Y-35.126 I3.601 J3.421 
G01 X30.152 Y-35.126 
G03 X35.126 Y-30.152 I-0.013 J4.987 
G01 X35.126 Y25.456 
G03 X33.766 Y28.874 I-4.986 J-0.004 
X28.478 Y34.102 I-59.945 J-55.344 
X25.456 Y35.126 I-3.058 J-4.055 
G01 X-30.152 Y35.126 
X-30.152 Y35.172 
X-30.072 Y35.176 
X25.375 Y35.176 
G00 Z5
Z-1.25
G01 Z-3.5 F50
G02 X28.798 Y33.895 I0.069 J-5.028 F200
X33.792 Y28.918 I-61.61 J-66.815 
X35.176 Y25.375 I-3.69 J-3.483 
G01 X35.176 Y-30.071 
G02 X30.076 Y-35.176 I-5.035 J-0.069 
G01 X-28.855 Y-35.176 
G02 X-32.459 Y-33.73 I-0.064 J5.052 
G03 X-33.782 Y-32.405 I-12.836 J-11.494 
G02 X-35.176 Y-28.855 I3.655 J3.484 
G01 X-35.176 Y30.072 
G02 X-30.152 Y35.172 I5.028 J0.071 
G01 X-30.152 Y35.126 
G03 X-35.126 Y30.152 I0.015 J-4.989 
G01 X-35.126 Y-28.937 
G03 X-33.499 Y-32.615 I4.968 J-0 
G02 X-32.539 Y-33.58 I-6.242 J-7.169 
G03 X-28.937 Y-35.126 I3.601 J3.421 
G01 X30.152 Y-35.126 
G03 X35.126 Y-30.152 I-0.013 J4.987 
G01 X35.126 Y25.456 
G03 X33.766 Y28.874 I-4.986 J-0.004 
X28.478 Y34.102 I-59.945 J-55.344 
X25.456 Y35.126 I-3.058 J-4.055 
G01 X-30.152 Y35.126 
X-30.152 Y35.172 
X-30.072 Y35.176 
X25.375 Y35.176 
G00 Z5
Z-1.5
G01 Z-3.75 F50
G02 X28.798 Y33.895 I0.069 J-5.028 F200
X33.792 Y28.918 I-61.61 J-66.815 
X35.176 Y25.375 I-3.69 J-3.483 
G01 X35.176 Y-30.071 
G02 X30.076 Y-35.176 I-5.035 J-0.069 
G01 X-28.855 Y-35.176 
G02 X-32.459 Y-33.73 I-0.064 J5.052 
G03 X-33.782 Y-32.405 I-12.836 J-11.494 
G02 X-35.176 Y-28.855 I3.655 J3.484 
G01 X-35.176 Y30.072 
G02 X-30.152 Y35.172 I5.028 J0.071 
G01 X-30.152 Y35.126 
G03 X-35.126 Y30.152 I0.015 J-4.989 
G01 X-35.126 Y-28.937 
G03 X-33.499 Y-32.615 I4.968 J-0 
G02 X-32.539 Y-33.58 I-6.242 J-7.169 
G03 X-28.937 Y-35.126 I3.601 J3.421 
G01 X30.152 Y-35.126 
G03 X35.126 Y-30.152 I-0.013 J4.987 
G01 X35.126 Y25.456 
G03 X33.766 Y28.874 I-4.986 J-0.004 
X28.478 Y34.102 I-59.945 J-55.344 
X25.456 Y35.126 I-3.058 J-4.055 
G01 X-30.152 Y35.126 
X-30.152 Y35.172 
X-30.072 Y35.176 
X25.375 Y35.176 
G00 Z5
Z-1.75
G01 Z-4 F50
G02 X28.798 Y33.895 I0.069 J-5.028 F200
X33.792 Y28.918 I-61.61 J-66.815 
X35.176 Y25.375 I-3.69 J-3.483 
G01 X35.176 Y-30.071 
G02 X30.076 Y-35.176 I-5.035 J-0.069 
G01 X-28.855 Y-35.176 
G02 X-32.459 Y-33.73 I-0.064 J5.052 
G03 X-33.782 Y-32.405 I-12.836 J-11.494 
G02 X-35.176 Y-28.855 I3.655 J3.484 
G01 X-35.176 Y30.072 
G02 X-30.152 Y35.172 I5.028 J0.071 
G01 X-30.152 Y35.126 
G03 X-35.126 Y30.152 I0.015 J-4.989 
G01 X-35.126 Y-28.937 
G03 X-33.499 Y-32.615 I4.968 J-0 
G02 X-32.539 Y-33.58 I-6.242 J-7.169 
G03 X-28.937 Y-35.126 I3.601 J3.421 
G01 X30.152 Y-35.126 
G03 X35.126 Y-30.152 I-0.013 J4.987 
G01 X35.126 Y25.456 
G03 X33.766 Y28.874 I-4.986 J-0.004 
X28.478 Y34.102 I-59.945 J-55.344 
X25.456 Y35.126 I-3.058 J-4.055 
G01 X-30.152 Y35.126 
X-30.152 Y35.172 
X-30.072 Y35.176 
X25.375 Y35.176 
G00 Z5
Z-2
G01 Z-4.25 F50
G02 X28.798 Y33.895 I0.069 J-5.028 F200
X33.792 Y28.918 I-61.61 J-66.815 
X35.176 Y25.375 I-3.69 J-3.483 
G01 X35.176 Y-30.071 
G02 X30.076 Y-35.176 I-5.035 J-0.069 
G01 X-28.855 Y-35.176 
G02 X-32.459 Y-33.73 I-0.064 J5.052 
G03 X-33.782 Y-32.405 I-12.836 J-11.494 
G02 X-35.176 Y-28.855 I3.655 J3.484 
G01 X-35.176 Y30.072 
G02 X-30.152 Y35.172 I5.028 J0.071 
G01 X-30.152 Y35.126 
G03 X-35.126 Y30.152 I0.015 J-4.989 
G01 X-35.126 Y-28.937 
G03 X-33.499 Y-32.615 I4.968 J-0 
G02 X-32.539 Y-33.58 I-6.242 J-7.169 
G03 X-28.937 Y-35.126 I3.601 J3.421 
G01 X30.152 Y-35.126 
G03 X35.126 Y-30.152 I-0.013 J4.987 
G01 X35.126 Y25.456 
G03 X33.766 Y28.874 I-4.986 J-0.004 
X28.478 Y34.102 I-59.945 J-55.344 
X25.456 Y35.126 I-3.058 J-4.055 
G01 X-30.152 Y35.126 
X-30.152 Y35.172 
X-30.072 Y35.176 
X25.375 Y35.176 
G00 Z5
Z-2.25
G01 Z-4.5 F50
G02 X28.798 Y33.895 I0.069 J-5.028 F200
X33.792 Y28.918 I-61.61 J-66.815 
X35.176 Y25.375 I-3.69 J-3.483 
G01 X35.176 Y-30.071 
G02 X30.076 Y-35.176 I-5.035 J-0.069 
G01 X-28.855 Y-35.176 
G02 X-32.459 Y-33.73 I-0.064 J5.052 
G03 X-33.782 Y-32.405 I-12.836 J-11.494 
G02 X-35.176 Y-28.855 I3.655 J3.484 
G01 X-35.176 Y30.072 
G02 X-30.152 Y35.172 I5.028 J0.071 
G01 X-30.152 Y35.126 
G03 X-35.126 Y30.152 I0.015 J-4.989 
G01 X-35.126 Y-28.937 
G03 X-33.499 Y-32.615 I4.968 J-0 
G02 X-32.539 Y-33.58 I-6.242 J-7.169 
G03 X-28.937 Y-35.126 I3.601 J3.421 
G01 X30.152 Y-35.126 
G03 X35.126 Y-30.152 I-0.013 J4.987 
G01 X35.126 Y25.456 
G03 X33.766 Y28.874 I-4.986 J-0.004 
X28.478 Y34.102 I-59.945 J-55.344 
X25.456 Y35.126 I-3.058 J-4.055 
G01 X-30.152 Y35.126 
X-30.152 Y35.172 
X-30.072 Y35.176 
X25.375 Y35.176 
G00 Z5
Z-2.5
G01 Z-4.75 F50
G02 X28.798 Y33.895 I0.069 J-5.028 F200
X33.792 Y28.918 I-61.61 J-66.815 
X35.176 Y25.375 I-3.69 J-3.483 
G01 X35.176 Y-30.071 
G02 X30.076 Y-35.176 I-5.035 J-0.069 
G01 X-28.855 Y-35.176 
G02 X-32.459 Y-33.73 I-0.064 J5.052 
G03 X-33.782 Y-32.405 I-12.836 J-11.494 
G02 X-35.176 Y-28.855 I3.655 J3.484 
G01 X-35.176 Y30.072 
G02 X-30.152 Y35.172 I5.028 J0.071 
G01 X-30.152 Y35.126 
G03 X-35.126 Y30.152 I0.015 J-4.989 
G01 X-35.126 Y-28.937 
G03 X-33.499 Y-32.615 I4.968 J-0 
G02 X-32.539 Y-33.58 I-6.242 J-7.169 
G03 X-28.937 Y-35.126 I3.601 J3.421 
G01 X30.152 Y-35.126 
G03 X35.126 Y-30.152 I-0.013 J4.987 
G01 X35.126 Y25.456 
G03 X33.766 Y28.874 I-4.986 J-0.004 
X28.478 Y34.102 I-59.945 J-55.344 
X25.456 Y35.126 I-3.058 J-4.055 
G01 X-30.152 Y35.126 
X-30.152 Y35.172 
X-30.072 Y35.176 
X25.375 Y35.176 
G00 Z5
Z-2.75
G01 Z-5 F50
G02 X28.798 Y33.895 I0.069 J-5.028 F200
X33.792 Y28.918 I-61.61 J-66.815 
X35.176 Y25.375 I-3.69 J-3.483 
G01 X35.176 Y-30.071 
G02 X30.076 Y-35.176 I-5.035 J-0.069 
G01 X-28.855 Y-35.176 
G02 X-32.459 Y-33.73 I-0.064 J5.052 
G03 X-33.782 Y-32.405 I-12.836 J-11.494 
G02 X-35.176 Y-28.855 I3.655 J3.484 
G01 X-35.176 Y30.072 
G02 X-30.152 Y35.172 I5.028 J0.071 
G01 X-30.152 Y35.126 
G03 X-35.126 Y30.152 I0.015 J-4.989 
G01 X-35.126 Y-28.937 
G03 X-33.499 Y-32.615 I4.968 J-0 
G02 X-32.539 Y-33.58 I-6.242 J-7.169 
G03 X-28.937 Y-35.126 I3.601 J3.421 
G01 X30.152 Y-35.126 
G03 X35.126 Y-30.152 I-0.013 J4.987 
G01 X35.126 Y25.456 
G03 X33.766 Y28.874 I-4.986 J-0.004 
X28.478 Y34.102 I-59.945 J-55.344 
X25.456 Y35.126 I-3.058 J-4.055 
G01 X-30.152 Y35.126 
X-30.152 Y35.172 
X-30.072 Y35.176 
X25.375 Y35.176 
G00 Z5
Z-3
G01 Z-5.25 F50
G02 X28.798 Y33.895 I0.069 J-5.028 F200
X33.792 Y28.918 I-61.61 J-66.815 
X35.176 Y25.375 I-3.69 J-3.483 
G01 X35.176 Y-30.071 
G02 X30.076 Y-35.176 I-5.035 J-0.069 
G01 X-28.855 Y-35.176 
G02 X-32.459 Y-33.73 I-0.064 J5.052 
G03 X-33.782 Y-32.405 I-12.836 J-11.494 
G02 X-35.176 Y-28.855 I3.655 J3.484 
G01 X-35.176 Y30.072 
G02 X-30.152 Y35.172 I5.028 J0.071 
G01 X-30.152 Y35.126 
G03 X-35.126 Y30.152 I0.015 J-4.989 
G01 X-35.126 Y-28.937 
G03 X-33.499 Y-32.615 I4.968 J-0 
G02 X-32.539 Y-33.58 I-6.242 J-7.169 
G03 X-28.937 Y-35.126 I3.601 J3.421 
G01 X30.152 Y-35.126 
G03 X35.126 Y-30.152 I-0.013 J4.987 
G01 X35.126 Y25.456 
G03 X33.766 Y28.874 I-4.986 J-0.004 
X28.478 Y34.102 I-59.945 J-55.344 
X25.456 Y35.126 I-3.058 J-4.055 
G01 X-30.152 Y35.126 
X-30.152 Y35.172 
X-30.072 Y35.176 
X25.375 Y35.176 
G00 Z5
Z-3.25
G01 Z-5.5 F50
G02 X28.798 Y33.895 I0.069 J-5.028 F200
X33.792 Y28.918 I-61.61 J-66.815 
X35.176 Y25.375 I-3.69 J-3.483 
G01 X35.176 Y-30.071 
G02 X30.076 Y-35.176 I-5.035 J-0.069 
G01 X-28.855 Y-35.176 
G02 X-32.459 Y-33.73 I-0.064 J5.052 
G03 X-33.782 Y-32.405 I-12.836 J-11.494 
G02 X-35.176 Y-28.855 I3.655 J3.484 
G01 X-35.176 Y30.072 
G02 X-30.152 Y35.172 I5.028 J0.071 
G01 X-30.152 Y35.126 
G03 X-35.126 Y30.152 I0.015 J-4.989 
G01 X-35.126 Y-28.937 
G03 X-33.499 Y-32.615 I4.968 J-0 
G02 X-32.539 Y-33.58 I-6.242 J-7.169 
G03 X-28.937 Y-35.126 I3.601 J3.421 
G01 X30.152 Y-35.126 
G03 X35.126 Y-30.152 I-0.013 J4.987 
G01 X35.126 Y25.456 
G03 X33.766 Y28.874 I-4.986 J-0.004 
X28.478 Y34.102 I-59.945 J-55.344 
X25.456 Y35.126 I-3.058 J-4.055 
G01 X-30.152 Y35.126 
X-30.152 Y35.172 
X-30.072 Y35.176 
X25.375 Y35.176 
G00 Z5
(outer)
X0.607 Y-37.127 S7000 M03
Z-3.5
G01 Z-5.75 F50
G02 X0.607 Y-35.127 I0 J1 F200
G01 X30.152 Y-35.127 Z-5.75 
G03 X35.127 Y-30.152 Z-5.75 I0 J4.974 
G01 X35.127 Y25.456 Z-5.75 
G03 X33.794 Y28.845 Z-5.75 I-4.975 J0 
X28.845 Y33.794 Z-5.75 I-71.27 J-66.322 
X25.456 Y35.127 Z-5.75 I-3.389 J-3.642 
G01 X-30.152 Y35.127 Z-5.75 
G03 X-35.127 Y30.152 Z-5.75 I0 J-4.974 
G01 X-35.127 Y-10.075 Z-5.75 
X-35.127 Y-10.825 Z-5 
X-35.127 Y-19.175 Z-5 
X-35.127 Y-19.925 Z-5.75 
X-35.127 Y-28.937 Z-5.75 
G03 X-33.391 Y-32.713 Z-5.75 I4.974 J0 
G02 X-32.713 Y-33.391 Z-5.75 I-4.085 J-4.762 
G03 X-28.937 Y-35.127 Z-5.75 I3.776 J3.239 
G01 X0.607 Y-35.127 Z-5.75 
G02 X0.607 Y-37.127 I0 J-1 
G01 Z-6 F50
G02 X0.607 Y-35.127 I0 J1 F200
G01 X30.152 Y-35.127 Z-6 
G03 X35.127 Y-30.152 Z-6 I0 J4.974 
G01 X35.127 Y25.456 Z-6 
G03 X33.794 Y28.845 Z-6 I-4.975 J0 
X28.845 Y33.794 Z-6 I-71.27 J-66.322 
X25.456 Y35.127 Z-6 I-3.389 J-3.642 
G01 X-30.152 Y35.127 Z-6 
G03 X-35.127 Y30.152 Z-6 I0 J-4.974 
G01 X-35.127 Y-9.825 Z-6 
X-35.127 Y-10.825 Z-5 
X-35.127 Y-19.175 Z-5 
X-35.127 Y-20.175 Z-6 
X-35.127 Y-28.937 Z-6 
G03 X-33.391 Y-32.713 Z-6 I4.974 J0 
G02 X-32.713 Y-33.391 Z-6 I-4.085 J-4.762 
G03 X-28.937 Y-35.127 Z-6 I3.776 J3.239 
G01 X0.607 Y-35.127 Z-6 
G02 X0.607 Y-37.127 I0 J-1 
G01 Z-6.25 F50
G02 X0.607 Y-35.127 I0 J1 F200
G01 X30.152 Y-35.127 Z-6.25 
G03 X35.127 Y-30.152 Z-6.25 I0 J4.974 
G01 X35.127 Y25.456 Z-6.25 
G03 X33.794 Y28.845 Z-6.25 I-4.975 J0 
X28.845 Y33.794 Z-6.25 I-71.27 J-66.322 
X25.456 Y35.127 Z-6.25 I-3.389 J-3.642 
G01 X-30.152 Y35.127 Z-6.25 
G03 X-35.127 Y30.152 Z-6.25 I0 J-4.974 
G01 X-35.127 Y-9.575 Z-6.25 
X-35.127 Y-10.825 Z-5 
X-35.127 Y-19.175 Z-5 
X-35.127 Y-20.425 Z-6.25 
X-35.127 Y-28.937 Z-6.25 
G03 X-33.391 Y-32.713 Z-6.25 I4.974 J0 
G02 X-32.713 Y-33.391 Z-6.25 I-4.085 J-4.762 
G03 X-28.937 Y-35.127 Z-6.25 I3.776 J3.239 
G01 X0.607 Y-35.127 Z-6.25 
G02 X0.607 Y-37.127 I0 J-1 
G01 Z-6.5 F50
G02 X0.607 Y-35.127 I0 J1 F200
G01 X30.152 Y-35.127 Z-6.5 
G03 X35.127 Y-30.152 Z-6.5 I0 J4.974 
G01 X35.127 Y25.456 Z-6.5 
G03 X33.794 Y28.845 Z-6.5 I-4.975 J0 
X28.845 Y33.794 Z-6.5 I-71.27 J-66.322 
X25.456 Y35.127 Z-6.5 I-3.389 J-3.642 
G01 X-30.152 Y35.127 Z-6.5 
G03 X-35.127 Y30.152 Z-6.5 I0 J-4.974 
G01 X-35.127 Y-9.325 Z-6.5 
X-35.127 Y-10.825 Z-5 
X-35.127 Y-19.175 Z-5 
X-35.127 Y-20.675 Z-6.5 
X-35.127 Y-28.937 Z-6.5 
G03 X-33.391 Y-32.713 Z-6.5 I4.974 J0 
G02 X-32.713 Y-33.391 Z-6.5 I-4.085 J-4.762 
G03 X-28.937 Y-35.127 Z-6.5 I3.776 J3.239 
G01 X0.607 Y-35.127 Z-6.5 
G02 X0.607 Y-37.127 I0 J-1 
G00 Z5
G90
(outer)
X0.607 Y-36.827
Z-3.5
G01 Z-6.5 F50
G02 X0.607 Y-34.827 I0 J1 
G01 X30.152 Y-34.827 Z-6.5 
G03 X34.827 Y-30.152 Z-6.5 I0 J4.674 
G01 X34.827 Y25.456 Z-6.5 
G03 X33.574 Y28.641 Z-6.5 I-4.675 J0 
X28.641 Y33.574 Z-6.5 I-71.051 J-66.117 
X25.456 Y34.827 Z-6.5 I-3.184 J-3.422 
G01 X-30.152 Y34.827 Z-6.5 
G03 X-34.827 Y30.152 Z-6.5 I0 J-4.674 
G01 X-34.827 Y-9.325 Z-6.5 
X-34.827 Y-10.825 Z-5 
X-34.827 Y-19.175 Z-5 
X-34.827 Y-20.675 Z-6.5 
X-34.827 Y-28.937 Z-6.5 
G03 X-33.195 Y-32.486 Z-6.5 I4.674 J0 
G02 X-32.486 Y-33.195 Z-6.5 I-4.28 J-4.99 
G03 X-28.937 Y-34.827 Z-6.5 I3.548 J3.043 
G01 X0.607 Y-34.827 Z-6.5 
G02 X0.607 Y-36.827 I0 J-1 
G00 Z5
G90
(outer)
Z2 S7000 M03
G01 Z-6.5 
G03 X0.607 Y-34.827 I0 J1 
G01 X-28.937 Y-34.827 Z-6.5 
G02 X-32.486 Y-33.195 Z-6.5 I0 J4.674 
G03 X-33.195 Y-32.486 Z-6.5 I-4.99 J-4.28 
G02 X-34.827 Y-28.937 Z-6.5 I3.043 J3.548 
G01 X-34.827 Y-20.675 Z-6.5 
X-34.827 Y-19.175 Z-5 
X-34.827 Y-10.825 Z-5 
X-34.827 Y-9.325 Z-6.5 
X-34.827 Y30.152 Z-6.5 
G02 X-30.152 Y34.827 Z-6.5 I4.674 J0 
G01 X25.456 Y34.827 Z-6.5 
G02 X28.641 Y33.574 Z-6.5 I0 J-4.675 
X33.574 Y28.641 Z-6.5 I-66.117 J-71.051 
X34.827 Y25.456 Z-6.5 I-3.422 J-3.184 
G01 X34.827 Y-30.152 Z-6.5 
G02 X30.152 Y-34.827 Z-6.5 I-4.674 J0 
G01 X0.607 Y-34.827 Z-6.5 
G03 X0.607 Y-36.827 I0 J-1 
G00 Z5
T0 M06 M05
