(Created with GRBL post processor 2017/05/02 14:02)
(tool change to 6.35 mm End Mill)
T4 M06
G17 G90 G21
G00 X-36.623 Y0 S7000 M03
Z2
G01 Z-0.1 F20
G00 Z2
Z-0.1
G01 Z-0.2 
G00 Z2
Z-0.2
G01 Z-0.3 
G00 Z2
Z-0.3
G01 Z-0.4 
G00 Z2
Z-0.4
G01 Z-0.5 
G00 Z2
Z-0.5
G01 Z-0.6 
G00 Z2
Z-0.6
G01 Z-0.7 
G00 Z2
Z-0.7
G01 Z-0.8 
G00 Z2
Z-0.8
G01 Z-0.9 
G00 Z2
Z-0.9
G01 Z-1 
G00 Z2
Z-1
G01 Z-1.1 
G00 Z2
Z-1.1
G01 Z-1.2 
G00 Z2
Z-1.2
G01 Z-1.3 
G00 Z2
Z-1.3
G01 Z-1.4 
G00 Z2
Z-1.4
G01 Z-1.5 
G00 Z2
Z-1.5
G01 Z-1.6 
G00 Z2
Z-1.6
G01 Z-1.7 
G00 Z2
Z-1.7
G01 Z-1.8 
G00 Z2
Z-1.8
G01 Z-1.9 
G00 Z2
Z-1.9
G01 Z-2 
G00 Z2
Z-2
G01 Z-2.1 
G00 Z2
Z-2.1
G01 Z-2.2 
G00 Z2
Z-2.2
G01 Z-2.3 
G00 Z2
Z-2.3
G01 Z-2.4 
G00 Z2
Z-2.4
G01 Z-2.5 
G00 Z2
Z-2.5
G01 Z-2.6 
G00 Z2
Z-2.6
G01 Z-2.7 
G00 Z2
Z-2.7
G01 Z-2.8 
G00 Z2
Z-2.8
G01 Z-2.9 
G00 Z2
Z-2.9
G01 Z-3 
G00 Z2
Z-3
G01 Z-3.1 
G00 Z2
Z-3.1
G01 Z-3.2 
G00 Z2
Z-3.2
G01 Z-3.3 
G00 Z2
Z-3.3
G01 Z-3.4 
G00 Z2
Z-3.4
G01 Z-3.5 
G00 Z2
Z-3.5
G01 Z-3.6 
G00 Z2
Z-3.6
G01 Z-3.7 
G00 Z2
Z-3.7
G01 Z-3.8 
G00 Z2
Z-3.8
G01 Z-3.9 
G00 Z2
Z-3.9
G01 Z-4 
G00 Z2
Z-4
G01 Z-4.1 
G00 Z2
Z-4.1
G01 Z-4.2 
G00 Z2
Z-4.2
G01 Z-4.3 
G00 Z2
Z-4.3
G01 Z-4.4 
G00 Z2
Z-4.4
G01 Z-4.5 
G00 Z2
Z-4.5
G01 Z-4.6 
G00 Z2
Z-4.6
G01 Z-4.7 
G00 Z2
Z-4.7
G01 Z-4.8 
G00 Z2
Z-4.8
G01 Z-4.9 
G00 Z2
Z-4.9
G01 Z-5 
G00 Z2
Z-5
G01 Z-5.1 
G00 Z2
Z-5.1
G01 Z-5.2 
G00 Z2
Z-5.2
G01 Z-5.3 
G00 Z2
Z-5.3
G01 Z-5.4 
G00 Z2
Z-5.4
G01 Z-5.5 
G00 Z2
Z-5.5
G01 Z-5.6 
G00 Z2
Z-5.6
G01 Z-5.7 
G04 P5
G00 Z5
X36.623 Y0
Z2
G01 Z-0.1 
G00 Z2
Z-0.1
G01 Z-0.2 
G00 Z2
Z-0.2
G01 Z-0.3 
G00 Z2
Z-0.3
G01 Z-0.4 
G00 Z2
Z-0.4
G01 Z-0.5 
G00 Z2
Z-0.5
G01 Z-0.6 
G00 Z2
Z-0.6
G01 Z-0.7 
G00 Z2
Z-0.7
G01 Z-0.8 
G00 Z2
Z-0.8
G01 Z-0.9 
G00 Z2
Z-0.9
G01 Z-1 
G00 Z2
Z-1
G01 Z-1.1 
G00 Z2
Z-1.1
G01 Z-1.2 
G00 Z2
Z-1.2
G01 Z-1.3 
G00 Z2
Z-1.3
G01 Z-1.4 
G00 Z2
Z-1.4
G01 Z-1.5 
G00 Z2
Z-1.5
G01 Z-1.6 
G00 Z2
Z-1.6
G01 Z-1.7 
G00 Z2
Z-1.7
G01 Z-1.8 
G00 Z2
Z-1.8
G01 Z-1.9 
G00 Z2
Z-1.9
G01 Z-2 
G00 Z2
Z-2
G01 Z-2.1 
G00 Z2
Z-2.1
G01 Z-2.2 
G00 Z2
Z-2.2
G01 Z-2.3 
G00 Z2
Z-2.3
G01 Z-2.4 
G00 Z2
Z-2.4
G01 Z-2.5 
G00 Z2
Z-2.5
G01 Z-2.6 
G00 Z2
Z-2.6
G01 Z-2.7 
G00 Z2
Z-2.7
G01 Z-2.8 
G00 Z2
Z-2.8
G01 Z-2.9 
G00 Z2
Z-2.9
G01 Z-3 
G00 Z2
Z-3
G01 Z-3.1 
G00 Z2
Z-3.1
G01 Z-3.2 
G00 Z2
Z-3.2
G01 Z-3.3 
G00 Z2
Z-3.3
G01 Z-3.4 
G00 Z2
Z-3.4
G01 Z-3.5 
G00 Z2
Z-3.5
G01 Z-3.6 
G00 Z2
Z-3.6
G01 Z-3.7 
G00 Z2
Z-3.7
G01 Z-3.8 
G00 Z2
Z-3.8
G01 Z-3.9 
G00 Z2
Z-3.9
G01 Z-4 
G00 Z2
Z-4
G01 Z-4.1 
G00 Z2
Z-4.1
G01 Z-4.2 
G00 Z2
Z-4.2
G01 Z-4.3 
G00 Z2
Z-4.3
G01 Z-4.4 
G00 Z2
Z-4.4
G01 Z-4.5 
G00 Z2
Z-4.5
G01 Z-4.6 
G00 Z2
Z-4.6
G01 Z-4.7 
G00 Z2
Z-4.7
G01 Z-4.8 
G00 Z2
Z-4.8
G01 Z-4.9 
G00 Z2
Z-4.9
G01 Z-5 
G00 Z2
Z-5
G01 Z-5.1 
G00 Z2
Z-5.1
G01 Z-5.2 
G00 Z2
Z-5.2
G01 Z-5.3 
G00 Z2
Z-5.3
G01 Z-5.4 
G00 Z2
Z-5.4
G01 Z-5.5 
G00 Z2
Z-5.5
G01 Z-5.6 
G00 Z2
Z-5.6
G01 Z-5.7 
G04 P5
G00 Z5
X0 Y36.623
Z2
G01 Z-0.1 
G00 Z2
Z-0.1
G01 Z-0.2 
G00 Z2
Z-0.2
G01 Z-0.3 
G00 Z2
Z-0.3
G01 Z-0.4 
G00 Z2
Z-0.4
G01 Z-0.5 
G00 Z2
Z-0.5
G01 Z-0.6 
G00 Z2
Z-0.6
G01 Z-0.7 
G00 Z2
Z-0.7
G01 Z-0.8 
G00 Z2
Z-0.8
G01 Z-0.9 
G00 Z2
Z-0.9
G01 Z-1 
G00 Z2
Z-1
G01 Z-1.1 
G00 Z2
Z-1.1
G01 Z-1.2 
G00 Z2
Z-1.2
G01 Z-1.3 
G00 Z2
Z-1.3
G01 Z-1.4 
G00 Z2
Z-1.4
G01 Z-1.5 
G00 Z2
Z-1.5
G01 Z-1.6 
G00 Z2
Z-1.6
G01 Z-1.7 
G00 Z2
Z-1.7
G01 Z-1.8 
G00 Z2
Z-1.8
G01 Z-1.9 
G00 Z2
Z-1.9
G01 Z-2 
G00 Z2
Z-2
G01 Z-2.1 
G00 Z2
Z-2.1
G01 Z-2.2 
G00 Z2
Z-2.2
G01 Z-2.3 
G00 Z2
Z-2.3
G01 Z-2.4 
G00 Z2
Z-2.4
G01 Z-2.5 
G00 Z2
Z-2.5
G01 Z-2.6 
G00 Z2
Z-2.6
G01 Z-2.7 
G00 Z2
Z-2.7
G01 Z-2.8 
G00 Z2
Z-2.8
G01 Z-2.9 
G00 Z2
Z-2.9
G01 Z-3 
G00 Z2
Z-3
G01 Z-3.1 
G00 Z2
Z-3.1
G01 Z-3.2 
G00 Z2
Z-3.2
G01 Z-3.3 
G00 Z2
Z-3.3
G01 Z-3.4 
G00 Z2
Z-3.4
G01 Z-3.5 
G00 Z2
Z-3.5
G01 Z-3.6 
G00 Z2
Z-3.6
G01 Z-3.7 
G00 Z2
Z-3.7
G01 Z-3.8 
G00 Z2
Z-3.8
G01 Z-3.9 
G00 Z2
Z-3.9
G01 Z-4 
G00 Z2
Z-4
G01 Z-4.1 
G00 Z2
Z-4.1
G01 Z-4.2 
G00 Z2
Z-4.2
G01 Z-4.3 
G00 Z2
Z-4.3
G01 Z-4.4 
G00 Z2
Z-4.4
G01 Z-4.5 
G00 Z2
Z-4.5
G01 Z-4.6 
G00 Z2
Z-4.6
G01 Z-4.7 
G00 Z2
Z-4.7
G01 Z-4.8 
G00 Z2
Z-4.8
G01 Z-4.9 
G00 Z2
Z-4.9
G01 Z-5 
G00 Z2
Z-5
G01 Z-5.1 
G00 Z2
Z-5.1
G01 Z-5.2 
G00 Z2
Z-5.2
G01 Z-5.3 
G00 Z2
Z-5.3
G01 Z-5.4 
G00 Z2
Z-5.4
G01 Z-5.5 
G00 Z2
Z-5.5
G01 Z-5.6 
G00 Z2
Z-5.6
G01 Z-5.7 
G04 P5
G00 Z5
X0 Y-36.623
Z2
G01 Z-0.1 
G00 Z2
Z-0.1
G01 Z-0.2 
G00 Z2
Z-0.2
G01 Z-0.3 
G00 Z2
Z-0.3
G01 Z-0.4 
G00 Z2
Z-0.4
G01 Z-0.5 
G00 Z2
Z-0.5
G01 Z-0.6 
G00 Z2
Z-0.6
G01 Z-0.7 
G00 Z2
Z-0.7
G01 Z-0.8 
G00 Z2
Z-0.8
G01 Z-0.9 
G00 Z2
Z-0.9
G01 Z-1 
G00 Z2
Z-1
G01 Z-1.1 
G00 Z2
Z-1.1
G01 Z-1.2 
G00 Z2
Z-1.2
G01 Z-1.3 
G00 Z2
Z-1.3
G01 Z-1.4 
G00 Z2
Z-1.4
G01 Z-1.5 
G00 Z2
Z-1.5
G01 Z-1.6 
G00 Z2
Z-1.6
G01 Z-1.7 
G00 Z2
Z-1.7
G01 Z-1.8 
G00 Z2
Z-1.8
G01 Z-1.9 
G00 Z2
Z-1.9
G01 Z-2 
G00 Z2
Z-2
G01 Z-2.1 
G00 Z2
Z-2.1
G01 Z-2.2 
G00 Z2
Z-2.2
G01 Z-2.3 
G00 Z2
Z-2.3
G01 Z-2.4 
G00 Z2
Z-2.4
G01 Z-2.5 
G00 Z2
Z-2.5
G01 Z-2.6 
G00 Z2
Z-2.6
G01 Z-2.7 
G00 Z2
Z-2.7
G01 Z-2.8 
G00 Z2
Z-2.8
G01 Z-2.9 
G00 Z2
Z-2.9
G01 Z-3 
G00 Z2
Z-3
G01 Z-3.1 
G00 Z2
Z-3.1
G01 Z-3.2 
G00 Z2
Z-3.2
G01 Z-3.3 
G00 Z2
Z-3.3
G01 Z-3.4 
G00 Z2
Z-3.4
G01 Z-3.5 
G00 Z2
Z-3.5
G01 Z-3.6 
G00 Z2
Z-3.6
G01 Z-3.7 
G00 Z2
Z-3.7
G01 Z-3.8 
G00 Z2
Z-3.8
G01 Z-3.9 
G00 Z2
Z-3.9
G01 Z-4 
G00 Z2
Z-4
G01 Z-4.1 
G00 Z2
Z-4.1
G01 Z-4.2 
G00 Z2
Z-4.2
G01 Z-4.3 
G00 Z2
Z-4.3
G01 Z-4.4 
G00 Z2
Z-4.4
G01 Z-4.5 
G00 Z2
Z-4.5
G01 Z-4.6 
G00 Z2
Z-4.6
G01 Z-4.7 
G00 Z2
Z-4.7
G01 Z-4.8 
G00 Z2
Z-4.8
G01 Z-4.9 
G00 Z2
Z-4.9
G01 Z-5 
G00 Z2
Z-5
G01 Z-5.1 
G00 Z2
Z-5.1
G01 Z-5.2 
G00 Z2
Z-5.2
G01 Z-5.3 
G00 Z2
Z-5.3
G01 Z-5.4 
G00 Z2
Z-5.4
G01 Z-5.5 
G00 Z2
Z-5.5
G01 Z-5.6 
G00 Z2
Z-5.6
G01 Z-5.7 
G04 P5
G00 Z5
(outer)
X-21.952 Y22.81 S7000 M03
Z2
G01 Z-0.2 F50
X-42.843 Y1.919 F200
G03 X-43.278 Y0.744 I1.06 J-1.06 
G02 X-43.278 Y-0.744 I-9.721 J-0.744 
G03 X-42.843 Y-1.919 I1.495 J-0.114 
G01 X-1.06 Y-43.702 
G03 X1.06 Y-43.702 I1.06 J1.06 
G01 X40.381 Y-4.38 
G03 X40.82 Y-3.374 I-1.06 J1.06 
X40.82 Y3.374 I-93.82 J3.374 
X40.381 Y4.38 I-1.499 J-0.053 
G01 X1.06 Y43.702 
G03 X-1.06 Y43.702 I-1.06 J-1.06 
G01 X-21.952 Y22.81 
G00 Z5
G90
X0 Y34.965 S7000 M03
Z2
G01 Z-0.247 F50
X34.965 Y0 F200
X0 Y-34.965 
X-34.965 Y0 
X-0.247 Y34.717 
X-0.247 Y30.618 
G03 X-2.457 Y29.609 I0.252 J-3.477 
G01 X-29.609 Y2.457 
G03 X-29.609 Y-2.457 I2.456 J-2.457 
G01 X-2.457 Y-29.609 
G03 X2.457 Y-29.609 I2.457 J2.456 
G01 X29.609 Y-2.457 
G03 X29.609 Y2.457 I-2.456 J2.457 
G01 X2.457 Y29.609 
G03 X-0.247 Y30.618 I-2.459 J-2.462 
G01 X-0.247 Y34.717 
X0 Y34.965 
G00 Z5
Z1.752
G01 Z-0.495 F50
X34.965 Y0 F200
X0 Y-34.965 
X-34.965 Y0 
X-0.247 Y34.717 
X-0.247 Y30.618 
G03 X-2.457 Y29.609 I0.252 J-3.477 
G01 X-29.609 Y2.457 
G03 X-29.609 Y-2.457 I2.456 J-2.457 
G01 X-2.457 Y-29.609 
G03 X2.457 Y-29.609 I2.457 J2.456 
G01 X29.609 Y-2.457 
G03 X29.609 Y2.457 I-2.456 J2.457 
G01 X2.457 Y29.609 
G03 X-0.247 Y30.618 I-2.459 J-2.462 
G01 X-0.247 Y34.717 
X0 Y34.965 
G00 Z5
Z1.504
G01 Z-0.743 F50
X34.965 Y0 F200
X0 Y-34.965 
X-34.965 Y0 
X-0.247 Y34.717 
X-0.247 Y30.618 
G03 X-2.457 Y29.609 I0.252 J-3.477 
G01 X-29.609 Y2.457 
G03 X-29.609 Y-2.457 I2.456 J-2.457 
G01 X-2.457 Y-29.609 
G03 X2.457 Y-29.609 I2.457 J2.456 
G01 X29.609 Y-2.457 
G03 X29.609 Y2.457 I-2.456 J2.457 
G01 X2.457 Y29.609 
G03 X-0.247 Y30.618 I-2.459 J-2.462 
G01 X-0.247 Y34.717 
X0 Y34.965 
G00 Z5
Z1.256
G01 Z-0.991 F50
X34.965 Y0 F200
X0 Y-34.965 
X-34.965 Y0 
X-0.247 Y34.717 
X-0.247 Y30.618 
G03 X-2.457 Y29.609 I0.252 J-3.477 
G01 X-29.609 Y2.457 
G03 X-29.609 Y-2.457 I2.456 J-2.457 
G01 X-2.457 Y-29.609 
G03 X2.457 Y-29.609 I2.457 J2.456 
G01 X29.609 Y-2.457 
G03 X29.609 Y2.457 I-2.456 J2.457 
G01 X2.457 Y29.609 
G03 X-0.247 Y30.618 I-2.459 J-2.462 
G01 X-0.247 Y34.717 
X0 Y34.965 
G00 Z5
Z1.008
G01 Z-1.239 F50
X34.965 Y0 F200
X0 Y-34.965 
X-34.965 Y0 
X-0.247 Y34.717 
X-0.247 Y30.618 
G03 X-2.457 Y29.609 I0.252 J-3.477 
G01 X-29.609 Y2.457 
G03 X-29.609 Y-2.457 I2.456 J-2.457 
G01 X-2.457 Y-29.609 
G03 X2.457 Y-29.609 I2.457 J2.456 
G01 X29.609 Y-2.457 
G03 X29.609 Y2.457 I-2.456 J2.457 
G01 X2.457 Y29.609 
G03 X-0.247 Y30.618 I-2.459 J-2.462 
G01 X-0.247 Y34.717 
X0 Y34.965 
G00 Z5
Z0.76
G01 Z-1.486 F50
X34.965 Y0 F200
X0 Y-34.965 
X-34.965 Y0 
X-0.247 Y34.717 
X-0.247 Y30.618 
G03 X-2.457 Y29.609 I0.252 J-3.477 
G01 X-29.609 Y2.457 
G03 X-29.609 Y-2.457 I2.456 J-2.457 
G01 X-2.457 Y-29.609 
G03 X2.457 Y-29.609 I2.457 J2.456 
G01 X29.609 Y-2.457 
G03 X29.609 Y2.457 I-2.456 J2.457 
G01 X2.457 Y29.609 
G03 X-0.247 Y30.618 I-2.459 J-2.462 
G01 X-0.247 Y34.717 
X0 Y34.965 
G00 Z5
Z0.513
G01 Z-1.734 F50
X34.965 Y0 F200
X0 Y-34.965 
X-34.965 Y0 
X-0.247 Y34.717 
X-0.247 Y30.618 
G03 X-2.457 Y29.609 I0.252 J-3.477 
G01 X-29.609 Y2.457 
G03 X-29.609 Y-2.457 I2.456 J-2.457 
G01 X-2.457 Y-29.609 
G03 X2.457 Y-29.609 I2.457 J2.456 
G01 X29.609 Y-2.457 
G03 X29.609 Y2.457 I-2.456 J2.457 
G01 X2.457 Y29.609 
G03 X-0.247 Y30.618 I-2.459 J-2.462 
G01 X-0.247 Y34.717 
X0 Y34.965 
G00 Z5
Z0.265
G01 Z-1.982 F50
X34.965 Y0 F200
X0 Y-34.965 
X-34.965 Y0 
X-0.247 Y34.717 
X-0.247 Y30.618 
G03 X-2.457 Y29.609 I0.252 J-3.477 
G01 X-29.609 Y2.457 
G03 X-29.609 Y-2.457 I2.456 J-2.457 
G01 X-2.457 Y-29.609 
G03 X2.457 Y-29.609 I2.457 J2.456 
G01 X29.609 Y-2.457 
G03 X29.609 Y2.457 I-2.456 J2.457 
G01 X2.457 Y29.609 
G03 X-0.247 Y30.618 I-2.459 J-2.462 
G01 X-0.247 Y34.717 
X0 Y34.965 
G00 Z5
Z0.017
G01 Z-2.23 F50
X34.965 Y0 F200
X0 Y-34.965 
X-34.965 Y0 
X-0.247 Y34.717 
X-0.247 Y30.618 
G03 X-2.457 Y29.609 I0.252 J-3.477 
G01 X-29.609 Y2.457 
G03 X-29.609 Y-2.457 I2.456 J-2.457 
G01 X-2.457 Y-29.609 
G03 X2.457 Y-29.609 I2.457 J2.456 
G01 X29.609 Y-2.457 
G03 X29.609 Y2.457 I-2.456 J2.457 
G01 X2.457 Y29.609 
G03 X-0.247 Y30.618 I-2.459 J-2.462 
G01 X-0.247 Y34.717 
X0 Y34.965 
G00 Z5
Z-0.23
G01 Z-2.478 F50
X34.965 Y0 F200
X0 Y-34.965 
X-34.965 Y0 
X-0.247 Y34.717 
X-0.247 Y30.618 
G03 X-2.457 Y29.609 I0.252 J-3.477 
G01 X-29.609 Y2.457 
G03 X-29.609 Y-2.457 I2.456 J-2.457 
G01 X-2.457 Y-29.609 
G03 X2.457 Y-29.609 I2.457 J2.456 
G01 X29.609 Y-2.457 
G03 X29.609 Y2.457 I-2.456 J2.457 
G01 X2.457 Y29.609 
G03 X-0.247 Y30.618 I-2.459 J-2.462 
G01 X-0.247 Y34.717 
X0 Y34.965 
G00 Z5
Z-0.478
G01 Z-2.726 F50
X34.965 Y0 F200
X0 Y-34.965 
X-34.965 Y0 
X-0.247 Y34.717 
X-0.247 Y30.618 
G03 X-2.457 Y29.609 I0.252 J-3.477 
G01 X-29.609 Y2.457 
G03 X-29.609 Y-2.457 I2.456 J-2.457 
G01 X-2.457 Y-29.609 
G03 X2.457 Y-29.609 I2.457 J2.456 
G01 X29.609 Y-2.457 
G03 X29.609 Y2.457 I-2.456 J2.457 
G01 X2.457 Y29.609 
G03 X-0.247 Y30.618 I-2.459 J-2.462 
G01 X-0.247 Y34.717 
X0 Y34.965 
G00 Z5
Z-0.726
G01 Z-2.973 F50
X34.965 Y0 F200
X0 Y-34.965 
X-34.965 Y0 
X-0.247 Y34.717 
X-0.247 Y30.618 
G03 X-2.457 Y29.609 I0.252 J-3.477 
G01 X-29.609 Y2.457 
G03 X-29.609 Y-2.457 I2.456 J-2.457 
G01 X-2.457 Y-29.609 
G03 X2.457 Y-29.609 I2.457 J2.456 
G01 X29.609 Y-2.457 
G03 X29.609 Y2.457 I-2.456 J2.457 
G01 X2.457 Y29.609 
G03 X-0.247 Y30.618 I-2.459 J-2.462 
G01 X-0.247 Y34.717 
X0 Y34.965 
G00 Z5
Z-0.973
G01 Z-3.221 F50
X34.965 Y0 F200
X0 Y-34.965 
X-34.965 Y0 
X-0.247 Y34.717 
X-0.247 Y30.618 
G03 X-2.457 Y29.609 I0.252 J-3.477 
G01 X-29.609 Y2.457 
G03 X-29.609 Y-2.457 I2.456 J-2.457 
G01 X-2.457 Y-29.609 
G03 X2.457 Y-29.609 I2.457 J2.456 
G01 X29.609 Y-2.457 
G03 X29.609 Y2.457 I-2.456 J2.457 
G01 X2.457 Y29.609 
G03 X-0.247 Y30.618 I-2.459 J-2.462 
G01 X-0.247 Y34.717 
X0 Y34.965 
G00 Z5
Z-1.221
G01 Z-3.469 F50
X34.965 Y0 F200
X0 Y-34.965 
X-34.965 Y0 
X-0.247 Y34.717 
X-0.247 Y30.618 
G03 X-2.457 Y29.609 I0.252 J-3.477 
G01 X-29.609 Y2.457 
G03 X-29.609 Y-2.457 I2.456 J-2.457 
G01 X-2.457 Y-29.609 
G03 X2.457 Y-29.609 I2.457 J2.456 
G01 X29.609 Y-2.457 
G03 X29.609 Y2.457 I-2.456 J2.457 
G01 X2.457 Y29.609 
G03 X-0.247 Y30.618 I-2.459 J-2.462 
G01 X-0.247 Y34.717 
X0 Y34.965 
G00 Z5
Z-1.469
G01 Z-3.717 F50
X34.965 Y0 F200
X0 Y-34.965 
X-34.965 Y0 
X-0.247 Y34.717 
X-0.247 Y30.618 
G03 X-2.457 Y29.609 I0.252 J-3.477 
G01 X-29.609 Y2.457 
G03 X-29.609 Y-2.457 I2.456 J-2.457 
G01 X-2.457 Y-29.609 
G03 X2.457 Y-29.609 I2.457 J2.456 
G01 X29.609 Y-2.457 
G03 X29.609 Y2.457 I-2.456 J2.457 
G01 X2.457 Y29.609 
G03 X-0.247 Y30.618 I-2.459 J-2.462 
G01 X-0.247 Y34.717 
X0 Y34.965 
G00 Z5
Z-1.717
G01 Z-3.965 F50
X34.965 Y0 F200
X0 Y-34.965 
X-34.965 Y0 
X-0.247 Y34.717 
X-0.247 Y30.618 
G03 X-2.457 Y29.609 I0.252 J-3.477 
G01 X-29.609 Y2.457 
G03 X-29.609 Y-2.457 I2.456 J-2.457 
G01 X-2.457 Y-29.609 
G03 X2.457 Y-29.609 I2.457 J2.456 
G01 X29.609 Y-2.457 
G03 X29.609 Y2.457 I-2.456 J2.457 
G01 X2.457 Y29.609 
G03 X-0.247 Y30.618 I-2.459 J-2.462 
G01 X-0.247 Y34.717 
X0 Y34.965 
G00 Z5
Z-1.965
G01 Z-4.213 F50
X34.965 Y0 F200
X0 Y-34.965 
X-34.965 Y0 
X-0.247 Y34.717 
X-0.247 Y30.618 
G03 X-2.457 Y29.609 I0.252 J-3.477 
G01 X-29.609 Y2.457 
G03 X-29.609 Y-2.457 I2.456 J-2.457 
G01 X-2.457 Y-29.609 
G03 X2.457 Y-29.609 I2.457 J2.456 
G01 X29.609 Y-2.457 
G03 X29.609 Y2.457 I-2.456 J2.457 
G01 X2.457 Y29.609 
G03 X-0.247 Y30.618 I-2.459 J-2.462 
G01 X-0.247 Y34.717 
X0 Y34.965 
G00 Z5
Z-2.213
G01 Z-4.46 F50
X34.965 Y0 F200
X0 Y-34.965 
X-34.965 Y0 
X-0.247 Y34.717 
X-0.247 Y30.618 
G03 X-2.457 Y29.609 I0.252 J-3.477 
G01 X-29.609 Y2.457 
G03 X-29.609 Y-2.457 I2.456 J-2.457 
G01 X-2.457 Y-29.609 
G03 X2.457 Y-29.609 I2.457 J2.456 
G01 X29.609 Y-2.457 
G03 X29.609 Y2.457 I-2.456 J2.457 
G01 X2.457 Y29.609 
G03 X-0.247 Y30.618 I-2.459 J-2.462 
G01 X-0.247 Y34.717 
X0 Y34.965 
G00 Z5
Z-2.46
G01 Z-4.708 F50
X34.965 Y0 F200
X0 Y-34.965 
X-34.965 Y0 
X-0.247 Y34.717 
X-0.247 Y30.618 
G03 X-2.457 Y29.609 I0.252 J-3.477 
G01 X-29.609 Y2.457 
G03 X-29.609 Y-2.457 I2.456 J-2.457 
G01 X-2.457 Y-29.609 
G03 X2.457 Y-29.609 I2.457 J2.456 
G01 X29.609 Y-2.457 
G03 X29.609 Y2.457 I-2.456 J2.457 
G01 X2.457 Y29.609 
G03 X-0.247 Y30.618 I-2.459 J-2.462 
G01 X-0.247 Y34.717 
X0 Y34.965 
G00 Z5
Z-2.708
G01 Z-4.956 F50
X34.965 Y0 F200
X0 Y-34.965 
X-34.965 Y0 
X-0.247 Y34.717 
X-0.247 Y30.618 
G03 X-2.457 Y29.609 I0.252 J-3.477 
G01 X-29.609 Y2.457 
G03 X-29.609 Y-2.457 I2.456 J-2.457 
G01 X-2.457 Y-29.609 
G03 X2.457 Y-29.609 I2.457 J2.456 
G01 X29.609 Y-2.457 
G03 X29.609 Y2.457 I-2.456 J2.457 
G01 X2.457 Y29.609 
G03 X-0.247 Y30.618 I-2.459 J-2.462 
G01 X-0.247 Y34.717 
X0 Y34.965 
G00 Z5
Z-2.956
G01 Z-5.204 F50
X34.965 Y0 F200
X0 Y-34.965 
X-34.965 Y0 
X-0.247 Y34.717 
X-0.247 Y30.618 
G03 X-2.457 Y29.609 I0.252 J-3.477 
G01 X-29.609 Y2.457 
G03 X-29.609 Y-2.457 I2.456 J-2.457 
G01 X-2.457 Y-29.609 
G03 X2.457 Y-29.609 I2.457 J2.456 
G01 X29.609 Y-2.457 
G03 X29.609 Y2.457 I-2.456 J2.457 
G01 X2.457 Y29.609 
G03 X-0.247 Y30.618 I-2.459 J-2.462 
G01 X-0.247 Y34.717 
X0 Y34.965 
G00 Z5
Z-3.204
G01 Z-5.452 F50
X34.965 Y0 F200
X0 Y-34.965 
X-34.965 Y0 
X-0.247 Y34.717 
X-0.247 Y30.618 
G03 X-2.457 Y29.609 I0.252 J-3.477 
G01 X-29.609 Y2.457 
G03 X-29.609 Y-2.457 I2.456 J-2.457 
G01 X-2.457 Y-29.609 
G03 X2.457 Y-29.609 I2.457 J2.456 
G01 X29.609 Y-2.457 
G03 X29.609 Y2.457 I-2.456 J2.457 
G01 X2.457 Y29.609 
G03 X-0.247 Y30.618 I-2.459 J-2.462 
G01 X-0.247 Y34.717 
X0 Y34.965 
G00 Z5
Z-3.452
G01 Z-5.7 F50
X34.965 Y0 F200
X0 Y-34.965 
X-34.965 Y0 
X-0.247 Y34.717 
X-0.247 Y30.618 
G03 X-2.457 Y29.609 I0.252 J-3.477 
G01 X-29.609 Y2.457 
G03 X-29.609 Y-2.457 I2.456 J-2.457 
G01 X-2.457 Y-29.609 
G03 X2.457 Y-29.609 I2.457 J2.456 
G01 X29.609 Y-2.457 
G03 X29.609 Y2.457 I-2.456 J2.457 
G01 X2.457 Y29.609 
G03 X-0.247 Y30.618 I-2.459 J-2.462 
G01 X-0.247 Y34.717 
X0 Y34.965 
G00 Z5
(inner)
X-16.069 Y-16.069 S7000 M03
Z2
G01 Z-5.7 F50
G02 X-17.483 Y-17.483 I-0.707 J-0.707 F200
G01 X-34.966 Y0 
X0 Y34.966 
X34.966 Y0 
X0 Y-34.966 
X-17.483 Y-17.483 
G02 X-16.069 Y-16.069 I0.707 J0.707 
G00 Z5
G90
(inner)
X-16.281 Y-16.281
Z2
G01 Z-5.7 F50
G02 X-17.695 Y-17.695 I-0.707 J-0.707 
G01 X-35.39 Y0 
X0 Y35.39 
X35.39 Y0 
X0 Y-35.39 
X-17.695 Y-17.695 
G02 X-16.281 Y-16.281 I0.707 J0.707 
G00 Z5
G90
(inner)
X-28 Y-7 S7000 M03
Z2
G01 Z-5.7 
G03 X-17.695 Y-17.695 I292.591 J271.591 
G01 X0 Y-35.39 
X35.39 Y0 
X0 Y35.39 
X-35.39 Y0 
X-17.695 Y-17.695 
G03 X-16.281 Y-16.281 I0.707 J0.707 
G00 Z5
G90
(ledges)
X-26.622 Y-5.656 S7000 M03
Z-3.7
G01 Z-5.9 
G02 X-28.037 Y-7.07 I-0.707 J-0.707 F200
G01 X-35.107 Y0 
X-20.885 Y14.222 
G03 X-14.222 Y20.885 I0.114 J6.549 
G01 X0 Y35.107 
X14.222 Y20.885 
G03 X20.885 Y14.222 I6.549 J-0.114 
G01 X35.107 Y0 
X20.885 Y-14.222 
G03 X14.222 Y-20.885 I-0.114 J-6.549 
G01 X0 Y-35.107 
X-14.222 Y-20.885 
G03 X-20.885 Y-14.222 I-6.549 J0.114 
G01 X-28.037 Y-7.07 
G02 X-26.622 Y-5.656 I0.707 J0.707 
G01 Z-6.1 F50
G02 X-28.037 Y-7.07 I-0.707 J-0.707 F200
G01 X-35.107 Y0 
X-20.885 Y14.222 
G03 X-14.222 Y20.885 I0.114 J6.549 
G01 X0 Y35.107 
X14.222 Y20.885 
G03 X20.885 Y14.222 I6.549 J-0.114 
G01 X35.107 Y0 
X20.885 Y-14.222 
G03 X14.222 Y-20.885 I-0.114 J-6.549 
G01 X0 Y-35.107 
X-14.222 Y-20.885 
G03 X-20.885 Y-14.222 I-6.549 J0.114 
G01 X-28.037 Y-7.07 
G02 X-26.622 Y-5.656 I0.707 J0.707 
G01 Z-6.3 F50
G02 X-28.037 Y-7.07 I-0.707 J-0.707 F200
G01 X-35.107 Y0 
X-20.885 Y14.222 
G03 X-14.222 Y20.885 I0.114 J6.549 
G01 X0 Y35.107 
X14.222 Y20.885 
G03 X20.885 Y14.222 I6.549 J-0.114 
G01 X35.107 Y0 
X20.885 Y-14.222 
G03 X14.222 Y-20.885 I-0.114 J-6.549 
G01 X0 Y-35.107 
X-14.222 Y-20.885 
G03 X-20.885 Y-14.222 I-6.549 J0.114 
G01 X-28.037 Y-7.07 
G02 X-26.622 Y-5.656 I0.707 J0.707 
G01 Z-6.5 F50
G02 X-28.037 Y-7.07 I-0.707 J-0.707 F200
G01 X-35.107 Y0 
X-20.885 Y14.222 
G03 X-14.222 Y20.885 I0.114 J6.549 
G01 X0 Y35.107 
X14.222 Y20.885 
G03 X20.885 Y14.222 I6.549 J-0.114 
G01 X35.107 Y0 
X20.885 Y-14.222 
G03 X14.222 Y-20.885 I-0.114 J-6.549 
G01 X0 Y-35.107 
X-14.222 Y-20.885 
G03 X-20.885 Y-14.222 I-6.549 J0.114 
G01 X-28.037 Y-7.07 
G02 X-26.622 Y-5.656 I0.707 J0.707 
G00 Z5
G90
X0.23 Y47.657 S7000 M03
Z2
G01 Z-0.25 F50
G02 X3.609 Y46.137 I-0.238 J-5.045 F200
G01 X42.815 Y6.93 
G02 X44.331 Y3.603 I-3.509 J-3.607 
X44.343 Y-3.443 I-90.042 J-3.676 
X42.815 Y-6.93 I-5.065 J0.141 
G01 X3.61 Y-46.136 
G02 X-3.606 Y-46.139 I-3.609 J3.506 
G01 X-45.276 Y-4.469 
G02 X-46.803 Y-0.899 I3.527 J3.62 
G03 X-46.801 Y0.974 I-17.534 J0.955 
G02 X-45.276 Y4.469 I5.046 J-0.121 
G01 X-3.609 Y46.137 
G02 X-0.167 Y47.657 I3.605 J-3.506 
G01 X-0.167 Y47.606 
G03 X-3.517 Y46.159 I0.178 J-5.015 
G01 X-45.3 Y4.376 
G03 X-46.751 Y0.627 I3.521 J-3.518 
G02 X-46.754 Y-0.739 I-9.51 J-0.662 
G03 X-45.3 Y-4.376 I4.972 J-0.121 
G01 X-3.517 Y-46.159 
G03 X3.517 Y-46.159 I3.517 J3.539 
G01 X42.838 Y-6.837 
G03 X44.293 Y-3.458 I-3.518 J3.517 
X44.252 Y3.973 I-81.622 J3.265 
X42.838 Y6.837 I-5.037 J-0.705 
G01 X3.517 Y46.159 
G03 X-0.167 Y47.606 I-3.493 J-3.48 
G01 X-0.167 Y47.657 
X0.23 Y47.657 
G00 Z5
Z1.75
G01 Z-0.5 F50
G02 X3.609 Y46.137 I-0.238 J-5.045 F200
G01 X42.815 Y6.93 
G02 X44.331 Y3.603 I-3.509 J-3.607 
X44.343 Y-3.443 I-90.042 J-3.676 
X42.815 Y-6.93 I-5.065 J0.141 
G01 X3.61 Y-46.136 
G02 X-3.606 Y-46.139 I-3.609 J3.506 
G01 X-45.276 Y-4.469 
G02 X-46.803 Y-0.899 I3.527 J3.62 
G03 X-46.801 Y0.974 I-17.534 J0.955 
G02 X-45.276 Y4.469 I5.046 J-0.121 
G01 X-3.609 Y46.137 
G02 X-0.167 Y47.657 I3.605 J-3.506 
G01 X-0.167 Y47.606 
G03 X-3.517 Y46.159 I0.178 J-5.015 
G01 X-45.3 Y4.376 
G03 X-46.751 Y0.627 I3.521 J-3.518 
G02 X-46.754 Y-0.739 I-9.51 J-0.662 
G03 X-45.3 Y-4.376 I4.972 J-0.121 
G01 X-3.517 Y-46.159 
G03 X3.517 Y-46.159 I3.517 J3.539 
G01 X42.838 Y-6.837 
G03 X44.293 Y-3.458 I-3.518 J3.517 
X44.252 Y3.973 I-81.622 J3.265 
X42.838 Y6.837 I-5.037 J-0.705 
G01 X3.517 Y46.159 
G03 X-0.167 Y47.606 I-3.493 J-3.48 
G01 X-0.167 Y47.657 
X0.23 Y47.657 
G00 Z5
Z1.5
G01 Z-0.75 F50
G02 X3.609 Y46.137 I-0.238 J-5.045 F200
G01 X42.815 Y6.93 
G02 X44.331 Y3.603 I-3.509 J-3.607 
X44.343 Y-3.443 I-90.042 J-3.676 
X42.815 Y-6.93 I-5.065 J0.141 
G01 X3.61 Y-46.136 
G02 X-3.606 Y-46.139 I-3.609 J3.506 
G01 X-45.276 Y-4.469 
G02 X-46.803 Y-0.899 I3.527 J3.62 
G03 X-46.801 Y0.974 I-17.534 J0.955 
G02 X-45.276 Y4.469 I5.046 J-0.121 
G01 X-3.609 Y46.137 
G02 X-0.167 Y47.657 I3.605 J-3.506 
G01 X-0.167 Y47.606 
G03 X-3.517 Y46.159 I0.178 J-5.015 
G01 X-45.3 Y4.376 
G03 X-46.751 Y0.627 I3.521 J-3.518 
G02 X-46.754 Y-0.739 I-9.51 J-0.662 
G03 X-45.3 Y-4.376 I4.972 J-0.121 
G01 X-3.517 Y-46.159 
G03 X3.517 Y-46.159 I3.517 J3.539 
G01 X42.838 Y-6.837 
G03 X44.293 Y-3.458 I-3.518 J3.517 
X44.252 Y3.973 I-81.622 J3.265 
X42.838 Y6.837 I-5.037 J-0.705 
G01 X3.517 Y46.159 
G03 X-0.167 Y47.606 I-3.493 J-3.48 
G01 X-0.167 Y47.657 
X0.23 Y47.657 
G00 Z5
Z1.25
G01 Z-1 F50
G02 X3.609 Y46.137 I-0.238 J-5.045 F200
G01 X42.815 Y6.93 
G02 X44.331 Y3.603 I-3.509 J-3.607 
X44.343 Y-3.443 I-90.042 J-3.676 
X42.815 Y-6.93 I-5.065 J0.141 
G01 X3.61 Y-46.136 
G02 X-3.606 Y-46.139 I-3.609 J3.506 
G01 X-45.276 Y-4.469 
G02 X-46.803 Y-0.899 I3.527 J3.62 
G03 X-46.801 Y0.974 I-17.534 J0.955 
G02 X-45.276 Y4.469 I5.046 J-0.121 
G01 X-3.609 Y46.137 
G02 X-0.167 Y47.657 I3.605 J-3.506 
G01 X-0.167 Y47.606 
G03 X-3.517 Y46.159 I0.178 J-5.015 
G01 X-45.3 Y4.376 
G03 X-46.751 Y0.627 I3.521 J-3.518 
G02 X-46.754 Y-0.739 I-9.51 J-0.662 
G03 X-45.3 Y-4.376 I4.972 J-0.121 
G01 X-3.517 Y-46.159 
G03 X3.517 Y-46.159 I3.517 J3.539 
G01 X42.838 Y-6.837 
G03 X44.293 Y-3.458 I-3.518 J3.517 
X44.252 Y3.973 I-81.622 J3.265 
X42.838 Y6.837 I-5.037 J-0.705 
G01 X3.517 Y46.159 
G03 X-0.167 Y47.606 I-3.493 J-3.48 
G01 X-0.167 Y47.657 
X0.23 Y47.657 
G00 Z5
Z1
G01 Z-1.25 F50
G02 X3.609 Y46.137 I-0.238 J-5.045 F200
G01 X42.815 Y6.93 
G02 X44.331 Y3.603 I-3.509 J-3.607 
X44.343 Y-3.443 I-90.042 J-3.676 
X42.815 Y-6.93 I-5.065 J0.141 
G01 X3.61 Y-46.136 
G02 X-3.606 Y-46.139 I-3.609 J3.506 
G01 X-45.276 Y-4.469 
G02 X-46.803 Y-0.899 I3.527 J3.62 
G03 X-46.801 Y0.974 I-17.534 J0.955 
G02 X-45.276 Y4.469 I5.046 J-0.121 
G01 X-3.609 Y46.137 
G02 X-0.167 Y47.657 I3.605 J-3.506 
G01 X-0.167 Y47.606 
G03 X-3.517 Y46.159 I0.178 J-5.015 
G01 X-45.3 Y4.376 
G03 X-46.751 Y0.627 I3.521 J-3.518 
G02 X-46.754 Y-0.739 I-9.51 J-0.662 
G03 X-45.3 Y-4.376 I4.972 J-0.121 
G01 X-3.517 Y-46.159 
G03 X3.517 Y-46.159 I3.517 J3.539 
G01 X42.838 Y-6.837 
G03 X44.293 Y-3.458 I-3.518 J3.517 
X44.252 Y3.973 I-81.622 J3.265 
X42.838 Y6.837 I-5.037 J-0.705 
G01 X3.517 Y46.159 
G03 X-0.167 Y47.606 I-3.493 J-3.48 
G01 X-0.167 Y47.657 
X0.23 Y47.657 
G00 Z5
Z0.75
G01 Z-1.5 F50
G02 X3.609 Y46.137 I-0.238 J-5.045 F200
G01 X42.815 Y6.93 
G02 X44.331 Y3.603 I-3.509 J-3.607 
X44.343 Y-3.443 I-90.042 J-3.676 
X42.815 Y-6.93 I-5.065 J0.141 
G01 X3.61 Y-46.136 
G02 X-3.606 Y-46.139 I-3.609 J3.506 
G01 X-45.276 Y-4.469 
G02 X-46.803 Y-0.899 I3.527 J3.62 
G03 X-46.801 Y0.974 I-17.534 J0.955 
G02 X-45.276 Y4.469 I5.046 J-0.121 
G01 X-3.609 Y46.137 
G02 X-0.167 Y47.657 I3.605 J-3.506 
G01 X-0.167 Y47.606 
G03 X-3.517 Y46.159 I0.178 J-5.015 
G01 X-45.3 Y4.376 
G03 X-46.751 Y0.627 I3.521 J-3.518 
G02 X-46.754 Y-0.739 I-9.51 J-0.662 
G03 X-45.3 Y-4.376 I4.972 J-0.121 
G01 X-3.517 Y-46.159 
G03 X3.517 Y-46.159 I3.517 J3.539 
G01 X42.838 Y-6.837 
G03 X44.293 Y-3.458 I-3.518 J3.517 
X44.252 Y3.973 I-81.622 J3.265 
X42.838 Y6.837 I-5.037 J-0.705 
G01 X3.517 Y46.159 
G03 X-0.167 Y47.606 I-3.493 J-3.48 
G01 X-0.167 Y47.657 
X0.23 Y47.657 
G00 Z5
Z0.5
G01 Z-1.75 F50
G02 X3.609 Y46.137 I-0.238 J-5.045 F200
G01 X42.815 Y6.93 
G02 X44.331 Y3.603 I-3.509 J-3.607 
X44.343 Y-3.443 I-90.042 J-3.676 
X42.815 Y-6.93 I-5.065 J0.141 
G01 X3.61 Y-46.136 
G02 X-3.606 Y-46.139 I-3.609 J3.506 
G01 X-45.276 Y-4.469 
G02 X-46.803 Y-0.899 I3.527 J3.62 
G03 X-46.801 Y0.974 I-17.534 J0.955 
G02 X-45.276 Y4.469 I5.046 J-0.121 
G01 X-3.609 Y46.137 
G02 X-0.167 Y47.657 I3.605 J-3.506 
G01 X-0.167 Y47.606 
G03 X-3.517 Y46.159 I0.178 J-5.015 
G01 X-45.3 Y4.376 
G03 X-46.751 Y0.627 I3.521 J-3.518 
G02 X-46.754 Y-0.739 I-9.51 J-0.662 
G03 X-45.3 Y-4.376 I4.972 J-0.121 
G01 X-3.517 Y-46.159 
G03 X3.517 Y-46.159 I3.517 J3.539 
G01 X42.838 Y-6.837 
G03 X44.293 Y-3.458 I-3.518 J3.517 
X44.252 Y3.973 I-81.622 J3.265 
X42.838 Y6.837 I-5.037 J-0.705 
G01 X3.517 Y46.159 
G03 X-0.167 Y47.606 I-3.493 J-3.48 
G01 X-0.167 Y47.657 
X0.23 Y47.657 
G00 Z5
Z0.25
G01 Z-2 F50
G02 X3.609 Y46.137 I-0.238 J-5.045 F200
G01 X42.815 Y6.93 
G02 X44.331 Y3.603 I-3.509 J-3.607 
X44.343 Y-3.443 I-90.042 J-3.676 
X42.815 Y-6.93 I-5.065 J0.141 
G01 X3.61 Y-46.136 
G02 X-3.606 Y-46.139 I-3.609 J3.506 
G01 X-45.276 Y-4.469 
G02 X-46.803 Y-0.899 I3.527 J3.62 
G03 X-46.801 Y0.974 I-17.534 J0.955 
G02 X-45.276 Y4.469 I5.046 J-0.121 
G01 X-3.609 Y46.137 
G02 X-0.167 Y47.657 I3.605 J-3.506 
G01 X-0.167 Y47.606 
G03 X-3.517 Y46.159 I0.178 J-5.015 
G01 X-45.3 Y4.376 
G03 X-46.751 Y0.627 I3.521 J-3.518 
G02 X-46.754 Y-0.739 I-9.51 J-0.662 
G03 X-45.3 Y-4.376 I4.972 J-0.121 
G01 X-3.517 Y-46.159 
G03 X3.517 Y-46.159 I3.517 J3.539 
G01 X42.838 Y-6.837 
G03 X44.293 Y-3.458 I-3.518 J3.517 
X44.252 Y3.973 I-81.622 J3.265 
X42.838 Y6.837 I-5.037 J-0.705 
G01 X3.517 Y46.159 
G03 X-0.167 Y47.606 I-3.493 J-3.48 
G01 X-0.167 Y47.657 
X0.23 Y47.657 
G00 Z5
Z0
G01 Z-2.25 F50
G02 X3.609 Y46.137 I-0.238 J-5.045 F200
G01 X42.815 Y6.93 
G02 X44.331 Y3.603 I-3.509 J-3.607 
X44.343 Y-3.443 I-90.042 J-3.676 
X42.815 Y-6.93 I-5.065 J0.141 
G01 X3.61 Y-46.136 
G02 X-3.606 Y-46.139 I-3.609 J3.506 
G01 X-45.276 Y-4.469 
G02 X-46.803 Y-0.899 I3.527 J3.62 
G03 X-46.801 Y0.974 I-17.534 J0.955 
G02 X-45.276 Y4.469 I5.046 J-0.121 
G01 X-3.609 Y46.137 
G02 X-0.167 Y47.657 I3.605 J-3.506 
G01 X-0.167 Y47.606 
G03 X-3.517 Y46.159 I0.178 J-5.015 
G01 X-45.3 Y4.376 
G03 X-46.751 Y0.627 I3.521 J-3.518 
G02 X-46.754 Y-0.739 I-9.51 J-0.662 
G03 X-45.3 Y-4.376 I4.972 J-0.121 
G01 X-3.517 Y-46.159 
G03 X3.517 Y-46.159 I3.517 J3.539 
G01 X42.838 Y-6.837 
G03 X44.293 Y-3.458 I-3.518 J3.517 
X44.252 Y3.973 I-81.622 J3.265 
X42.838 Y6.837 I-5.037 J-0.705 
G01 X3.517 Y46.159 
G03 X-0.167 Y47.606 I-3.493 J-3.48 
G01 X-0.167 Y47.657 
X0.23 Y47.657 
G00 Z5
Z-0.25
G01 Z-2.5 F50
G02 X3.609 Y46.137 I-0.238 J-5.045 F200
G01 X42.815 Y6.93 
G02 X44.331 Y3.603 I-3.509 J-3.607 
X44.343 Y-3.443 I-90.042 J-3.676 
X42.815 Y-6.93 I-5.065 J0.141 
G01 X3.61 Y-46.136 
G02 X-3.606 Y-46.139 I-3.609 J3.506 
G01 X-45.276 Y-4.469 
G02 X-46.803 Y-0.899 I3.527 J3.62 
G03 X-46.801 Y0.974 I-17.534 J0.955 
G02 X-45.276 Y4.469 I5.046 J-0.121 
G01 X-3.609 Y46.137 
G02 X-0.167 Y47.657 I3.605 J-3.506 
G01 X-0.167 Y47.606 
G03 X-3.517 Y46.159 I0.178 J-5.015 
G01 X-45.3 Y4.376 
G03 X-46.751 Y0.627 I3.521 J-3.518 
G02 X-46.754 Y-0.739 I-9.51 J-0.662 
G03 X-45.3 Y-4.376 I4.972 J-0.121 
G01 X-3.517 Y-46.159 
G03 X3.517 Y-46.159 I3.517 J3.539 
G01 X42.838 Y-6.837 
G03 X44.293 Y-3.458 I-3.518 J3.517 
X44.252 Y3.973 I-81.622 J3.265 
X42.838 Y6.837 I-5.037 J-0.705 
G01 X3.517 Y46.159 
G03 X-0.167 Y47.606 I-3.493 J-3.48 
G01 X-0.167 Y47.657 
X0.23 Y47.657 
G00 Z5
Z-0.5
G01 Z-2.75 F50
G02 X3.609 Y46.137 I-0.238 J-5.045 F200
G01 X42.815 Y6.93 
G02 X44.331 Y3.603 I-3.509 J-3.607 
X44.343 Y-3.443 I-90.042 J-3.676 
X42.815 Y-6.93 I-5.065 J0.141 
G01 X3.61 Y-46.136 
G02 X-3.606 Y-46.139 I-3.609 J3.506 
G01 X-45.276 Y-4.469 
G02 X-46.803 Y-0.899 I3.527 J3.62 
G03 X-46.801 Y0.974 I-17.534 J0.955 
G02 X-45.276 Y4.469 I5.046 J-0.121 
G01 X-3.609 Y46.137 
G02 X-0.167 Y47.657 I3.605 J-3.506 
G01 X-0.167 Y47.606 
G03 X-3.517 Y46.159 I0.178 J-5.015 
G01 X-45.3 Y4.376 
G03 X-46.751 Y0.627 I3.521 J-3.518 
G02 X-46.754 Y-0.739 I-9.51 J-0.662 
G03 X-45.3 Y-4.376 I4.972 J-0.121 
G01 X-3.517 Y-46.159 
G03 X3.517 Y-46.159 I3.517 J3.539 
G01 X42.838 Y-6.837 
G03 X44.293 Y-3.458 I-3.518 J3.517 
X44.252 Y3.973 I-81.622 J3.265 
X42.838 Y6.837 I-5.037 J-0.705 
G01 X3.517 Y46.159 
G03 X-0.167 Y47.606 I-3.493 J-3.48 
G01 X-0.167 Y47.657 
X0.23 Y47.657 
G00 Z5
Z-0.75
G01 Z-3 F50
G02 X3.609 Y46.137 I-0.238 J-5.045 F200
G01 X42.815 Y6.93 
G02 X44.331 Y3.603 I-3.509 J-3.607 
X44.343 Y-3.443 I-90.042 J-3.676 
X42.815 Y-6.93 I-5.065 J0.141 
G01 X3.61 Y-46.136 
G02 X-3.606 Y-46.139 I-3.609 J3.506 
G01 X-45.276 Y-4.469 
G02 X-46.803 Y-0.899 I3.527 J3.62 
G03 X-46.801 Y0.974 I-17.534 J0.955 
G02 X-45.276 Y4.469 I5.046 J-0.121 
G01 X-3.609 Y46.137 
G02 X-0.167 Y47.657 I3.605 J-3.506 
G01 X-0.167 Y47.606 
G03 X-3.517 Y46.159 I0.178 J-5.015 
G01 X-45.3 Y4.376 
G03 X-46.751 Y0.627 I3.521 J-3.518 
G02 X-46.754 Y-0.739 I-9.51 J-0.662 
G03 X-45.3 Y-4.376 I4.972 J-0.121 
G01 X-3.517 Y-46.159 
G03 X3.517 Y-46.159 I3.517 J3.539 
G01 X42.838 Y-6.837 
G03 X44.293 Y-3.458 I-3.518 J3.517 
X44.252 Y3.973 I-81.622 J3.265 
X42.838 Y6.837 I-5.037 J-0.705 
G01 X3.517 Y46.159 
G03 X-0.167 Y47.606 I-3.493 J-3.48 
G01 X-0.167 Y47.657 
X0.23 Y47.657 
G00 Z5
Z-1
G01 Z-3.25 F50
G02 X3.609 Y46.137 I-0.238 J-5.045 F200
G01 X42.815 Y6.93 
G02 X44.331 Y3.603 I-3.509 J-3.607 
X44.343 Y-3.443 I-90.042 J-3.676 
X42.815 Y-6.93 I-5.065 J0.141 
G01 X3.61 Y-46.136 
G02 X-3.606 Y-46.139 I-3.609 J3.506 
G01 X-45.276 Y-4.469 
G02 X-46.803 Y-0.899 I3.527 J3.62 
G03 X-46.801 Y0.974 I-17.534 J0.955 
G02 X-45.276 Y4.469 I5.046 J-0.121 
G01 X-3.609 Y46.137 
G02 X-0.167 Y47.657 I3.605 J-3.506 
G01 X-0.167 Y47.606 
G03 X-3.517 Y46.159 I0.178 J-5.015 
G01 X-45.3 Y4.376 
G03 X-46.751 Y0.627 I3.521 J-3.518 
G02 X-46.754 Y-0.739 I-9.51 J-0.662 
G03 X-45.3 Y-4.376 I4.972 J-0.121 
G01 X-3.517 Y-46.159 
G03 X3.517 Y-46.159 I3.517 J3.539 
G01 X42.838 Y-6.837 
G03 X44.293 Y-3.458 I-3.518 J3.517 
X44.252 Y3.973 I-81.622 J3.265 
X42.838 Y6.837 I-5.037 J-0.705 
G01 X3.517 Y46.159 
G03 X-0.167 Y47.606 I-3.493 J-3.48 
G01 X-0.167 Y47.657 
X0.23 Y47.657 
G00 Z5
Z-1.25
G01 Z-3.5 F50
G02 X3.609 Y46.137 I-0.238 J-5.045 F200
G01 X42.815 Y6.93 
G02 X44.331 Y3.603 I-3.509 J-3.607 
X44.343 Y-3.443 I-90.042 J-3.676 
X42.815 Y-6.93 I-5.065 J0.141 
G01 X3.61 Y-46.136 
G02 X-3.606 Y-46.139 I-3.609 J3.506 
G01 X-45.276 Y-4.469 
G02 X-46.803 Y-0.899 I3.527 J3.62 
G03 X-46.801 Y0.974 I-17.534 J0.955 
G02 X-45.276 Y4.469 I5.046 J-0.121 
G01 X-3.609 Y46.137 
G02 X-0.167 Y47.657 I3.605 J-3.506 
G01 X-0.167 Y47.606 
G03 X-3.517 Y46.159 I0.178 J-5.015 
G01 X-45.3 Y4.376 
G03 X-46.751 Y0.627 I3.521 J-3.518 
G02 X-46.754 Y-0.739 I-9.51 J-0.662 
G03 X-45.3 Y-4.376 I4.972 J-0.121 
G01 X-3.517 Y-46.159 
G03 X3.517 Y-46.159 I3.517 J3.539 
G01 X42.838 Y-6.837 
G03 X44.293 Y-3.458 I-3.518 J3.517 
X44.252 Y3.973 I-81.622 J3.265 
X42.838 Y6.837 I-5.037 J-0.705 
G01 X3.517 Y46.159 
G03 X-0.167 Y47.606 I-3.493 J-3.48 
G01 X-0.167 Y47.657 
X0.23 Y47.657 
G00 Z5
Z-1.5
G01 Z-3.75 F50
G02 X3.609 Y46.137 I-0.238 J-5.045 F200
G01 X42.815 Y6.93 
G02 X44.331 Y3.603 I-3.509 J-3.607 
X44.343 Y-3.443 I-90.042 J-3.676 
X42.815 Y-6.93 I-5.065 J0.141 
G01 X3.61 Y-46.136 
G02 X-3.606 Y-46.139 I-3.609 J3.506 
G01 X-45.276 Y-4.469 
G02 X-46.803 Y-0.899 I3.527 J3.62 
G03 X-46.801 Y0.974 I-17.534 J0.955 
G02 X-45.276 Y4.469 I5.046 J-0.121 
G01 X-3.609 Y46.137 
G02 X-0.167 Y47.657 I3.605 J-3.506 
G01 X-0.167 Y47.606 
G03 X-3.517 Y46.159 I0.178 J-5.015 
G01 X-45.3 Y4.376 
G03 X-46.751 Y0.627 I3.521 J-3.518 
G02 X-46.754 Y-0.739 I-9.51 J-0.662 
G03 X-45.3 Y-4.376 I4.972 J-0.121 
G01 X-3.517 Y-46.159 
G03 X3.517 Y-46.159 I3.517 J3.539 
G01 X42.838 Y-6.837 
G03 X44.293 Y-3.458 I-3.518 J3.517 
X44.252 Y3.973 I-81.622 J3.265 
X42.838 Y6.837 I-5.037 J-0.705 
G01 X3.517 Y46.159 
G03 X-0.167 Y47.606 I-3.493 J-3.48 
G01 X-0.167 Y47.657 
X0.23 Y47.657 
G00 Z5
Z-1.75
G01 Z-4 F50
G02 X3.609 Y46.137 I-0.238 J-5.045 F200
G01 X42.815 Y6.93 
G02 X44.331 Y3.603 I-3.509 J-3.607 
X44.343 Y-3.443 I-90.042 J-3.676 
X42.815 Y-6.93 I-5.065 J0.141 
G01 X3.61 Y-46.136 
G02 X-3.606 Y-46.139 I-3.609 J3.506 
G01 X-45.276 Y-4.469 
G02 X-46.803 Y-0.899 I3.527 J3.62 
G03 X-46.801 Y0.974 I-17.534 J0.955 
G02 X-45.276 Y4.469 I5.046 J-0.121 
G01 X-3.609 Y46.137 
G02 X-0.167 Y47.657 I3.605 J-3.506 
G01 X-0.167 Y47.606 
G03 X-3.517 Y46.159 I0.178 J-5.015 
G01 X-45.3 Y4.376 
G03 X-46.751 Y0.627 I3.521 J-3.518 
G02 X-46.754 Y-0.739 I-9.51 J-0.662 
G03 X-45.3 Y-4.376 I4.972 J-0.121 
G01 X-3.517 Y-46.159 
G03 X3.517 Y-46.159 I3.517 J3.539 
G01 X42.838 Y-6.837 
G03 X44.293 Y-3.458 I-3.518 J3.517 
X44.252 Y3.973 I-81.622 J3.265 
X42.838 Y6.837 I-5.037 J-0.705 
G01 X3.517 Y46.159 
G03 X-0.167 Y47.606 I-3.493 J-3.48 
G01 X-0.167 Y47.657 
X0.23 Y47.657 
G00 Z5
Z-2
G01 Z-4.25 F50
G02 X3.609 Y46.137 I-0.238 J-5.045 F200
G01 X42.815 Y6.93 
G02 X44.331 Y3.603 I-3.509 J-3.607 
X44.343 Y-3.443 I-90.042 J-3.676 
X42.815 Y-6.93 I-5.065 J0.141 
G01 X3.61 Y-46.136 
G02 X-3.606 Y-46.139 I-3.609 J3.506 
G01 X-45.276 Y-4.469 
G02 X-46.803 Y-0.899 I3.527 J3.62 
G03 X-46.801 Y0.974 I-17.534 J0.955 
G02 X-45.276 Y4.469 I5.046 J-0.121 
G01 X-3.609 Y46.137 
G02 X-0.167 Y47.657 I3.605 J-3.506 
G01 X-0.167 Y47.606 
G03 X-3.517 Y46.159 I0.178 J-5.015 
G01 X-45.3 Y4.376 
G03 X-46.751 Y0.627 I3.521 J-3.518 
G02 X-46.754 Y-0.739 I-9.51 J-0.662 
G03 X-45.3 Y-4.376 I4.972 J-0.121 
G01 X-3.517 Y-46.159 
G03 X3.517 Y-46.159 I3.517 J3.539 
G01 X42.838 Y-6.837 
G03 X44.293 Y-3.458 I-3.518 J3.517 
X44.252 Y3.973 I-81.622 J3.265 
X42.838 Y6.837 I-5.037 J-0.705 
G01 X3.517 Y46.159 
G03 X-0.167 Y47.606 I-3.493 J-3.48 
G01 X-0.167 Y47.657 
X0.23 Y47.657 
G00 Z5
Z-2.25
G01 Z-4.5 F50
G02 X3.609 Y46.137 I-0.238 J-5.045 F200
G01 X42.815 Y6.93 
G02 X44.331 Y3.603 I-3.509 J-3.607 
X44.343 Y-3.443 I-90.042 J-3.676 
X42.815 Y-6.93 I-5.065 J0.141 
G01 X3.61 Y-46.136 
G02 X-3.606 Y-46.139 I-3.609 J3.506 
G01 X-45.276 Y-4.469 
G02 X-46.803 Y-0.899 I3.527 J3.62 
G03 X-46.801 Y0.974 I-17.534 J0.955 
G02 X-45.276 Y4.469 I5.046 J-0.121 
G01 X-3.609 Y46.137 
G02 X-0.167 Y47.657 I3.605 J-3.506 
G01 X-0.167 Y47.606 
G03 X-3.517 Y46.159 I0.178 J-5.015 
G01 X-45.3 Y4.376 
G03 X-46.751 Y0.627 I3.521 J-3.518 
G02 X-46.754 Y-0.739 I-9.51 J-0.662 
G03 X-45.3 Y-4.376 I4.972 J-0.121 
G01 X-3.517 Y-46.159 
G03 X3.517 Y-46.159 I3.517 J3.539 
G01 X42.838 Y-6.837 
G03 X44.293 Y-3.458 I-3.518 J3.517 
X44.252 Y3.973 I-81.622 J3.265 
X42.838 Y6.837 I-5.037 J-0.705 
G01 X3.517 Y46.159 
G03 X-0.167 Y47.606 I-3.493 J-3.48 
G01 X-0.167 Y47.657 
X0.23 Y47.657 
G00 Z5
Z-2.5
G01 Z-4.75 F50
G02 X3.609 Y46.137 I-0.238 J-5.045 F200
G01 X42.815 Y6.93 
G02 X44.331 Y3.603 I-3.509 J-3.607 
X44.343 Y-3.443 I-90.042 J-3.676 
X42.815 Y-6.93 I-5.065 J0.141 
G01 X3.61 Y-46.136 
G02 X-3.606 Y-46.139 I-3.609 J3.506 
G01 X-45.276 Y-4.469 
G02 X-46.803 Y-0.899 I3.527 J3.62 
G03 X-46.801 Y0.974 I-17.534 J0.955 
G02 X-45.276 Y4.469 I5.046 J-0.121 
G01 X-3.609 Y46.137 
G02 X-0.167 Y47.657 I3.605 J-3.506 
G01 X-0.167 Y47.606 
G03 X-3.517 Y46.159 I0.178 J-5.015 
G01 X-45.3 Y4.376 
G03 X-46.751 Y0.627 I3.521 J-3.518 
G02 X-46.754 Y-0.739 I-9.51 J-0.662 
G03 X-45.3 Y-4.376 I4.972 J-0.121 
G01 X-3.517 Y-46.159 
G03 X3.517 Y-46.159 I3.517 J3.539 
G01 X42.838 Y-6.837 
G03 X44.293 Y-3.458 I-3.518 J3.517 
X44.252 Y3.973 I-81.622 J3.265 
X42.838 Y6.837 I-5.037 J-0.705 
G01 X3.517 Y46.159 
G03 X-0.167 Y47.606 I-3.493 J-3.48 
G01 X-0.167 Y47.657 
X0.23 Y47.657 
G00 Z5
Z-2.75
G01 Z-5 F50
G02 X3.609 Y46.137 I-0.238 J-5.045 F200
G01 X42.815 Y6.93 
G02 X44.331 Y3.603 I-3.509 J-3.607 
X44.343 Y-3.443 I-90.042 J-3.676 
X42.815 Y-6.93 I-5.065 J0.141 
G01 X3.61 Y-46.136 
G02 X-3.606 Y-46.139 I-3.609 J3.506 
G01 X-45.276 Y-4.469 
G02 X-46.803 Y-0.899 I3.527 J3.62 
G03 X-46.801 Y0.974 I-17.534 J0.955 
G02 X-45.276 Y4.469 I5.046 J-0.121 
G01 X-3.609 Y46.137 
G02 X-0.167 Y47.657 I3.605 J-3.506 
G01 X-0.167 Y47.606 
G03 X-3.517 Y46.159 I0.178 J-5.015 
G01 X-45.3 Y4.376 
G03 X-46.751 Y0.627 I3.521 J-3.518 
G02 X-46.754 Y-0.739 I-9.51 J-0.662 
G03 X-45.3 Y-4.376 I4.972 J-0.121 
G01 X-3.517 Y-46.159 
G03 X3.517 Y-46.159 I3.517 J3.539 
G01 X42.838 Y-6.837 
G03 X44.293 Y-3.458 I-3.518 J3.517 
X44.252 Y3.973 I-81.622 J3.265 
X42.838 Y6.837 I-5.037 J-0.705 
G01 X3.517 Y46.159 
G03 X-0.167 Y47.606 I-3.493 J-3.48 
G01 X-0.167 Y47.657 
X0.23 Y47.657 
G00 Z5
Z-3
G01 Z-5.25 F50
G02 X3.609 Y46.137 I-0.238 J-5.045 F200
G01 X42.815 Y6.93 
G02 X44.331 Y3.603 I-3.509 J-3.607 
X44.343 Y-3.443 I-90.042 J-3.676 
X42.815 Y-6.93 I-5.065 J0.141 
G01 X3.61 Y-46.136 
G02 X-3.606 Y-46.139 I-3.609 J3.506 
G01 X-45.276 Y-4.469 
G02 X-46.803 Y-0.899 I3.527 J3.62 
G03 X-46.801 Y0.974 I-17.534 J0.955 
G02 X-45.276 Y4.469 I5.046 J-0.121 
G01 X-3.609 Y46.137 
G02 X-0.167 Y47.657 I3.605 J-3.506 
G01 X-0.167 Y47.606 
G03 X-3.517 Y46.159 I0.178 J-5.015 
G01 X-45.3 Y4.376 
G03 X-46.751 Y0.627 I3.521 J-3.518 
G02 X-46.754 Y-0.739 I-9.51 J-0.662 
G03 X-45.3 Y-4.376 I4.972 J-0.121 
G01 X-3.517 Y-46.159 
G03 X3.517 Y-46.159 I3.517 J3.539 
G01 X42.838 Y-6.837 
G03 X44.293 Y-3.458 I-3.518 J3.517 
X44.252 Y3.973 I-81.622 J3.265 
X42.838 Y6.837 I-5.037 J-0.705 
G01 X3.517 Y46.159 
G03 X-0.167 Y47.606 I-3.493 J-3.48 
G01 X-0.167 Y47.657 
X0.23 Y47.657 
G00 Z5
Z-3.25
G01 Z-5.5 F50
G02 X3.609 Y46.137 I-0.238 J-5.045 F200
G01 X42.815 Y6.93 
G02 X44.331 Y3.603 I-3.509 J-3.607 
X44.343 Y-3.443 I-90.042 J-3.676 
X42.815 Y-6.93 I-5.065 J0.141 
G01 X3.61 Y-46.136 
G02 X-3.606 Y-46.139 I-3.609 J3.506 
G01 X-45.276 Y-4.469 
G02 X-46.803 Y-0.899 I3.527 J3.62 
G03 X-46.801 Y0.974 I-17.534 J0.955 
G02 X-45.276 Y4.469 I5.046 J-0.121 
G01 X-3.609 Y46.137 
G02 X-0.167 Y47.657 I3.605 J-3.506 
G01 X-0.167 Y47.606 
G03 X-3.517 Y46.159 I0.178 J-5.015 
G01 X-45.3 Y4.376 
G03 X-46.751 Y0.627 I3.521 J-3.518 
G02 X-46.754 Y-0.739 I-9.51 J-0.662 
G03 X-45.3 Y-4.376 I4.972 J-0.121 
G01 X-3.517 Y-46.159 
G03 X3.517 Y-46.159 I3.517 J3.539 
G01 X42.838 Y-6.837 
G03 X44.293 Y-3.458 I-3.518 J3.517 
X44.252 Y3.973 I-81.622 J3.265 
X42.838 Y6.837 I-5.037 J-0.705 
G01 X3.517 Y46.159 
G03 X-0.167 Y47.606 I-3.493 J-3.48 
G01 X-0.167 Y47.657 
X0.23 Y47.657 
G00 Z5
(outer)
X-25.823 Y-26.682 S7000 M03
Z-3.5
G01 Z-5.75 F50
G02 X-24.409 Y-25.267 I0.707 J0.707 F200
G01 X-3.517 Y-46.159 Z-5.75 
G03 X3.517 Y-46.159 Z-5.75 I3.517 J3.517 
G01 X21.856 Y-27.821 Z-5.75 
X22.386 Y-27.29 Z-5 
X28.29 Y-21.386 Z-5 
X28.821 Y-20.856 Z-5.75 
X42.838 Y-6.838 Z-5.75 
G03 X44.292 Y-3.499 Z-5.75 I-3.517 J3.517 
X44.292 Y3.499 Z-5.75 I-97.292 J3.499 
X42.838 Y6.838 Z-5.75 I-4.971 J-0.178 
G01 X28.821 Y20.856 Z-5.75 
X28.29 Y21.386 Z-5 
X22.386 Y27.29 Z-5 
X21.856 Y27.821 Z-5.75 
X3.517 Y46.159 Z-5.75 
G03 X-3.517 Y46.159 Z-5.75 I-3.517 J-3.517 
G01 X-21.356 Y28.321 Z-5.75 
X-21.886 Y27.79 Z-5 
X-27.79 Y21.886 Z-5 
X-28.321 Y21.356 Z-5.75 
X-45.3 Y4.376 Z-5.75 
G03 X-46.743 Y0.478 Z-5.75 I3.517 J-3.517 
G02 X-46.743 Y-0.478 Z-5.75 I-6.256 J-0.478 
G03 X-45.3 Y-4.376 Z-5.75 I4.96 J-0.379 
G01 X-38.321 Y-11.356 Z-5.75 
X-37.79 Y-11.886 Z-5 
X-31.886 Y-17.79 Z-5 
X-31.356 Y-18.321 Z-5.75 
X-24.409 Y-25.267 Z-5.75 
G02 X-25.823 Y-26.682 I-0.707 J-0.707 
G01 Z-6 F50
G02 X-24.409 Y-25.267 I0.707 J0.707 F200
G01 X-3.517 Y-46.159 Z-6 
G03 X3.517 Y-46.159 Z-6 I3.517 J3.517 
G01 X21.679 Y-27.997 Z-6 
X22.386 Y-27.29 Z-5 
X28.29 Y-21.386 Z-5 
X28.997 Y-20.679 Z-6 
X42.838 Y-6.838 Z-6 
G03 X44.292 Y-3.499 Z-6 I-3.517 J3.517 
X44.292 Y3.499 Z-6 I-97.292 J3.499 
X42.838 Y6.838 Z-6 I-4.971 J-0.178 
G01 X28.997 Y20.679 Z-6 
X28.29 Y21.386 Z-5 
X22.386 Y27.29 Z-5 
X21.679 Y27.997 Z-6 
X3.517 Y46.159 Z-6 
G03 X-3.517 Y46.159 Z-6 I-3.517 J-3.517 
G01 X-21.179 Y28.497 Z-6 
X-21.886 Y27.79 Z-5 
X-27.79 Y21.886 Z-5 
X-28.497 Y21.179 Z-6 
X-45.3 Y4.376 Z-6 
G03 X-46.743 Y0.478 Z-6 I3.517 J-3.517 
G02 X-46.743 Y-0.478 Z-6 I-6.256 J-0.478 
G03 X-45.3 Y-4.376 Z-6 I4.96 J-0.379 
G01 X-38.497 Y-11.179 Z-6 
X-37.79 Y-11.886 Z-5 
X-31.886 Y-17.79 Z-5 
X-31.179 Y-18.497 Z-6 
X-24.409 Y-25.267 Z-6 
G02 X-25.823 Y-26.682 I-0.707 J-0.707 
G01 Z-6.25 F50
G02 X-24.409 Y-25.267 I0.707 J0.707 F200
G01 X-3.517 Y-46.159 Z-6.25 
G03 X3.517 Y-46.159 Z-6.25 I3.517 J3.517 
G01 X21.502 Y-28.174 Z-6.25 
X22.386 Y-27.29 Z-5 
X28.29 Y-21.386 Z-5 
X29.174 Y-20.502 Z-6.25 
X42.838 Y-6.838 Z-6.25 
G03 X44.292 Y-3.499 Z-6.25 I-3.517 J3.517 
X44.292 Y3.499 Z-6.25 I-97.292 J3.499 
X42.838 Y6.838 Z-6.25 I-4.971 J-0.178 
G01 X29.174 Y20.502 Z-6.25 
X28.29 Y21.386 Z-5 
X22.386 Y27.29 Z-5 
X21.502 Y28.174 Z-6.25 
X3.517 Y46.159 Z-6.25 
G03 X-3.517 Y46.159 Z-6.25 I-3.517 J-3.517 
G01 X-21.002 Y28.674 Z-6.25 
X-21.886 Y27.79 Z-5 
X-27.79 Y21.886 Z-5 
X-28.674 Y21.002 Z-6.25 
X-45.3 Y4.376 Z-6.25 
G03 X-46.743 Y0.478 Z-6.25 I3.517 J-3.517 
G02 X-46.743 Y-0.478 Z-6.25 I-6.256 J-0.478 
G03 X-45.3 Y-4.376 Z-6.25 I4.96 J-0.379 
G01 X-38.674 Y-11.002 Z-6.25 
X-37.79 Y-11.886 Z-5 
X-31.886 Y-17.79 Z-5 
X-31.002 Y-18.674 Z-6.25 
X-24.409 Y-25.267 Z-6.25 
G02 X-25.823 Y-26.682 I-0.707 J-0.707 
G01 Z-6.5 F50
G02 X-24.409 Y-25.267 I0.707 J0.707 F200
G01 X-3.517 Y-46.159 Z-6.5 
G03 X3.517 Y-46.159 Z-6.5 I3.517 J3.517 
G01 X21.325 Y-28.351 Z-6.5 
X22.386 Y-27.29 Z-5 
X28.29 Y-21.386 Z-5 
X29.351 Y-20.325 Z-6.5 
X42.838 Y-6.838 Z-6.5 
G03 X44.292 Y-3.499 Z-6.5 I-3.517 J3.517 
X44.292 Y3.499 Z-6.5 I-97.292 J3.499 
X42.838 Y6.838 Z-6.5 I-4.971 J-0.178 
G01 X29.351 Y20.325 Z-6.5 
X28.29 Y21.386 Z-5 
X22.386 Y27.29 Z-5 
X21.325 Y28.351 Z-6.5 
X3.517 Y46.159 Z-6.5 
G03 X-3.517 Y46.159 Z-6.5 I-3.517 J-3.517 
G01 X-20.825 Y28.851 Z-6.5 
X-21.886 Y27.79 Z-5 
X-27.79 Y21.886 Z-5 
X-28.851 Y20.825 Z-6.5 
X-45.3 Y4.376 Z-6.5 
G03 X-46.743 Y0.478 Z-6.5 I3.517 J-3.517 
G02 X-46.743 Y-0.478 Z-6.5 I-6.256 J-0.478 
G03 X-45.3 Y-4.376 Z-6.5 I4.96 J-0.379 
G01 X-38.851 Y-10.825 Z-6.5 
X-37.79 Y-11.886 Z-5 
X-31.886 Y-17.79 Z-5 
X-30.825 Y-18.851 Z-6.5 
X-24.409 Y-25.267 Z-6.5 
G02 X-25.823 Y-26.682 I-0.707 J-0.707 
G00 Z5
G90
(outer)
X-25.611 Y-26.469
Z-3.5
G01 Z-6.5 F50
G02 X-24.197 Y-25.055 I0.707 J0.707 
G01 X-3.305 Y-45.947 Z-6.5 
G03 X3.305 Y-45.947 Z-6.5 I3.305 J3.305 
G01 X21.113 Y-28.139 Z-6.5 
X22.174 Y-27.078 Z-5 
X28.078 Y-21.174 Z-5 
X29.139 Y-20.113 Z-6.5 
X42.626 Y-6.625 Z-6.5 
G03 X43.993 Y-3.488 Z-6.5 I-3.305 J3.305 
X43.993 Y3.488 Z-6.5 I-96.993 J3.488 
X42.626 Y6.625 Z-6.5 I-4.671 J-0.168 
G01 X29.139 Y20.113 Z-6.5 
X28.078 Y21.174 Z-5 
X22.174 Y27.078 Z-5 
X21.113 Y28.139 Z-6.5 
X3.305 Y45.947 Z-6.5 
G03 X-3.305 Y45.947 Z-6.5 I-3.305 J-3.305 
G01 X-20.613 Y28.639 Z-6.5 
X-21.674 Y27.578 Z-5 
X-27.578 Y21.674 Z-5 
X-28.639 Y20.613 Z-6.5 
X-45.088 Y4.164 Z-6.5 
G03 X-46.444 Y0.501 Z-6.5 I3.305 J-3.305 
G02 X-46.444 Y-0.501 Z-6.5 I-6.555 J-0.501 
G03 X-45.088 Y-4.164 Z-6.5 I4.661 J-0.356 
G01 X-38.639 Y-10.613 Z-6.5 
X-37.578 Y-11.674 Z-5 
X-31.674 Y-17.578 Z-5 
X-30.613 Y-18.639 Z-6.5 
X-24.197 Y-25.055 Z-6.5 
G02 X-25.611 Y-26.469 I-0.707 J-0.707 
G00 Z5
G90
(outer)
Z2 S7000 M03
G01 Z-6.5 
G03 X-24.197 Y-25.055 I0.707 J0.707 
G01 X-30.613 Y-18.639 Z-6.5 
X-31.674 Y-17.578 Z-5 
X-37.578 Y-11.674 Z-5 
X-38.639 Y-10.613 Z-6.5 
X-45.088 Y-4.164 Z-6.5 
G02 X-46.444 Y-0.501 Z-6.5 I3.305 J3.305 
G03 X-46.444 Y0.501 Z-6.5 I-6.555 J0.501 
G02 X-45.088 Y4.164 Z-6.5 I4.661 J0.356 
G01 X-28.639 Y20.613 Z-6.5 
X-27.578 Y21.674 Z-5 
X-21.674 Y27.578 Z-5 
X-20.613 Y28.639 Z-6.5 
X-3.305 Y45.947 Z-6.5 
G02 X3.305 Y45.947 Z-6.5 I3.305 J-3.305 
G01 X21.113 Y28.139 Z-6.5 
X22.174 Y27.078 Z-5 
X28.078 Y21.174 Z-5 
X29.139 Y20.113 Z-6.5 
X42.626 Y6.625 Z-6.5 
G02 X43.993 Y3.488 Z-6.5 I-3.305 J-3.305 
X43.993 Y-3.488 Z-6.5 I-96.993 J-3.488 
X42.626 Y-6.625 Z-6.5 I-4.671 J0.168 
G01 X29.139 Y-20.113 Z-6.5 
X28.078 Y-21.174 Z-5 
X22.174 Y-27.078 Z-5 
X21.113 Y-28.139 Z-6.5 
X3.305 Y-45.947 Z-6.5 
G02 X-3.305 Y-45.947 Z-6.5 I-3.305 J3.305 
G01 X-24.197 Y-25.055 Z-6.5 
G03 X-25.611 Y-26.469 I-0.707 J-0.707 
G00 Z5
T0 M06 M05
