(Created with GRBL post processor 2017/04/23 17:45)
(tool change to 6.35 mm End Mill)
T4 M06
G17 G90 G21
G00 Z5 S7000 M03
X0 Y3.497
Z2
G01 Z-0.2 F50
X3.496 Y0 F500
X0 Y-3.497 
X-3.497 Y0 
X0 Y3.497 
X0 Y7.741 
X7.739 Y0 
X0 Y-7.741 
X-7.74 Y0 
X0 Y7.741 
X0 Y11.985 
X11.982 Y0 
X0 Y-11.985 
X-11.983 Y0 
X0 Y11.985 
X0 Y16.228 
X16.225 Y0 
X0 Y-16.228 
X-16.226 Y0 
X0 Y16.228 
X0 Y20.471 
X20.468 Y0 
X0 Y-20.471 
X-20.469 Y0 
X0 Y20.471 
X0 Y24.714 
X24.711 Y0 
X0 Y-24.714 
X-24.712 Y0 
X0 Y24.714 
X0 Y28.957 
X28.954 Y0 
X0 Y-28.957 
X-28.955 Y0 
X0 Y28.957 
X0 Y33.2 
X32.698 Y0.499 
G02 X32.698 Y-0.499 I-17.782 J-0.499 
G01 X0 Y-33.2 
X-33.198 Y0 
X0 Y33.2 
X0 Y37.443 
X35.681 Y1.76 
G02 X35.681 Y-1.76 I-59.683 J-1.76 
G01 X0 Y-37.443 
X-37.441 Y0 
X0 Y37.443 
X0 Y41.686 
X38.652 Y3.032 
G02 X38.652 Y-3.032 I-84.972 J-3.032 
G01 X0 Y-41.686 
X-41.095 Y-0.59 
G03 X-41.095 Y0.59 I-8.516 J0.59 
G01 X0 Y41.686 
G00 Z5
X-36.623 Y0 S7000 M03
Z1.8
G01 Z-0.3 F20
G00 Z1.8
Z-0.3
G01 Z-0.4 
G00 Z1.8
Z-0.4
G01 Z-0.5 
G00 Z1.8
Z-0.5
G01 Z-0.6 
G00 Z1.8
Z-0.6
G01 Z-0.7 
G00 Z1.8
Z-0.7
G01 Z-0.8 
G00 Z1.8
Z-0.8
G01 Z-0.9 
G00 Z1.8
Z-0.9
G01 Z-1 
G00 Z1.8
Z-1
G01 Z-1.1 
G00 Z1.8
Z-1.1
G01 Z-1.2 
G00 Z1.8
Z-1.2
G01 Z-1.3 
G00 Z1.8
Z-1.3
G01 Z-1.4 
G00 Z1.8
Z-1.4
G01 Z-1.5 
G00 Z1.8
Z-1.5
G01 Z-1.6 
G00 Z1.8
Z-1.6
G01 Z-1.7 
G00 Z1.8
Z-1.7
G01 Z-1.8 
G00 Z1.8
Z-1.8
G01 Z-1.9 
G00 Z1.8
Z-1.9
G01 Z-2 
G00 Z1.8
Z-2
G01 Z-2.1 
G00 Z1.8
Z-2.1
G01 Z-2.2 
G00 Z1.8
Z-2.2
G01 Z-2.3 
G00 Z1.8
Z-2.3
G01 Z-2.4 
G00 Z1.8
Z-2.4
G01 Z-2.5 
G00 Z1.8
Z-2.5
G01 Z-2.6 
G00 Z1.8
Z-2.6
G01 Z-2.7 
G00 Z1.8
Z-2.7
G01 Z-2.8 
G00 Z1.8
Z-2.8
G01 Z-2.9 
G00 Z1.8
Z-2.9
G01 Z-3 
G00 Z1.8
Z-3
G01 Z-3.1 
G00 Z1.8
Z-3.1
G01 Z-3.2 
G00 Z1.8
Z-3.2
G01 Z-3.3 
G00 Z1.8
Z-3.3
G01 Z-3.4 
G00 Z1.8
Z-3.4
G01 Z-3.5 
G00 Z1.8
Z-3.5
G01 Z-3.6 
G00 Z1.8
Z-3.6
G01 Z-3.7 
G00 Z1.8
Z-3.7
G01 Z-3.8 
G00 Z1.8
Z-3.8
G01 Z-3.9 
G00 Z1.8
Z-3.9
G01 Z-4 
G00 Z1.8
Z-4
G01 Z-4.1 
G00 Z1.8
Z-4.1
G01 Z-4.2 
G00 Z1.8
Z-4.2
G01 Z-4.3 
G00 Z1.8
Z-4.3
G01 Z-4.4 
G00 Z1.8
Z-4.4
G01 Z-4.5 
G00 Z1.8
Z-4.5
G01 Z-4.6 
G00 Z1.8
Z-4.6
G01 Z-4.7 
G00 Z1.8
Z-4.7
G01 Z-4.8 
G00 Z1.8
Z-4.8
G01 Z-4.9 
G00 Z1.8
Z-4.9
G01 Z-5 
G00 Z1.8
Z-5
G01 Z-5.1 
G00 Z1.8
Z-5.1
G01 Z-5.2 
G00 Z1.8
Z-5.2
G01 Z-5.3 
G00 Z1.8
Z-5.3
G01 Z-5.4 
G00 Z1.8
Z-5.4
G01 Z-5.5 
G00 Z1.8
Z-5.5
G01 Z-5.6 
G00 Z1.8
Z-5.6
G01 Z-5.7 
G04 P3
G00 Z5
X36.623 Y0
Z1.8
G01 Z-0.3 
G00 Z1.8
Z-0.3
G01 Z-0.4 
G00 Z1.8
Z-0.4
G01 Z-0.5 
G00 Z1.8
Z-0.5
G01 Z-0.6 
G00 Z1.8
Z-0.6
G01 Z-0.7 
G00 Z1.8
Z-0.7
G01 Z-0.8 
G00 Z1.8
Z-0.8
G01 Z-0.9 
G00 Z1.8
Z-0.9
G01 Z-1 
G00 Z1.8
Z-1
G01 Z-1.1 
G00 Z1.8
Z-1.1
G01 Z-1.2 
G00 Z1.8
Z-1.2
G01 Z-1.3 
G00 Z1.8
Z-1.3
G01 Z-1.4 
G00 Z1.8
Z-1.4
G01 Z-1.5 
G00 Z1.8
Z-1.5
G01 Z-1.6 
G00 Z1.8
Z-1.6
G01 Z-1.7 
G00 Z1.8
Z-1.7
G01 Z-1.8 
G00 Z1.8
Z-1.8
G01 Z-1.9 
G00 Z1.8
Z-1.9
G01 Z-2 
G00 Z1.8
Z-2
G01 Z-2.1 
G00 Z1.8
Z-2.1
G01 Z-2.2 
G00 Z1.8
Z-2.2
G01 Z-2.3 
G00 Z1.8
Z-2.3
G01 Z-2.4 
G00 Z1.8
Z-2.4
G01 Z-2.5 
G00 Z1.8
Z-2.5
G01 Z-2.6 
G00 Z1.8
Z-2.6
G01 Z-2.7 
G00 Z1.8
Z-2.7
G01 Z-2.8 
G00 Z1.8
Z-2.8
G01 Z-2.9 
G00 Z1.8
Z-2.9
G01 Z-3 
G00 Z1.8
Z-3
G01 Z-3.1 
G00 Z1.8
Z-3.1
G01 Z-3.2 
G00 Z1.8
Z-3.2
G01 Z-3.3 
G00 Z1.8
Z-3.3
G01 Z-3.4 
G00 Z1.8
Z-3.4
G01 Z-3.5 
G00 Z1.8
Z-3.5
G01 Z-3.6 
G00 Z1.8
Z-3.6
G01 Z-3.7 
G00 Z1.8
Z-3.7
G01 Z-3.8 
G00 Z1.8
Z-3.8
G01 Z-3.9 
G00 Z1.8
Z-3.9
G01 Z-4 
G00 Z1.8
Z-4
G01 Z-4.1 
G00 Z1.8
Z-4.1
G01 Z-4.2 
G00 Z1.8
Z-4.2
G01 Z-4.3 
G00 Z1.8
Z-4.3
G01 Z-4.4 
G00 Z1.8
Z-4.4
G01 Z-4.5 
G00 Z1.8
Z-4.5
G01 Z-4.6 
G00 Z1.8
Z-4.6
G01 Z-4.7 
G00 Z1.8
Z-4.7
G01 Z-4.8 
G00 Z1.8
Z-4.8
G01 Z-4.9 
G00 Z1.8
Z-4.9
G01 Z-5 
G00 Z1.8
Z-5
G01 Z-5.1 
G00 Z1.8
Z-5.1
G01 Z-5.2 
G00 Z1.8
Z-5.2
G01 Z-5.3 
G00 Z1.8
Z-5.3
G01 Z-5.4 
G00 Z1.8
Z-5.4
G01 Z-5.5 
G00 Z1.8
Z-5.5
G01 Z-5.6 
G00 Z1.8
Z-5.6
G01 Z-5.7 
G04 P3
G00 Z5
X0 Y36.623
Z1.8
G01 Z-0.3 
G00 Z1.8
Z-0.3
G01 Z-0.4 
G00 Z1.8
Z-0.4
G01 Z-0.5 
G00 Z1.8
Z-0.5
G01 Z-0.6 
G00 Z1.8
Z-0.6
G01 Z-0.7 
G00 Z1.8
Z-0.7
G01 Z-0.8 
G00 Z1.8
Z-0.8
G01 Z-0.9 
G00 Z1.8
Z-0.9
G01 Z-1 
G00 Z1.8
Z-1
G01 Z-1.1 
G00 Z1.8
Z-1.1
G01 Z-1.2 
G00 Z1.8
Z-1.2
G01 Z-1.3 
G00 Z1.8
Z-1.3
G01 Z-1.4 
G00 Z1.8
Z-1.4
G01 Z-1.5 
G00 Z1.8
Z-1.5
G01 Z-1.6 
G00 Z1.8
Z-1.6
G01 Z-1.7 
G00 Z1.8
Z-1.7
G01 Z-1.8 
G00 Z1.8
Z-1.8
G01 Z-1.9 
G00 Z1.8
Z-1.9
G01 Z-2 
G00 Z1.8
Z-2
G01 Z-2.1 
G00 Z1.8
Z-2.1
G01 Z-2.2 
G00 Z1.8
Z-2.2
G01 Z-2.3 
G00 Z1.8
Z-2.3
G01 Z-2.4 
G00 Z1.8
Z-2.4
G01 Z-2.5 
G00 Z1.8
Z-2.5
G01 Z-2.6 
G00 Z1.8
Z-2.6
G01 Z-2.7 
G00 Z1.8
Z-2.7
G01 Z-2.8 
G00 Z1.8
Z-2.8
G01 Z-2.9 
G00 Z1.8
Z-2.9
G01 Z-3 
G00 Z1.8
Z-3
G01 Z-3.1 
G00 Z1.8
Z-3.1
G01 Z-3.2 
G00 Z1.8
Z-3.2
G01 Z-3.3 
G00 Z1.8
Z-3.3
G01 Z-3.4 
G00 Z1.8
Z-3.4
G01 Z-3.5 
G00 Z1.8
Z-3.5
G01 Z-3.6 
G00 Z1.8
Z-3.6
G01 Z-3.7 
G00 Z1.8
Z-3.7
G01 Z-3.8 
G00 Z1.8
Z-3.8
G01 Z-3.9 
G00 Z1.8
Z-3.9
G01 Z-4 
G00 Z1.8
Z-4
G01 Z-4.1 
G00 Z1.8
Z-4.1
G01 Z-4.2 
G00 Z1.8
Z-4.2
G01 Z-4.3 
G00 Z1.8
Z-4.3
G01 Z-4.4 
G00 Z1.8
Z-4.4
G01 Z-4.5 
G00 Z1.8
Z-4.5
G01 Z-4.6 
G00 Z1.8
Z-4.6
G01 Z-4.7 
G00 Z1.8
Z-4.7
G01 Z-4.8 
G00 Z1.8
Z-4.8
G01 Z-4.9 
G00 Z1.8
Z-4.9
G01 Z-5 
G00 Z1.8
Z-5
G01 Z-5.1 
G00 Z1.8
Z-5.1
G01 Z-5.2 
G00 Z1.8
Z-5.2
G01 Z-5.3 
G00 Z1.8
Z-5.3
G01 Z-5.4 
G00 Z1.8
Z-5.4
G01 Z-5.5 
G00 Z1.8
Z-5.5
G01 Z-5.6 
G00 Z1.8
Z-5.6
G01 Z-5.7 
G04 P3
G00 Z5
X0 Y-36.623
Z1.8
G01 Z-0.3 
G00 Z1.8
Z-0.3
G01 Z-0.4 
G00 Z1.8
Z-0.4
G01 Z-0.5 
G00 Z1.8
Z-0.5
G01 Z-0.6 
G00 Z1.8
Z-0.6
G01 Z-0.7 
G00 Z1.8
Z-0.7
G01 Z-0.8 
G00 Z1.8
Z-0.8
G01 Z-0.9 
G00 Z1.8
Z-0.9
G01 Z-1 
G00 Z1.8
Z-1
G01 Z-1.1 
G00 Z1.8
Z-1.1
G01 Z-1.2 
G00 Z1.8
Z-1.2
G01 Z-1.3 
G00 Z1.8
Z-1.3
G01 Z-1.4 
G00 Z1.8
Z-1.4
G01 Z-1.5 
G00 Z1.8
Z-1.5
G01 Z-1.6 
G00 Z1.8
Z-1.6
G01 Z-1.7 
G00 Z1.8
Z-1.7
G01 Z-1.8 
G00 Z1.8
Z-1.8
G01 Z-1.9 
G00 Z1.8
Z-1.9
G01 Z-2 
G00 Z1.8
Z-2
G01 Z-2.1 
G00 Z1.8
Z-2.1
G01 Z-2.2 
G00 Z1.8
Z-2.2
G01 Z-2.3 
G00 Z1.8
Z-2.3
G01 Z-2.4 
G00 Z1.8
Z-2.4
G01 Z-2.5 
G00 Z1.8
Z-2.5
G01 Z-2.6 
G00 Z1.8
Z-2.6
G01 Z-2.7 
G00 Z1.8
Z-2.7
G01 Z-2.8 
G00 Z1.8
Z-2.8
G01 Z-2.9 
G00 Z1.8
Z-2.9
G01 Z-3 
G00 Z1.8
Z-3
G01 Z-3.1 
G00 Z1.8
Z-3.1
G01 Z-3.2 
G00 Z1.8
Z-3.2
G01 Z-3.3 
G00 Z1.8
Z-3.3
G01 Z-3.4 
G00 Z1.8
Z-3.4
G01 Z-3.5 
G00 Z1.8
Z-3.5
G01 Z-3.6 
G00 Z1.8
Z-3.6
G01 Z-3.7 
G00 Z1.8
Z-3.7
G01 Z-3.8 
G00 Z1.8
Z-3.8
G01 Z-3.9 
G00 Z1.8
Z-3.9
G01 Z-4 
G00 Z1.8
Z-4
G01 Z-4.1 
G00 Z1.8
Z-4.1
G01 Z-4.2 
G00 Z1.8
Z-4.2
G01 Z-4.3 
G00 Z1.8
Z-4.3
G01 Z-4.4 
G00 Z1.8
Z-4.4
G01 Z-4.5 
G00 Z1.8
Z-4.5
G01 Z-4.6 
G00 Z1.8
Z-4.6
G01 Z-4.7 
G00 Z1.8
Z-4.7
G01 Z-4.8 
G00 Z1.8
Z-4.8
G01 Z-4.9 
G00 Z1.8
Z-4.9
G01 Z-5 
G00 Z1.8
Z-5
G01 Z-5.1 
G00 Z1.8
Z-5.1
G01 Z-5.2 
G00 Z1.8
Z-5.2
G01 Z-5.3 
G00 Z1.8
Z-5.3
G01 Z-5.4 
G00 Z1.8
Z-5.4
G01 Z-5.5 
G00 Z1.8
Z-5.5
G01 Z-5.6 
G00 Z1.8
Z-5.6
G01 Z-5.7 
G04 P3
G00 Z5
X0 Y1.021 S7000 M03
Z1.8
G01 Z-0.45 F50
X1.021 Y0 F500
X0 Y-1.021 
X-1.021 Y0 
X0 Y1.021 
X0 Y5.264 
X5.264 Y0 
X0 Y-5.264 
X-5.264 Y0 
X0 Y5.264 
X0 Y9.507 
X9.507 Y0 
X0 Y-9.507 
X-9.507 Y0 
X0 Y9.507 
X0 Y13.75 
X13.75 Y0 
X0 Y-13.75 
X-13.75 Y0 
X0 Y13.75 
X0 Y17.993 
X17.993 Y0 
X0 Y-17.993 
X-17.993 Y0 
X0 Y17.993 
X0 Y22.236 
X22.236 Y0 
X0 Y-22.236 
X-22.236 Y0 
X0 Y22.236 
X0 Y26.479 
X26.479 Y0 
X0 Y-26.479 
X-26.479 Y0 
X0 Y26.479 
X0 Y30.722 
X30.722 Y0 
X0 Y-30.722 
X-30.722 Y0 
X0 Y30.722 
X0 Y34.965 
X34.965 Y0 
X0 Y-34.965 
X-34.965 Y0 
X0 Y34.965 
G00 Z5
X0 Y1.021
Z1.55
G01 Z-0.7 F50
X1.021 Y0 F500
X0 Y-1.021 
X-1.021 Y0 
X0 Y1.021 
X0 Y5.264 
X5.264 Y0 
X0 Y-5.264 
X-5.264 Y0 
X0 Y5.264 
X0 Y9.507 
X9.507 Y0 
X0 Y-9.507 
X-9.507 Y0 
X0 Y9.507 
X0 Y13.75 
X13.75 Y0 
X0 Y-13.75 
X-13.75 Y0 
X0 Y13.75 
X0 Y17.993 
X17.993 Y0 
X0 Y-17.993 
X-17.993 Y0 
X0 Y17.993 
X0 Y22.236 
X22.236 Y0 
X0 Y-22.236 
X-22.236 Y0 
X0 Y22.236 
X0 Y26.479 
X26.479 Y0 
X0 Y-26.479 
X-26.479 Y0 
X0 Y26.479 
X0 Y30.722 
X30.722 Y0 
X0 Y-30.722 
X-30.722 Y0 
X0 Y30.722 
X0 Y34.965 
X34.965 Y0 
X0 Y-34.965 
X-34.965 Y0 
X0 Y34.965 
G00 Z5
X0 Y1.021
Z1.3
G01 Z-0.95 F50
X1.021 Y0 F500
X0 Y-1.021 
X-1.021 Y0 
X0 Y1.021 
X0 Y5.264 
X5.264 Y0 
X0 Y-5.264 
X-5.264 Y0 
X0 Y5.264 
X0 Y9.507 
X9.507 Y0 
X0 Y-9.507 
X-9.507 Y0 
X0 Y9.507 
X0 Y13.75 
X13.75 Y0 
X0 Y-13.75 
X-13.75 Y0 
X0 Y13.75 
X0 Y17.993 
X17.993 Y0 
X0 Y-17.993 
X-17.993 Y0 
X0 Y17.993 
X0 Y22.236 
X22.236 Y0 
X0 Y-22.236 
X-22.236 Y0 
X0 Y22.236 
X0 Y26.479 
X26.479 Y0 
X0 Y-26.479 
X-26.479 Y0 
X0 Y26.479 
X0 Y30.722 
X30.722 Y0 
X0 Y-30.722 
X-30.722 Y0 
X0 Y30.722 
X0 Y34.965 
X34.965 Y0 
X0 Y-34.965 
X-34.965 Y0 
X0 Y34.965 
G00 Z5
X0 Y1.021
Z1.05
G01 Z-1.2 F50
X1.021 Y0 F500
X0 Y-1.021 
X-1.021 Y0 
X0 Y1.021 
X0 Y5.264 
X5.264 Y0 
X0 Y-5.264 
X-5.264 Y0 
X0 Y5.264 
X0 Y9.507 
X9.507 Y0 
X0 Y-9.507 
X-9.507 Y0 
X0 Y9.507 
X0 Y13.75 
X13.75 Y0 
X0 Y-13.75 
X-13.75 Y0 
X0 Y13.75 
X0 Y17.993 
X17.993 Y0 
X0 Y-17.993 
X-17.993 Y0 
X0 Y17.993 
X0 Y22.236 
X22.236 Y0 
X0 Y-22.236 
X-22.236 Y0 
X0 Y22.236 
X0 Y26.479 
X26.479 Y0 
X0 Y-26.479 
X-26.479 Y0 
X0 Y26.479 
X0 Y30.722 
X30.722 Y0 
X0 Y-30.722 
X-30.722 Y0 
X0 Y30.722 
X0 Y34.965 
X34.965 Y0 
X0 Y-34.965 
X-34.965 Y0 
X0 Y34.965 
G00 Z5
X0 Y1.021
Z0.8
G01 Z-1.45 F50
X1.021 Y0 F500
X0 Y-1.021 
X-1.021 Y0 
X0 Y1.021 
X0 Y5.264 
X5.264 Y0 
X0 Y-5.264 
X-5.264 Y0 
X0 Y5.264 
X0 Y9.507 
X9.507 Y0 
X0 Y-9.507 
X-9.507 Y0 
X0 Y9.507 
X0 Y13.75 
X13.75 Y0 
X0 Y-13.75 
X-13.75 Y0 
X0 Y13.75 
X0 Y17.993 
X17.993 Y0 
X0 Y-17.993 
X-17.993 Y0 
X0 Y17.993 
X0 Y22.236 
X22.236 Y0 
X0 Y-22.236 
X-22.236 Y0 
X0 Y22.236 
X0 Y26.479 
X26.479 Y0 
X0 Y-26.479 
X-26.479 Y0 
X0 Y26.479 
X0 Y30.722 
X30.722 Y0 
X0 Y-30.722 
X-30.722 Y0 
X0 Y30.722 
X0 Y34.965 
X34.965 Y0 
X0 Y-34.965 
X-34.965 Y0 
X0 Y34.965 
G00 Z5
X0 Y1.021
Z0.55
G01 Z-1.7 F50
X1.021 Y0 F500
X0 Y-1.021 
X-1.021 Y0 
X0 Y1.021 
X0 Y5.264 
X5.264 Y0 
X0 Y-5.264 
X-5.264 Y0 
X0 Y5.264 
X0 Y9.507 
X9.507 Y0 
X0 Y-9.507 
X-9.507 Y0 
X0 Y9.507 
X0 Y13.75 
X13.75 Y0 
X0 Y-13.75 
X-13.75 Y0 
X0 Y13.75 
X0 Y17.993 
X17.993 Y0 
X0 Y-17.993 
X-17.993 Y0 
X0 Y17.993 
X0 Y22.236 
X22.236 Y0 
X0 Y-22.236 
X-22.236 Y0 
X0 Y22.236 
X0 Y26.479 
X26.479 Y0 
X0 Y-26.479 
X-26.479 Y0 
X0 Y26.479 
X0 Y30.722 
X30.722 Y0 
X0 Y-30.722 
X-30.722 Y0 
X0 Y30.722 
X0 Y34.965 
X34.965 Y0 
X0 Y-34.965 
X-34.965 Y0 
X0 Y34.965 
G00 Z5
X0 Y1.021
Z0.3
G01 Z-1.95 F50
X1.021 Y0 F500
X0 Y-1.021 
X-1.021 Y0 
X0 Y1.021 
X0 Y5.264 
X5.264 Y0 
X0 Y-5.264 
X-5.264 Y0 
X0 Y5.264 
X0 Y9.507 
X9.507 Y0 
X0 Y-9.507 
X-9.507 Y0 
X0 Y9.507 
X0 Y13.75 
X13.75 Y0 
X0 Y-13.75 
X-13.75 Y0 
X0 Y13.75 
X0 Y17.993 
X17.993 Y0 
X0 Y-17.993 
X-17.993 Y0 
X0 Y17.993 
X0 Y22.236 
X22.236 Y0 
X0 Y-22.236 
X-22.236 Y0 
X0 Y22.236 
X0 Y26.479 
X26.479 Y0 
X0 Y-26.479 
X-26.479 Y0 
X0 Y26.479 
X0 Y30.722 
X30.722 Y0 
X0 Y-30.722 
X-30.722 Y0 
X0 Y30.722 
X0 Y34.965 
X34.965 Y0 
X0 Y-34.965 
X-34.965 Y0 
X0 Y34.965 
G00 Z5
X0 Y1.021
Z0.05
G01 Z-2.2 F50
X1.021 Y0 F500
X0 Y-1.021 
X-1.021 Y0 
X0 Y1.021 
X0 Y5.264 
X5.264 Y0 
X0 Y-5.264 
X-5.264 Y0 
X0 Y5.264 
X0 Y9.507 
X9.507 Y0 
X0 Y-9.507 
X-9.507 Y0 
X0 Y9.507 
X0 Y13.75 
X13.75 Y0 
X0 Y-13.75 
X-13.75 Y0 
X0 Y13.75 
X0 Y17.993 
X17.993 Y0 
X0 Y-17.993 
X-17.993 Y0 
X0 Y17.993 
X0 Y22.236 
X22.236 Y0 
X0 Y-22.236 
X-22.236 Y0 
X0 Y22.236 
X0 Y26.479 
X26.479 Y0 
X0 Y-26.479 
X-26.479 Y0 
X0 Y26.479 
X0 Y30.722 
X30.722 Y0 
X0 Y-30.722 
X-30.722 Y0 
X0 Y30.722 
X0 Y34.965 
X34.965 Y0 
X0 Y-34.965 
X-34.965 Y0 
X0 Y34.965 
G00 Z5
X0 Y1.021
Z-0.2
G01 Z-2.45 F50
X1.021 Y0 F500
X0 Y-1.021 
X-1.021 Y0 
X0 Y1.021 
X0 Y5.264 
X5.264 Y0 
X0 Y-5.264 
X-5.264 Y0 
X0 Y5.264 
X0 Y9.507 
X9.507 Y0 
X0 Y-9.507 
X-9.507 Y0 
X0 Y9.507 
X0 Y13.75 
X13.75 Y0 
X0 Y-13.75 
X-13.75 Y0 
X0 Y13.75 
X0 Y17.993 
X17.993 Y0 
X0 Y-17.993 
X-17.993 Y0 
X0 Y17.993 
X0 Y22.236 
X22.236 Y0 
X0 Y-22.236 
X-22.236 Y0 
X0 Y22.236 
X0 Y26.479 
X26.479 Y0 
X0 Y-26.479 
X-26.479 Y0 
X0 Y26.479 
X0 Y30.722 
X30.722 Y0 
X0 Y-30.722 
X-30.722 Y0 
X0 Y30.722 
X0 Y34.965 
X34.965 Y0 
X0 Y-34.965 
X-34.965 Y0 
X0 Y34.965 
G00 Z5
X0 Y1.021
Z-0.45
G01 Z-2.7 F50
X1.021 Y0 F500
X0 Y-1.021 
X-1.021 Y0 
X0 Y1.021 
X0 Y5.264 
X5.264 Y0 
X0 Y-5.264 
X-5.264 Y0 
X0 Y5.264 
X0 Y9.507 
X9.507 Y0 
X0 Y-9.507 
X-9.507 Y0 
X0 Y9.507 
X0 Y13.75 
X13.75 Y0 
X0 Y-13.75 
X-13.75 Y0 
X0 Y13.75 
X0 Y17.993 
X17.993 Y0 
X0 Y-17.993 
X-17.993 Y0 
X0 Y17.993 
X0 Y22.236 
X22.236 Y0 
X0 Y-22.236 
X-22.236 Y0 
X0 Y22.236 
X0 Y26.479 
X26.479 Y0 
X0 Y-26.479 
X-26.479 Y0 
X0 Y26.479 
X0 Y30.722 
X30.722 Y0 
X0 Y-30.722 
X-30.722 Y0 
X0 Y30.722 
X0 Y34.965 
X34.965 Y0 
X0 Y-34.965 
X-34.965 Y0 
X0 Y34.965 
G00 Z5
X0 Y1.021
Z-0.7
G01 Z-2.95 F50
X1.021 Y0 F500
X0 Y-1.021 
X-1.021 Y0 
X0 Y1.021 
X0 Y5.264 
X5.264 Y0 
X0 Y-5.264 
X-5.264 Y0 
X0 Y5.264 
X0 Y9.507 
X9.507 Y0 
X0 Y-9.507 
X-9.507 Y0 
X0 Y9.507 
X0 Y13.75 
X13.75 Y0 
X0 Y-13.75 
X-13.75 Y0 
X0 Y13.75 
X0 Y17.993 
X17.993 Y0 
X0 Y-17.993 
X-17.993 Y0 
X0 Y17.993 
X0 Y22.236 
X22.236 Y0 
X0 Y-22.236 
X-22.236 Y0 
X0 Y22.236 
X0 Y26.479 
X26.479 Y0 
X0 Y-26.479 
X-26.479 Y0 
X0 Y26.479 
X0 Y30.722 
X30.722 Y0 
X0 Y-30.722 
X-30.722 Y0 
X0 Y30.722 
X0 Y34.965 
X34.965 Y0 
X0 Y-34.965 
X-34.965 Y0 
X0 Y34.965 
G00 Z5
X0 Y1.021
Z-0.95
G01 Z-3.2 F50
X1.021 Y0 F500
X0 Y-1.021 
X-1.021 Y0 
X0 Y1.021 
X0 Y5.264 
X5.264 Y0 
X0 Y-5.264 
X-5.264 Y0 
X0 Y5.264 
X0 Y9.507 
X9.507 Y0 
X0 Y-9.507 
X-9.507 Y0 
X0 Y9.507 
X0 Y13.75 
X13.75 Y0 
X0 Y-13.75 
X-13.75 Y0 
X0 Y13.75 
X0 Y17.993 
X17.993 Y0 
X0 Y-17.993 
X-17.993 Y0 
X0 Y17.993 
X0 Y22.236 
X22.236 Y0 
X0 Y-22.236 
X-22.236 Y0 
X0 Y22.236 
X0 Y26.479 
X26.479 Y0 
X0 Y-26.479 
X-26.479 Y0 
X0 Y26.479 
X0 Y30.722 
X30.722 Y0 
X0 Y-30.722 
X-30.722 Y0 
X0 Y30.722 
X0 Y34.965 
X34.965 Y0 
X0 Y-34.965 
X-34.965 Y0 
X0 Y34.965 
G00 Z5
X0 Y1.021
Z-1.2
G01 Z-3.45 F50
X1.021 Y0 F500
X0 Y-1.021 
X-1.021 Y0 
X0 Y1.021 
X0 Y5.264 
X5.264 Y0 
X0 Y-5.264 
X-5.264 Y0 
X0 Y5.264 
X0 Y9.507 
X9.507 Y0 
X0 Y-9.507 
X-9.507 Y0 
X0 Y9.507 
X0 Y13.75 
X13.75 Y0 
X0 Y-13.75 
X-13.75 Y0 
X0 Y13.75 
X0 Y17.993 
X17.993 Y0 
X0 Y-17.993 
X-17.993 Y0 
X0 Y17.993 
X0 Y22.236 
X22.236 Y0 
X0 Y-22.236 
X-22.236 Y0 
X0 Y22.236 
X0 Y26.479 
X26.479 Y0 
X0 Y-26.479 
X-26.479 Y0 
X0 Y26.479 
X0 Y30.722 
X30.722 Y0 
X0 Y-30.722 
X-30.722 Y0 
X0 Y30.722 
X0 Y34.965 
X34.965 Y0 
X0 Y-34.965 
X-34.965 Y0 
X0 Y34.965 
G00 Z5
X0 Y1.021
Z-1.45
G01 Z-3.7 F50
X1.021 Y0 F500
X0 Y-1.021 
X-1.021 Y0 
X0 Y1.021 
X0 Y5.264 
X5.264 Y0 
X0 Y-5.264 
X-5.264 Y0 
X0 Y5.264 
X0 Y9.507 
X9.507 Y0 
X0 Y-9.507 
X-9.507 Y0 
X0 Y9.507 
X0 Y13.75 
X13.75 Y0 
X0 Y-13.75 
X-13.75 Y0 
X0 Y13.75 
X0 Y17.993 
X17.993 Y0 
X0 Y-17.993 
X-17.993 Y0 
X0 Y17.993 
X0 Y22.236 
X22.236 Y0 
X0 Y-22.236 
X-22.236 Y0 
X0 Y22.236 
X0 Y26.479 
X26.479 Y0 
X0 Y-26.479 
X-26.479 Y0 
X0 Y26.479 
X0 Y30.722 
X30.722 Y0 
X0 Y-30.722 
X-30.722 Y0 
X0 Y30.722 
X0 Y34.965 
X34.965 Y0 
X0 Y-34.965 
X-34.965 Y0 
X0 Y34.965 
G00 Z5
X0 Y1.021
Z-1.7
G01 Z-3.95 F50
X1.021 Y0 F500
X0 Y-1.021 
X-1.021 Y0 
X0 Y1.021 
X0 Y5.264 
X5.264 Y0 
X0 Y-5.264 
X-5.264 Y0 
X0 Y5.264 
X0 Y9.507 
X9.507 Y0 
X0 Y-9.507 
X-9.507 Y0 
X0 Y9.507 
X0 Y13.75 
X13.75 Y0 
X0 Y-13.75 
X-13.75 Y0 
X0 Y13.75 
X0 Y17.993 
X17.993 Y0 
X0 Y-17.993 
X-17.993 Y0 
X0 Y17.993 
X0 Y22.236 
X22.236 Y0 
X0 Y-22.236 
X-22.236 Y0 
X0 Y22.236 
X0 Y26.479 
X26.479 Y0 
X0 Y-26.479 
X-26.479 Y0 
X0 Y26.479 
X0 Y30.722 
X30.722 Y0 
X0 Y-30.722 
X-30.722 Y0 
X0 Y30.722 
X0 Y34.965 
X34.965 Y0 
X0 Y-34.965 
X-34.965 Y0 
X0 Y34.965 
G00 Z5
X0 Y1.021
Z-1.95
G01 Z-4.2 F50
X1.021 Y0 F500
X0 Y-1.021 
X-1.021 Y0 
X0 Y1.021 
X0 Y5.264 
X5.264 Y0 
X0 Y-5.264 
X-5.264 Y0 
X0 Y5.264 
X0 Y9.507 
X9.507 Y0 
X0 Y-9.507 
X-9.507 Y0 
X0 Y9.507 
X0 Y13.75 
X13.75 Y0 
X0 Y-13.75 
X-13.75 Y0 
X0 Y13.75 
X0 Y17.993 
X17.993 Y0 
X0 Y-17.993 
X-17.993 Y0 
X0 Y17.993 
X0 Y22.236 
X22.236 Y0 
X0 Y-22.236 
X-22.236 Y0 
X0 Y22.236 
X0 Y26.479 
X26.479 Y0 
X0 Y-26.479 
X-26.479 Y0 
X0 Y26.479 
X0 Y30.722 
X30.722 Y0 
X0 Y-30.722 
X-30.722 Y0 
X0 Y30.722 
X0 Y34.965 
X34.965 Y0 
X0 Y-34.965 
X-34.965 Y0 
X0 Y34.965 
G00 Z5
X0 Y1.021
Z-2.2
G01 Z-4.45 F50
X1.021 Y0 F500
X0 Y-1.021 
X-1.021 Y0 
X0 Y1.021 
X0 Y5.264 
X5.264 Y0 
X0 Y-5.264 
X-5.264 Y0 
X0 Y5.264 
X0 Y9.507 
X9.507 Y0 
X0 Y-9.507 
X-9.507 Y0 
X0 Y9.507 
X0 Y13.75 
X13.75 Y0 
X0 Y-13.75 
X-13.75 Y0 
X0 Y13.75 
X0 Y17.993 
X17.993 Y0 
X0 Y-17.993 
X-17.993 Y0 
X0 Y17.993 
X0 Y22.236 
X22.236 Y0 
X0 Y-22.236 
X-22.236 Y0 
X0 Y22.236 
X0 Y26.479 
X26.479 Y0 
X0 Y-26.479 
X-26.479 Y0 
X0 Y26.479 
X0 Y30.722 
X30.722 Y0 
X0 Y-30.722 
X-30.722 Y0 
X0 Y30.722 
X0 Y34.965 
X34.965 Y0 
X0 Y-34.965 
X-34.965 Y0 
X0 Y34.965 
G00 Z5
X0 Y1.021
Z-2.45
G01 Z-4.7 F50
X1.021 Y0 F500
X0 Y-1.021 
X-1.021 Y0 
X0 Y1.021 
X0 Y5.264 
X5.264 Y0 
X0 Y-5.264 
X-5.264 Y0 
X0 Y5.264 
X0 Y9.507 
X9.507 Y0 
X0 Y-9.507 
X-9.507 Y0 
X0 Y9.507 
X0 Y13.75 
X13.75 Y0 
X0 Y-13.75 
X-13.75 Y0 
X0 Y13.75 
X0 Y17.993 
X17.993 Y0 
X0 Y-17.993 
X-17.993 Y0 
X0 Y17.993 
X0 Y22.236 
X22.236 Y0 
X0 Y-22.236 
X-22.236 Y0 
X0 Y22.236 
X0 Y26.479 
X26.479 Y0 
X0 Y-26.479 
X-26.479 Y0 
X0 Y26.479 
X0 Y30.722 
X30.722 Y0 
X0 Y-30.722 
X-30.722 Y0 
X0 Y30.722 
X0 Y34.965 
X34.965 Y0 
X0 Y-34.965 
X-34.965 Y0 
X0 Y34.965 
G00 Z5
X0 Y1.021
Z-2.7
G01 Z-4.95 F50
X1.021 Y0 F500
X0 Y-1.021 
X-1.021 Y0 
X0 Y1.021 
X0 Y5.264 
X5.264 Y0 
X0 Y-5.264 
X-5.264 Y0 
X0 Y5.264 
X0 Y9.507 
X9.507 Y0 
X0 Y-9.507 
X-9.507 Y0 
X0 Y9.507 
X0 Y13.75 
X13.75 Y0 
X0 Y-13.75 
X-13.75 Y0 
X0 Y13.75 
X0 Y17.993 
X17.993 Y0 
X0 Y-17.993 
X-17.993 Y0 
X0 Y17.993 
X0 Y22.236 
X22.236 Y0 
X0 Y-22.236 
X-22.236 Y0 
X0 Y22.236 
X0 Y26.479 
X26.479 Y0 
X0 Y-26.479 
X-26.479 Y0 
X0 Y26.479 
X0 Y30.722 
X30.722 Y0 
X0 Y-30.722 
X-30.722 Y0 
X0 Y30.722 
X0 Y34.965 
X34.965 Y0 
X0 Y-34.965 
X-34.965 Y0 
X0 Y34.965 
G00 Z5
X0 Y1.021
Z-2.95
G01 Z-5.2 F50
X1.021 Y0 F500
X0 Y-1.021 
X-1.021 Y0 
X0 Y1.021 
X0 Y5.264 
X5.264 Y0 
X0 Y-5.264 
X-5.264 Y0 
X0 Y5.264 
X0 Y9.507 
X9.507 Y0 
X0 Y-9.507 
X-9.507 Y0 
X0 Y9.507 
X0 Y13.75 
X13.75 Y0 
X0 Y-13.75 
X-13.75 Y0 
X0 Y13.75 
X0 Y17.993 
X17.993 Y0 
X0 Y-17.993 
X-17.993 Y0 
X0 Y17.993 
X0 Y22.236 
X22.236 Y0 
X0 Y-22.236 
X-22.236 Y0 
X0 Y22.236 
X0 Y26.479 
X26.479 Y0 
X0 Y-26.479 
X-26.479 Y0 
X0 Y26.479 
X0 Y30.722 
X30.722 Y0 
X0 Y-30.722 
X-30.722 Y0 
X0 Y30.722 
X0 Y34.965 
X34.965 Y0 
X0 Y-34.965 
X-34.965 Y0 
X0 Y34.965 
G00 Z5
X0 Y1.021
Z-3.2
G01 Z-5.45 F50
X1.021 Y0 F500
X0 Y-1.021 
X-1.021 Y0 
X0 Y1.021 
X0 Y5.264 
X5.264 Y0 
X0 Y-5.264 
X-5.264 Y0 
X0 Y5.264 
X0 Y9.507 
X9.507 Y0 
X0 Y-9.507 
X-9.507 Y0 
X0 Y9.507 
X0 Y13.75 
X13.75 Y0 
X0 Y-13.75 
X-13.75 Y0 
X0 Y13.75 
X0 Y17.993 
X17.993 Y0 
X0 Y-17.993 
X-17.993 Y0 
X0 Y17.993 
X0 Y22.236 
X22.236 Y0 
X0 Y-22.236 
X-22.236 Y0 
X0 Y22.236 
X0 Y26.479 
X26.479 Y0 
X0 Y-26.479 
X-26.479 Y0 
X0 Y26.479 
X0 Y30.722 
X30.722 Y0 
X0 Y-30.722 
X-30.722 Y0 
X0 Y30.722 
X0 Y34.965 
X34.965 Y0 
X0 Y-34.965 
X-34.965 Y0 
X0 Y34.965 
G00 Z5
X0 Y1.021
Z-3.45
G01 Z-5.7 F50
X1.021 Y0 F500
X0 Y-1.021 
X-1.021 Y0 
X0 Y1.021 
X0 Y5.264 
X5.264 Y0 
X0 Y-5.264 
X-5.264 Y0 
X0 Y5.264 
X0 Y9.507 
X9.507 Y0 
X0 Y-9.507 
X-9.507 Y0 
X0 Y9.507 
X0 Y13.75 
X13.75 Y0 
X0 Y-13.75 
X-13.75 Y0 
X0 Y13.75 
X0 Y17.993 
X17.993 Y0 
X0 Y-17.993 
X-17.993 Y0 
X0 Y17.993 
X0 Y22.236 
X22.236 Y0 
X0 Y-22.236 
X-22.236 Y0 
X0 Y22.236 
X0 Y26.479 
X26.479 Y0 
X0 Y-26.479 
X-26.479 Y0 
X0 Y26.479 
X0 Y30.722 
X30.722 Y0 
X0 Y-30.722 
X-30.722 Y0 
X0 Y30.722 
X0 Y34.965 
X34.965 Y0 
X0 Y-34.965 
X-34.965 Y0 
X0 Y34.965 
G00 Z5
(inner)
X-16.281 Y-16.281 S7000 M03
Z1.8
G01 Z-5.7 F50
G02 X-17.695 Y-17.695 I-0.707 J-0.707 
G01 X-35.39 Y0 
X0 Y35.39 
X35.39 Y0 
X0 Y-35.39 
X-17.695 Y-17.695 
G02 X-16.281 Y-16.281 I0.707 J0.707 
G00 Z5
G90
(inner)
Z2 S7000 M03
G01 Z-5.7 
G03 X-17.695 Y-17.695 I-0.707 J-0.707 
G01 X0 Y-35.39 
X35.39 Y0 
X0 Y35.39 
X-35.39 Y0 
X-17.695 Y-17.695 
G03 X-16.281 Y-16.281 I0.707 J0.707 
G00 Z5
G90
(ledges)
X-26.622 Y-5.656 S7000 M03
Z-3.7
G01 Z-5.933 
G02 X-28.037 Y-7.07 I-0.707 J-0.707 F200
G01 X-35.107 Y0 
X-20.885 Y14.222 
G03 X-14.222 Y20.885 I0.114 J6.549 
G01 X0 Y35.107 
X14.222 Y20.885 
G03 X20.885 Y14.222 I6.549 J-0.114 
G01 X35.107 Y0 
X20.885 Y-14.222 
G03 X14.222 Y-20.885 I-0.114 J-6.549 
G01 X0 Y-35.107 
X-14.222 Y-20.885 
G03 X-20.885 Y-14.222 I-6.549 J0.114 
G01 X-28.037 Y-7.07 
G02 X-26.622 Y-5.656 I0.707 J0.707 
G01 Z-6.166 F50
G02 X-28.037 Y-7.07 I-0.707 J-0.707 F200
G01 X-35.107 Y0 
X-20.885 Y14.222 
G03 X-14.222 Y20.885 I0.114 J6.549 
G01 X0 Y35.107 
X14.222 Y20.885 
G03 X20.885 Y14.222 I6.549 J-0.114 
G01 X35.107 Y0 
X20.885 Y-14.222 
G03 X14.222 Y-20.885 I-0.114 J-6.549 
G01 X0 Y-35.107 
X-14.222 Y-20.885 
G03 X-20.885 Y-14.222 I-6.549 J0.114 
G01 X-28.037 Y-7.07 
G02 X-26.622 Y-5.656 I0.707 J0.707 
G01 Z-6.4 F50
G02 X-28.037 Y-7.07 I-0.707 J-0.707 F200
G01 X-35.107 Y0 
X-20.885 Y14.222 
G03 X-14.222 Y20.885 I0.114 J6.549 
G01 X0 Y35.107 
X14.222 Y20.885 
G03 X20.885 Y14.222 I6.549 J-0.114 
G01 X35.107 Y0 
X20.885 Y-14.222 
G03 X14.222 Y-20.885 I-0.114 J-6.549 
G01 X0 Y-35.107 
X-14.222 Y-20.885 
G03 X-20.885 Y-14.222 I-6.549 J0.114 
G01 X-28.037 Y-7.07 
G02 X-26.622 Y-5.656 I0.707 J0.707 
G00 Z5
G90
(outer)
X-25.823 Y-26.682 S7000 M03
Z2
G01 Z-0.2 F50
G02 X-24.409 Y-25.267 I0.707 J0.707 F250
G01 X-3.517 Y-46.159 Z-0.2 
G03 X3.517 Y-46.159 Z-0.2 I3.517 J3.517 
G01 X42.838 Y-6.838 Z-0.2 
G03 X44.292 Y-3.499 Z-0.2 I-3.517 J3.517 
X44.292 Y3.499 Z-0.2 I-97.292 J3.499 
X42.838 Y6.838 Z-0.2 I-4.971 J-0.178 
G01 X3.517 Y46.159 Z-0.2 
G03 X-3.517 Y46.159 Z-0.2 I-3.517 J-3.517 
G01 X-45.3 Y4.376 Z-0.2 
G03 X-46.743 Y0.478 Z-0.2 I3.517 J-3.517 
G02 X-46.743 Y-0.478 Z-0.2 I-6.256 J-0.478 
G03 X-45.3 Y-4.376 Z-0.2 I4.96 J-0.379 
G01 X-24.409 Y-25.267 Z-0.2 
G02 X-25.823 Y-26.682 I-0.707 J-0.707 
G01 Z-0.4 F50
G02 X-24.409 Y-25.267 I0.707 J0.707 F250
G01 X-3.517 Y-46.159 Z-0.4 
G03 X3.517 Y-46.159 Z-0.4 I3.517 J3.517 
G01 X42.838 Y-6.838 Z-0.4 
G03 X44.292 Y-3.499 Z-0.4 I-3.517 J3.517 
X44.292 Y3.499 Z-0.4 I-97.292 J3.499 
X42.838 Y6.838 Z-0.4 I-4.971 J-0.178 
G01 X3.517 Y46.159 Z-0.4 
G03 X-3.517 Y46.159 Z-0.4 I-3.517 J-3.517 
G01 X-45.3 Y4.376 Z-0.4 
G03 X-46.743 Y0.478 Z-0.4 I3.517 J-3.517 
G02 X-46.743 Y-0.478 Z-0.4 I-6.256 J-0.478 
G03 X-45.3 Y-4.376 Z-0.4 I4.96 J-0.379 
G01 X-24.409 Y-25.267 Z-0.4 
G02 X-25.823 Y-26.682 I-0.707 J-0.707 
G01 Z-0.6 F50
G02 X-24.409 Y-25.267 I0.707 J0.707 F250
G01 X-3.517 Y-46.159 Z-0.6 
G03 X3.517 Y-46.159 Z-0.6 I3.517 J3.517 
G01 X42.838 Y-6.838 Z-0.6 
G03 X44.292 Y-3.499 Z-0.6 I-3.517 J3.517 
X44.292 Y3.499 Z-0.6 I-97.292 J3.499 
X42.838 Y6.838 Z-0.6 I-4.971 J-0.178 
G01 X3.517 Y46.159 Z-0.6 
G03 X-3.517 Y46.159 Z-0.6 I-3.517 J-3.517 
G01 X-45.3 Y4.376 Z-0.6 
G03 X-46.743 Y0.478 Z-0.6 I3.517 J-3.517 
G02 X-46.743 Y-0.478 Z-0.6 I-6.256 J-0.478 
G03 X-45.3 Y-4.376 Z-0.6 I4.96 J-0.379 
G01 X-24.409 Y-25.267 Z-0.6 
G02 X-25.823 Y-26.682 I-0.707 J-0.707 
G01 Z-0.8 F50
G02 X-24.409 Y-25.267 I0.707 J0.707 F250
G01 X-3.517 Y-46.159 Z-0.8 
G03 X3.517 Y-46.159 Z-0.8 I3.517 J3.517 
G01 X42.838 Y-6.838 Z-0.8 
G03 X44.292 Y-3.499 Z-0.8 I-3.517 J3.517 
X44.292 Y3.499 Z-0.8 I-97.292 J3.499 
X42.838 Y6.838 Z-0.8 I-4.971 J-0.178 
G01 X3.517 Y46.159 Z-0.8 
G03 X-3.517 Y46.159 Z-0.8 I-3.517 J-3.517 
G01 X-45.3 Y4.376 Z-0.8 
G03 X-46.743 Y0.478 Z-0.8 I3.517 J-3.517 
G02 X-46.743 Y-0.478 Z-0.8 I-6.256 J-0.478 
G03 X-45.3 Y-4.376 Z-0.8 I4.96 J-0.379 
G01 X-24.409 Y-25.267 Z-0.8 
G02 X-25.823 Y-26.682 I-0.707 J-0.707 
G01 Z-1 F50
G02 X-24.409 Y-25.267 I0.707 J0.707 F250
G01 X-3.517 Y-46.159 Z-1 
G03 X3.517 Y-46.159 Z-1 I3.517 J3.517 
G01 X42.838 Y-6.838 Z-1 
G03 X44.292 Y-3.499 Z-1 I-3.517 J3.517 
X44.292 Y3.499 Z-1 I-97.292 J3.499 
X42.838 Y6.838 Z-1 I-4.971 J-0.178 
G01 X3.517 Y46.159 Z-1 
G03 X-3.517 Y46.159 Z-1 I-3.517 J-3.517 
G01 X-45.3 Y4.376 Z-1 
G03 X-46.743 Y0.478 Z-1 I3.517 J-3.517 
G02 X-46.743 Y-0.478 Z-1 I-6.256 J-0.478 
G03 X-45.3 Y-4.376 Z-1 I4.96 J-0.379 
G01 X-24.409 Y-25.267 Z-1 
G02 X-25.823 Y-26.682 I-0.707 J-0.707 
G01 Z-1.2 F50
G02 X-24.409 Y-25.267 I0.707 J0.707 F250
G01 X-3.517 Y-46.159 Z-1.2 
G03 X3.517 Y-46.159 Z-1.2 I3.517 J3.517 
G01 X42.838 Y-6.838 Z-1.2 
G03 X44.292 Y-3.499 Z-1.2 I-3.517 J3.517 
X44.292 Y3.499 Z-1.2 I-97.292 J3.499 
X42.838 Y6.838 Z-1.2 I-4.971 J-0.178 
G01 X3.517 Y46.159 Z-1.2 
G03 X-3.517 Y46.159 Z-1.2 I-3.517 J-3.517 
G01 X-45.3 Y4.376 Z-1.2 
G03 X-46.743 Y0.478 Z-1.2 I3.517 J-3.517 
G02 X-46.743 Y-0.478 Z-1.2 I-6.256 J-0.478 
G03 X-45.3 Y-4.376 Z-1.2 I4.96 J-0.379 
G01 X-24.409 Y-25.267 Z-1.2 
G02 X-25.823 Y-26.682 I-0.707 J-0.707 
G01 Z-1.4 F50
G02 X-24.409 Y-25.267 I0.707 J0.707 F250
G01 X-3.517 Y-46.159 Z-1.4 
G03 X3.517 Y-46.159 Z-1.4 I3.517 J3.517 
G01 X42.838 Y-6.838 Z-1.4 
G03 X44.292 Y-3.499 Z-1.4 I-3.517 J3.517 
X44.292 Y3.499 Z-1.4 I-97.292 J3.499 
X42.838 Y6.838 Z-1.4 I-4.971 J-0.178 
G01 X3.517 Y46.159 Z-1.4 
G03 X-3.517 Y46.159 Z-1.4 I-3.517 J-3.517 
G01 X-45.3 Y4.376 Z-1.4 
G03 X-46.743 Y0.478 Z-1.4 I3.517 J-3.517 
G02 X-46.743 Y-0.478 Z-1.4 I-6.256 J-0.478 
G03 X-45.3 Y-4.376 Z-1.4 I4.96 J-0.379 
G01 X-24.409 Y-25.267 Z-1.4 
G02 X-25.823 Y-26.682 I-0.707 J-0.707 
G01 Z-1.6 F50
G02 X-24.409 Y-25.267 I0.707 J0.707 F250
G01 X-3.517 Y-46.159 Z-1.6 
G03 X3.517 Y-46.159 Z-1.6 I3.517 J3.517 
G01 X42.838 Y-6.838 Z-1.6 
G03 X44.292 Y-3.499 Z-1.6 I-3.517 J3.517 
X44.292 Y3.499 Z-1.6 I-97.292 J3.499 
X42.838 Y6.838 Z-1.6 I-4.971 J-0.178 
G01 X3.517 Y46.159 Z-1.6 
G03 X-3.517 Y46.159 Z-1.6 I-3.517 J-3.517 
G01 X-45.3 Y4.376 Z-1.6 
G03 X-46.743 Y0.478 Z-1.6 I3.517 J-3.517 
G02 X-46.743 Y-0.478 Z-1.6 I-6.256 J-0.478 
G03 X-45.3 Y-4.376 Z-1.6 I4.96 J-0.379 
G01 X-24.409 Y-25.267 Z-1.6 
G02 X-25.823 Y-26.682 I-0.707 J-0.707 
G01 Z-1.8 F50
G02 X-24.409 Y-25.267 I0.707 J0.707 F250
G01 X-3.517 Y-46.159 Z-1.8 
G03 X3.517 Y-46.159 Z-1.8 I3.517 J3.517 
G01 X42.838 Y-6.838 Z-1.8 
G03 X44.292 Y-3.499 Z-1.8 I-3.517 J3.517 
X44.292 Y3.499 Z-1.8 I-97.292 J3.499 
X42.838 Y6.838 Z-1.8 I-4.971 J-0.178 
G01 X3.517 Y46.159 Z-1.8 
G03 X-3.517 Y46.159 Z-1.8 I-3.517 J-3.517 
G01 X-45.3 Y4.376 Z-1.8 
G03 X-46.743 Y0.478 Z-1.8 I3.517 J-3.517 
G02 X-46.743 Y-0.478 Z-1.8 I-6.256 J-0.478 
G03 X-45.3 Y-4.376 Z-1.8 I4.96 J-0.379 
G01 X-24.409 Y-25.267 Z-1.8 
G02 X-25.823 Y-26.682 I-0.707 J-0.707 
G01 Z-2 F50
G02 X-24.409 Y-25.267 I0.707 J0.707 F250
G01 X-3.517 Y-46.159 Z-2 
G03 X3.517 Y-46.159 Z-2 I3.517 J3.517 
G01 X42.838 Y-6.838 Z-2 
G03 X44.292 Y-3.499 Z-2 I-3.517 J3.517 
X44.292 Y3.499 Z-2 I-97.292 J3.499 
X42.838 Y6.838 Z-2 I-4.971 J-0.178 
G01 X3.517 Y46.159 Z-2 
G03 X-3.517 Y46.159 Z-2 I-3.517 J-3.517 
G01 X-45.3 Y4.376 Z-2 
G03 X-46.743 Y0.478 Z-2 I3.517 J-3.517 
G02 X-46.743 Y-0.478 Z-2 I-6.256 J-0.478 
G03 X-45.3 Y-4.376 Z-2 I4.96 J-0.379 
G01 X-24.409 Y-25.267 Z-2 
G02 X-25.823 Y-26.682 I-0.707 J-0.707 
G01 Z-2.2 F50
G02 X-24.409 Y-25.267 I0.707 J0.707 F250
G01 X-3.517 Y-46.159 Z-2.2 
G03 X3.517 Y-46.159 Z-2.2 I3.517 J3.517 
G01 X42.838 Y-6.838 Z-2.2 
G03 X44.292 Y-3.499 Z-2.2 I-3.517 J3.517 
X44.292 Y3.499 Z-2.2 I-97.292 J3.499 
X42.838 Y6.838 Z-2.2 I-4.971 J-0.178 
G01 X3.517 Y46.159 Z-2.2 
G03 X-3.517 Y46.159 Z-2.2 I-3.517 J-3.517 
G01 X-45.3 Y4.376 Z-2.2 
G03 X-46.743 Y0.478 Z-2.2 I3.517 J-3.517 
G02 X-46.743 Y-0.478 Z-2.2 I-6.256 J-0.478 
G03 X-45.3 Y-4.376 Z-2.2 I4.96 J-0.379 
G01 X-24.409 Y-25.267 Z-2.2 
G02 X-25.823 Y-26.682 I-0.707 J-0.707 
G01 Z-2.4 F50
G02 X-24.409 Y-25.267 I0.707 J0.707 F250
G01 X-3.517 Y-46.159 Z-2.4 
G03 X3.517 Y-46.159 Z-2.4 I3.517 J3.517 
G01 X42.838 Y-6.838 Z-2.4 
G03 X44.292 Y-3.499 Z-2.4 I-3.517 J3.517 
X44.292 Y3.499 Z-2.4 I-97.292 J3.499 
X42.838 Y6.838 Z-2.4 I-4.971 J-0.178 
G01 X3.517 Y46.159 Z-2.4 
G03 X-3.517 Y46.159 Z-2.4 I-3.517 J-3.517 
G01 X-45.3 Y4.376 Z-2.4 
G03 X-46.743 Y0.478 Z-2.4 I3.517 J-3.517 
G02 X-46.743 Y-0.478 Z-2.4 I-6.256 J-0.478 
G03 X-45.3 Y-4.376 Z-2.4 I4.96 J-0.379 
G01 X-24.409 Y-25.267 Z-2.4 
G02 X-25.823 Y-26.682 I-0.707 J-0.707 
G01 Z-2.6 F50
G02 X-24.409 Y-25.267 I0.707 J0.707 F250
G01 X-3.517 Y-46.159 Z-2.6 
G03 X3.517 Y-46.159 Z-2.6 I3.517 J3.517 
G01 X42.838 Y-6.838 Z-2.6 
G03 X44.292 Y-3.499 Z-2.6 I-3.517 J3.517 
X44.292 Y3.499 Z-2.6 I-97.292 J3.499 
X42.838 Y6.838 Z-2.6 I-4.971 J-0.178 
G01 X3.517 Y46.159 Z-2.6 
G03 X-3.517 Y46.159 Z-2.6 I-3.517 J-3.517 
G01 X-45.3 Y4.376 Z-2.6 
G03 X-46.743 Y0.478 Z-2.6 I3.517 J-3.517 
G02 X-46.743 Y-0.478 Z-2.6 I-6.256 J-0.478 
G03 X-45.3 Y-4.376 Z-2.6 I4.96 J-0.379 
G01 X-24.409 Y-25.267 Z-2.6 
G02 X-25.823 Y-26.682 I-0.707 J-0.707 
G01 Z-2.8 F50
G02 X-24.409 Y-25.267 I0.707 J0.707 F250
G01 X-3.517 Y-46.159 Z-2.8 
G03 X3.517 Y-46.159 Z-2.8 I3.517 J3.517 
G01 X42.838 Y-6.838 Z-2.8 
G03 X44.292 Y-3.499 Z-2.8 I-3.517 J3.517 
X44.292 Y3.499 Z-2.8 I-97.292 J3.499 
X42.838 Y6.838 Z-2.8 I-4.971 J-0.178 
G01 X3.517 Y46.159 Z-2.8 
G03 X-3.517 Y46.159 Z-2.8 I-3.517 J-3.517 
G01 X-45.3 Y4.376 Z-2.8 
G03 X-46.743 Y0.478 Z-2.8 I3.517 J-3.517 
G02 X-46.743 Y-0.478 Z-2.8 I-6.256 J-0.478 
G03 X-45.3 Y-4.376 Z-2.8 I4.96 J-0.379 
G01 X-24.409 Y-25.267 Z-2.8 
G02 X-25.823 Y-26.682 I-0.707 J-0.707 
G01 Z-3 F50
G02 X-24.409 Y-25.267 I0.707 J0.707 F250
G01 X-3.517 Y-46.159 Z-3 
G03 X3.517 Y-46.159 Z-3 I3.517 J3.517 
G01 X42.838 Y-6.838 Z-3 
G03 X44.292 Y-3.499 Z-3 I-3.517 J3.517 
X44.292 Y3.499 Z-3 I-97.292 J3.499 
X42.838 Y6.838 Z-3 I-4.971 J-0.178 
G01 X3.517 Y46.159 Z-3 
G03 X-3.517 Y46.159 Z-3 I-3.517 J-3.517 
G01 X-45.3 Y4.376 Z-3 
G03 X-46.743 Y0.478 Z-3 I3.517 J-3.517 
G02 X-46.743 Y-0.478 Z-3 I-6.256 J-0.478 
G03 X-45.3 Y-4.376 Z-3 I4.96 J-0.379 
G01 X-24.409 Y-25.267 Z-3 
G02 X-25.823 Y-26.682 I-0.707 J-0.707 
G01 Z-3.2 F50
G02 X-24.409 Y-25.267 I0.707 J0.707 F250
G01 X-3.517 Y-46.159 Z-3.2 
G03 X3.517 Y-46.159 Z-3.2 I3.517 J3.517 
G01 X42.838 Y-6.838 Z-3.2 
G03 X44.292 Y-3.499 Z-3.2 I-3.517 J3.517 
X44.292 Y3.499 Z-3.2 I-97.292 J3.499 
X42.838 Y6.838 Z-3.2 I-4.971 J-0.178 
G01 X3.517 Y46.159 Z-3.2 
G03 X-3.517 Y46.159 Z-3.2 I-3.517 J-3.517 
G01 X-45.3 Y4.376 Z-3.2 
G03 X-46.743 Y0.478 Z-3.2 I3.517 J-3.517 
G02 X-46.743 Y-0.478 Z-3.2 I-6.256 J-0.478 
G03 X-45.3 Y-4.376 Z-3.2 I4.96 J-0.379 
G01 X-24.409 Y-25.267 Z-3.2 
G02 X-25.823 Y-26.682 I-0.707 J-0.707 
G01 Z-3.4 F50
G02 X-24.409 Y-25.267 I0.707 J0.707 F250
G01 X-3.517 Y-46.159 Z-3.4 
G03 X3.517 Y-46.159 Z-3.4 I3.517 J3.517 
G01 X42.838 Y-6.838 Z-3.4 
G03 X44.292 Y-3.499 Z-3.4 I-3.517 J3.517 
X44.292 Y3.499 Z-3.4 I-97.292 J3.499 
X42.838 Y6.838 Z-3.4 I-4.971 J-0.178 
G01 X3.517 Y46.159 Z-3.4 
G03 X-3.517 Y46.159 Z-3.4 I-3.517 J-3.517 
G01 X-45.3 Y4.376 Z-3.4 
G03 X-46.743 Y0.478 Z-3.4 I3.517 J-3.517 
G02 X-46.743 Y-0.478 Z-3.4 I-6.256 J-0.478 
G03 X-45.3 Y-4.376 Z-3.4 I4.96 J-0.379 
G01 X-24.409 Y-25.267 Z-3.4 
G02 X-25.823 Y-26.682 I-0.707 J-0.707 
G01 Z-3.6 F50
G02 X-24.409 Y-25.267 I0.707 J0.707 F250
G01 X-3.517 Y-46.159 Z-3.6 
G03 X3.517 Y-46.159 Z-3.6 I3.517 J3.517 
G01 X42.838 Y-6.838 Z-3.6 
G03 X44.292 Y-3.499 Z-3.6 I-3.517 J3.517 
X44.292 Y3.499 Z-3.6 I-97.292 J3.499 
X42.838 Y6.838 Z-3.6 I-4.971 J-0.178 
G01 X3.517 Y46.159 Z-3.6 
G03 X-3.517 Y46.159 Z-3.6 I-3.517 J-3.517 
G01 X-45.3 Y4.376 Z-3.6 
G03 X-46.743 Y0.478 Z-3.6 I3.517 J-3.517 
G02 X-46.743 Y-0.478 Z-3.6 I-6.256 J-0.478 
G03 X-45.3 Y-4.376 Z-3.6 I4.96 J-0.379 
G01 X-24.409 Y-25.267 Z-3.6 
G02 X-25.823 Y-26.682 I-0.707 J-0.707 
G01 Z-3.8 F50
G02 X-24.409 Y-25.267 I0.707 J0.707 F250
G01 X-3.517 Y-46.159 Z-3.8 
G03 X3.517 Y-46.159 Z-3.8 I3.517 J3.517 
G01 X42.838 Y-6.838 Z-3.8 
G03 X44.292 Y-3.499 Z-3.8 I-3.517 J3.517 
X44.292 Y3.499 Z-3.8 I-97.292 J3.499 
X42.838 Y6.838 Z-3.8 I-4.971 J-0.178 
G01 X3.517 Y46.159 Z-3.8 
G03 X-3.517 Y46.159 Z-3.8 I-3.517 J-3.517 
G01 X-45.3 Y4.376 Z-3.8 
G03 X-46.743 Y0.478 Z-3.8 I3.517 J-3.517 
G02 X-46.743 Y-0.478 Z-3.8 I-6.256 J-0.478 
G03 X-45.3 Y-4.376 Z-3.8 I4.96 J-0.379 
G01 X-24.409 Y-25.267 Z-3.8 
G02 X-25.823 Y-26.682 I-0.707 J-0.707 
G01 Z-4 F50
G02 X-24.409 Y-25.267 I0.707 J0.707 F250
G01 X-3.517 Y-46.159 Z-4 
G03 X3.517 Y-46.159 Z-4 I3.517 J3.517 
G01 X42.838 Y-6.838 Z-4 
G03 X44.292 Y-3.499 Z-4 I-3.517 J3.517 
X44.292 Y3.499 Z-4 I-97.292 J3.499 
X42.838 Y6.838 Z-4 I-4.971 J-0.178 
G01 X3.517 Y46.159 Z-4 
G03 X-3.517 Y46.159 Z-4 I-3.517 J-3.517 
G01 X-45.3 Y4.376 Z-4 
G03 X-46.743 Y0.478 Z-4 I3.517 J-3.517 
G02 X-46.743 Y-0.478 Z-4 I-6.256 J-0.478 
G03 X-45.3 Y-4.376 Z-4 I4.96 J-0.379 
G01 X-24.409 Y-25.267 Z-4 
G02 X-25.823 Y-26.682 I-0.707 J-0.707 
G01 Z-4.2 F50
G02 X-24.409 Y-25.267 I0.707 J0.707 F250
G01 X-3.517 Y-46.159 Z-4.2 
G03 X3.517 Y-46.159 Z-4.2 I3.517 J3.517 
G01 X42.838 Y-6.838 Z-4.2 
G03 X44.292 Y-3.499 Z-4.2 I-3.517 J3.517 
X44.292 Y3.499 Z-4.2 I-97.292 J3.499 
X42.838 Y6.838 Z-4.2 I-4.971 J-0.178 
G01 X3.517 Y46.159 Z-4.2 
G03 X-3.517 Y46.159 Z-4.2 I-3.517 J-3.517 
G01 X-45.3 Y4.376 Z-4.2 
G03 X-46.743 Y0.478 Z-4.2 I3.517 J-3.517 
G02 X-46.743 Y-0.478 Z-4.2 I-6.256 J-0.478 
G03 X-45.3 Y-4.376 Z-4.2 I4.96 J-0.379 
G01 X-24.409 Y-25.267 Z-4.2 
G02 X-25.823 Y-26.682 I-0.707 J-0.707 
G01 Z-4.4 F50
G02 X-24.409 Y-25.267 I0.707 J0.707 F250
G01 X-3.517 Y-46.159 Z-4.4 
G03 X3.517 Y-46.159 Z-4.4 I3.517 J3.517 
G01 X42.838 Y-6.838 Z-4.4 
G03 X44.292 Y-3.499 Z-4.4 I-3.517 J3.517 
X44.292 Y3.499 Z-4.4 I-97.292 J3.499 
X42.838 Y6.838 Z-4.4 I-4.971 J-0.178 
G01 X3.517 Y46.159 Z-4.4 
G03 X-3.517 Y46.159 Z-4.4 I-3.517 J-3.517 
G01 X-45.3 Y4.376 Z-4.4 
G03 X-46.743 Y0.478 Z-4.4 I3.517 J-3.517 
G02 X-46.743 Y-0.478 Z-4.4 I-6.256 J-0.478 
G03 X-45.3 Y-4.376 Z-4.4 I4.96 J-0.379 
G01 X-24.409 Y-25.267 Z-4.4 
G02 X-25.823 Y-26.682 I-0.707 J-0.707 
G01 Z-4.6 F50
G02 X-24.409 Y-25.267 I0.707 J0.707 F250
G01 X-3.517 Y-46.159 Z-4.6 
G03 X3.517 Y-46.159 Z-4.6 I3.517 J3.517 
G01 X42.838 Y-6.838 Z-4.6 
G03 X44.292 Y-3.499 Z-4.6 I-3.517 J3.517 
X44.292 Y3.499 Z-4.6 I-97.292 J3.499 
X42.838 Y6.838 Z-4.6 I-4.971 J-0.178 
G01 X3.517 Y46.159 Z-4.6 
G03 X-3.517 Y46.159 Z-4.6 I-3.517 J-3.517 
G01 X-45.3 Y4.376 Z-4.6 
G03 X-46.743 Y0.478 Z-4.6 I3.517 J-3.517 
G02 X-46.743 Y-0.478 Z-4.6 I-6.256 J-0.478 
G03 X-45.3 Y-4.376 Z-4.6 I4.96 J-0.379 
G01 X-24.409 Y-25.267 Z-4.6 
G02 X-25.823 Y-26.682 I-0.707 J-0.707 
G01 Z-4.8 F50
G02 X-24.409 Y-25.267 I0.707 J0.707 F250
G01 X-3.517 Y-46.159 Z-4.8 
G03 X3.517 Y-46.159 Z-4.8 I3.517 J3.517 
G01 X42.838 Y-6.838 Z-4.8 
G03 X44.292 Y-3.499 Z-4.8 I-3.517 J3.517 
X44.292 Y3.499 Z-4.8 I-97.292 J3.499 
X42.838 Y6.838 Z-4.8 I-4.971 J-0.178 
G01 X3.517 Y46.159 Z-4.8 
G03 X-3.517 Y46.159 Z-4.8 I-3.517 J-3.517 
G01 X-45.3 Y4.376 Z-4.8 
G03 X-46.743 Y0.478 Z-4.8 I3.517 J-3.517 
G02 X-46.743 Y-0.478 Z-4.8 I-6.256 J-0.478 
G03 X-45.3 Y-4.376 Z-4.8 I4.96 J-0.379 
G01 X-24.409 Y-25.267 Z-4.8 
G02 X-25.823 Y-26.682 I-0.707 J-0.707 
G01 Z-5 F50
G02 X-24.409 Y-25.267 I0.707 J0.707 F250
G01 X-3.517 Y-46.159 Z-5 
G03 X3.517 Y-46.159 Z-5 I3.517 J3.517 
G01 X22.315 Y-27.361 Z-5 
X22.386 Y-27.29 Z-4.9 
X28.29 Y-21.386 Z-4.9 
X28.361 Y-21.315 Z-5 
X42.838 Y-6.838 Z-5 
G03 X44.292 Y-3.499 Z-5 I-3.517 J3.517 
X44.292 Y3.499 Z-5 I-97.292 J3.499 
X42.838 Y6.838 Z-5 I-4.971 J-0.178 
G01 X28.361 Y21.315 Z-5 
X28.29 Y21.386 Z-4.9 
X22.386 Y27.29 Z-4.9 
X22.315 Y27.361 Z-5 
X3.517 Y46.159 Z-5 
G03 X-3.517 Y46.159 Z-5 I-3.517 J-3.517 
G01 X-21.815 Y27.861 Z-5 
X-21.886 Y27.79 Z-4.9 
X-27.79 Y21.886 Z-4.9 
X-27.861 Y21.815 Z-5 
X-45.3 Y4.376 Z-5 
G03 X-46.743 Y0.478 Z-5 I3.517 J-3.517 
G02 X-46.743 Y-0.478 Z-5 I-6.256 J-0.478 
G03 X-45.3 Y-4.376 Z-5 I4.96 J-0.379 
G01 X-37.861 Y-11.815 Z-5 
X-37.79 Y-11.886 Z-4.9 
X-31.886 Y-17.79 Z-4.9 
X-31.815 Y-17.861 Z-5 
X-24.409 Y-25.267 Z-5 
G02 X-25.823 Y-26.682 I-0.707 J-0.707 
G01 Z-5.2 F50
G02 X-24.409 Y-25.267 I0.707 J0.707 F250
G01 X-3.517 Y-46.159 Z-5.2 
G03 X3.517 Y-46.159 Z-5.2 I3.517 J3.517 
G01 X22.174 Y-27.502 Z-5.2 
X22.386 Y-27.29 Z-4.9 
X28.29 Y-21.386 Z-4.9 
X28.502 Y-21.174 Z-5.2 
X42.838 Y-6.838 Z-5.2 
G03 X44.292 Y-3.499 Z-5.2 I-3.517 J3.517 
X44.292 Y3.499 Z-5.2 I-97.292 J3.499 
X42.838 Y6.838 Z-5.2 I-4.971 J-0.178 
G01 X28.502 Y21.174 Z-5.2 
X28.29 Y21.386 Z-4.9 
X22.386 Y27.29 Z-4.9 
X22.174 Y27.502 Z-5.2 
X3.517 Y46.159 Z-5.2 
G03 X-3.517 Y46.159 Z-5.2 I-3.517 J-3.517 
G01 X-21.674 Y28.002 Z-5.2 
X-21.886 Y27.79 Z-4.9 
X-27.79 Y21.886 Z-4.9 
X-28.002 Y21.674 Z-5.2 
X-45.3 Y4.376 Z-5.2 
G03 X-46.743 Y0.478 Z-5.2 I3.517 J-3.517 
G02 X-46.743 Y-0.478 Z-5.2 I-6.256 J-0.478 
G03 X-45.3 Y-4.376 Z-5.2 I4.96 J-0.379 
G01 X-38.002 Y-11.674 Z-5.2 
X-37.79 Y-11.886 Z-4.9 
X-31.886 Y-17.79 Z-4.9 
X-31.674 Y-18.002 Z-5.2 
X-24.409 Y-25.267 Z-5.2 
G02 X-25.823 Y-26.682 I-0.707 J-0.707 
G01 Z-5.4 F50
G02 X-24.409 Y-25.267 I0.707 J0.707 F250
G01 X-3.517 Y-46.159 Z-5.4 
G03 X3.517 Y-46.159 Z-5.4 I3.517 J3.517 
G01 X22.032 Y-27.644 Z-5.4 
X22.386 Y-27.29 Z-4.9 
X28.29 Y-21.386 Z-4.9 
X28.644 Y-21.032 Z-5.4 
X42.838 Y-6.838 Z-5.4 
G03 X44.292 Y-3.499 Z-5.4 I-3.517 J3.517 
X44.292 Y3.499 Z-5.4 I-97.292 J3.499 
X42.838 Y6.838 Z-5.4 I-4.971 J-0.178 
G01 X28.644 Y21.032 Z-5.4 
X28.29 Y21.386 Z-4.9 
X22.386 Y27.29 Z-4.9 
X22.032 Y27.644 Z-5.4 
X3.517 Y46.159 Z-5.4 
G03 X-3.517 Y46.159 Z-5.4 I-3.517 J-3.517 
G01 X-21.532 Y28.144 Z-5.4 
X-21.886 Y27.79 Z-4.9 
X-27.79 Y21.886 Z-4.9 
X-28.144 Y21.532 Z-5.4 
X-45.3 Y4.376 Z-5.4 
G03 X-46.743 Y0.478 Z-5.4 I3.517 J-3.517 
G02 X-46.743 Y-0.478 Z-5.4 I-6.256 J-0.478 
G03 X-45.3 Y-4.376 Z-5.4 I4.96 J-0.379 
G01 X-38.144 Y-11.532 Z-5.4 
X-37.79 Y-11.886 Z-4.9 
X-31.886 Y-17.79 Z-4.9 
X-31.532 Y-18.144 Z-5.4 
X-24.409 Y-25.267 Z-5.4 
G02 X-25.823 Y-26.682 I-0.707 J-0.707 
G01 Z-5.6 F50
G02 X-24.409 Y-25.267 I0.707 J0.707 F250
G01 X-3.517 Y-46.159 Z-5.6 
G03 X3.517 Y-46.159 Z-5.6 I3.517 J3.517 
G01 X21.891 Y-27.785 Z-5.6 
X22.386 Y-27.29 Z-4.9 
X28.29 Y-21.386 Z-4.9 
X28.785 Y-20.891 Z-5.6 
X42.838 Y-6.838 Z-5.6 
G03 X44.292 Y-3.499 Z-5.6 I-3.517 J3.517 
X44.292 Y3.499 Z-5.6 I-97.292 J3.499 
X42.838 Y6.838 Z-5.6 I-4.971 J-0.178 
G01 X28.785 Y20.891 Z-5.6 
X28.29 Y21.386 Z-4.9 
X22.386 Y27.29 Z-4.9 
X21.891 Y27.785 Z-5.6 
X3.517 Y46.159 Z-5.6 
G03 X-3.517 Y46.159 Z-5.6 I-3.517 J-3.517 
G01 X-21.391 Y28.285 Z-5.6 
X-21.886 Y27.79 Z-4.9 
X-27.79 Y21.886 Z-4.9 
X-28.285 Y21.391 Z-5.6 
X-45.3 Y4.376 Z-5.6 
G03 X-46.743 Y0.478 Z-5.6 I3.517 J-3.517 
G02 X-46.743 Y-0.478 Z-5.6 I-6.256 J-0.478 
G03 X-45.3 Y-4.376 Z-5.6 I4.96 J-0.379 
G01 X-38.285 Y-11.391 Z-5.6 
X-37.79 Y-11.886 Z-4.9 
X-31.886 Y-17.79 Z-4.9 
X-31.391 Y-18.285 Z-5.6 
X-24.409 Y-25.267 Z-5.6 
G02 X-25.823 Y-26.682 I-0.707 J-0.707 
G01 Z-5.8 F50
G02 X-24.409 Y-25.267 I0.707 J0.707 F250
G01 X-3.517 Y-46.159 Z-5.8 
G03 X3.517 Y-46.159 Z-5.8 I3.517 J3.517 
G01 X21.749 Y-27.927 Z-5.8 
X22.386 Y-27.29 Z-4.9 
X28.29 Y-21.386 Z-4.9 
X28.927 Y-20.749 Z-5.8 
X42.838 Y-6.838 Z-5.8 
G03 X44.292 Y-3.499 Z-5.8 I-3.517 J3.517 
X44.292 Y3.499 Z-5.8 I-97.292 J3.499 
X42.838 Y6.838 Z-5.8 I-4.971 J-0.178 
G01 X28.927 Y20.749 Z-5.8 
X28.29 Y21.386 Z-4.9 
X22.386 Y27.29 Z-4.9 
X21.749 Y27.927 Z-5.8 
X3.517 Y46.159 Z-5.8 
G03 X-3.517 Y46.159 Z-5.8 I-3.517 J-3.517 
G01 X-21.249 Y28.427 Z-5.8 
X-21.886 Y27.79 Z-4.9 
X-27.79 Y21.886 Z-4.9 
X-28.427 Y21.249 Z-5.8 
X-45.3 Y4.376 Z-5.8 
G03 X-46.743 Y0.478 Z-5.8 I3.517 J-3.517 
G02 X-46.743 Y-0.478 Z-5.8 I-6.256 J-0.478 
G03 X-45.3 Y-4.376 Z-5.8 I4.96 J-0.379 
G01 X-38.427 Y-11.249 Z-5.8 
X-37.79 Y-11.886 Z-4.9 
X-31.886 Y-17.79 Z-4.9 
X-31.249 Y-18.427 Z-5.8 
X-24.409 Y-25.267 Z-5.8 
G02 X-25.823 Y-26.682 I-0.707 J-0.707 
G01 Z-6 F50
G02 X-24.409 Y-25.267 I0.707 J0.707 F250
G01 X-3.517 Y-46.159 Z-6 
G03 X3.517 Y-46.159 Z-6 I3.517 J3.517 
G01 X21.608 Y-28.068 Z-6 
X22.386 Y-27.29 Z-4.9 
X28.29 Y-21.386 Z-4.9 
X29.068 Y-20.608 Z-6 
X42.838 Y-6.838 Z-6 
G03 X44.292 Y-3.499 Z-6 I-3.517 J3.517 
X44.292 Y3.499 Z-6 I-97.292 J3.499 
X42.838 Y6.838 Z-6 I-4.971 J-0.178 
G01 X29.068 Y20.608 Z-6 
X28.29 Y21.386 Z-4.9 
X22.386 Y27.29 Z-4.9 
X21.608 Y28.068 Z-6 
X3.517 Y46.159 Z-6 
G03 X-3.517 Y46.159 Z-6 I-3.517 J-3.517 
G01 X-21.108 Y28.568 Z-6 
X-21.886 Y27.79 Z-4.9 
X-27.79 Y21.886 Z-4.9 
X-28.568 Y21.108 Z-6 
X-45.3 Y4.376 Z-6 
G03 X-46.743 Y0.478 Z-6 I3.517 J-3.517 
G02 X-46.743 Y-0.478 Z-6 I-6.256 J-0.478 
G03 X-45.3 Y-4.376 Z-6 I4.96 J-0.379 
G01 X-38.568 Y-11.108 Z-6 
X-37.79 Y-11.886 Z-4.9 
X-31.886 Y-17.79 Z-4.9 
X-31.108 Y-18.568 Z-6 
X-24.409 Y-25.267 Z-6 
G02 X-25.823 Y-26.682 I-0.707 J-0.707 
G01 Z-6.2 F50
G02 X-24.409 Y-25.267 I0.707 J0.707 F250
G01 X-3.517 Y-46.159 Z-6.2 
G03 X3.517 Y-46.159 Z-6.2 I3.517 J3.517 
G01 X21.467 Y-28.209 Z-6.2 
X22.386 Y-27.29 Z-4.9 
X28.29 Y-21.386 Z-4.9 
X29.209 Y-20.467 Z-6.2 
X42.838 Y-6.838 Z-6.2 
G03 X44.292 Y-3.499 Z-6.2 I-3.517 J3.517 
X44.292 Y3.499 Z-6.2 I-97.292 J3.499 
X42.838 Y6.838 Z-6.2 I-4.971 J-0.178 
G01 X29.209 Y20.467 Z-6.2 
X28.29 Y21.386 Z-4.9 
X22.386 Y27.29 Z-4.9 
X21.467 Y28.209 Z-6.2 
X3.517 Y46.159 Z-6.2 
G03 X-3.517 Y46.159 Z-6.2 I-3.517 J-3.517 
G01 X-20.967 Y28.709 Z-6.2 
X-21.886 Y27.79 Z-4.9 
X-27.79 Y21.886 Z-4.9 
X-28.709 Y20.967 Z-6.2 
X-45.3 Y4.376 Z-6.2 
G03 X-46.743 Y0.478 Z-6.2 I3.517 J-3.517 
G02 X-46.743 Y-0.478 Z-6.2 I-6.256 J-0.478 
G03 X-45.3 Y-4.376 Z-6.2 I4.96 J-0.379 
G01 X-38.709 Y-10.967 Z-6.2 
X-37.79 Y-11.886 Z-4.9 
X-31.886 Y-17.79 Z-4.9 
X-30.967 Y-18.709 Z-6.2 
X-24.409 Y-25.267 Z-6.2 
G02 X-25.823 Y-26.682 I-0.707 J-0.707 
G01 Z-6.4 F50
G02 X-24.409 Y-25.267 I0.707 J0.707 F250
G01 X-3.517 Y-46.159 Z-6.4 
G03 X3.517 Y-46.159 Z-6.4 I3.517 J3.517 
G01 X21.325 Y-28.351 Z-6.4 
X22.386 Y-27.29 Z-4.9 
X28.29 Y-21.386 Z-4.9 
X29.351 Y-20.325 Z-6.4 
X42.838 Y-6.838 Z-6.4 
G03 X44.292 Y-3.499 Z-6.4 I-3.517 J3.517 
X44.292 Y3.499 Z-6.4 I-97.292 J3.499 
X42.838 Y6.838 Z-6.4 I-4.971 J-0.178 
G01 X29.351 Y20.325 Z-6.4 
X28.29 Y21.386 Z-4.9 
X22.386 Y27.29 Z-4.9 
X21.325 Y28.351 Z-6.4 
X3.517 Y46.159 Z-6.4 
G03 X-3.517 Y46.159 Z-6.4 I-3.517 J-3.517 
G01 X-20.825 Y28.851 Z-6.4 
X-21.886 Y27.79 Z-4.9 
X-27.79 Y21.886 Z-4.9 
X-28.851 Y20.825 Z-6.4 
X-45.3 Y4.376 Z-6.4 
G03 X-46.743 Y0.478 Z-6.4 I3.517 J-3.517 
G02 X-46.743 Y-0.478 Z-6.4 I-6.256 J-0.478 
G03 X-45.3 Y-4.376 Z-6.4 I4.96 J-0.379 
G01 X-38.851 Y-10.825 Z-6.4 
X-37.79 Y-11.886 Z-4.9 
X-31.886 Y-17.79 Z-4.9 
X-30.825 Y-18.851 Z-6.4 
X-24.409 Y-25.267 Z-6.4 
G02 X-25.823 Y-26.682 I-0.707 J-0.707 
G00 Z5
G90
(outer)
X-25.611 Y-26.469
Z2
G01 Z-6.4 F50
G02 X-24.197 Y-25.055 I0.707 J0.707 
G01 X-3.305 Y-45.947 Z-6.4 
G03 X3.305 Y-45.947 Z-6.4 I3.305 J3.305 
G01 X21.113 Y-28.139 Z-6.4 
X22.174 Y-27.078 Z-4.9 
X28.078 Y-21.174 Z-4.9 
X29.139 Y-20.113 Z-6.4 
X42.626 Y-6.625 Z-6.4 
G03 X43.993 Y-3.488 Z-6.4 I-3.305 J3.305 
X43.993 Y3.488 Z-6.4 I-96.993 J3.488 
X42.626 Y6.625 Z-6.4 I-4.671 J-0.168 
G01 X29.139 Y20.113 Z-6.4 
X28.078 Y21.174 Z-4.9 
X22.174 Y27.078 Z-4.9 
X21.113 Y28.139 Z-6.4 
X3.305 Y45.947 Z-6.4 
G03 X-3.305 Y45.947 Z-6.4 I-3.305 J-3.305 
G01 X-20.613 Y28.639 Z-6.4 
X-21.674 Y27.578 Z-4.9 
X-27.578 Y21.674 Z-4.9 
X-28.639 Y20.613 Z-6.4 
X-45.088 Y4.164 Z-6.4 
G03 X-46.444 Y0.501 Z-6.4 I3.305 J-3.305 
G02 X-46.444 Y-0.501 Z-6.4 I-6.555 J-0.501 
G03 X-45.088 Y-4.164 Z-6.4 I4.661 J-0.356 
G01 X-38.639 Y-10.613 Z-6.4 
X-37.578 Y-11.674 Z-4.9 
X-31.674 Y-17.578 Z-4.9 
X-30.613 Y-18.639 Z-6.4 
X-24.197 Y-25.055 Z-6.4 
G02 X-25.611 Y-26.469 I-0.707 J-0.707 
G00 Z5
G90
(outer)
Z2 S7000 M03
G01 Z-6.4 
G03 X-24.197 Y-25.055 I0.707 J0.707 
G01 X-30.613 Y-18.639 Z-6.4 
X-31.674 Y-17.578 Z-4.9 
X-37.578 Y-11.674 Z-4.9 
X-38.639 Y-10.613 Z-6.4 
X-45.088 Y-4.164 Z-6.4 
G02 X-46.444 Y-0.501 Z-6.4 I3.305 J3.305 
G03 X-46.444 Y0.501 Z-6.4 I-6.555 J0.501 
G02 X-45.088 Y4.164 Z-6.4 I4.661 J0.356 
G01 X-28.639 Y20.613 Z-6.4 
X-27.578 Y21.674 Z-4.9 
X-21.674 Y27.578 Z-4.9 
X-20.613 Y28.639 Z-6.4 
X-3.305 Y45.947 Z-6.4 
G02 X3.305 Y45.947 Z-6.4 I3.305 J-3.305 
G01 X21.113 Y28.139 Z-6.4 
X22.174 Y27.078 Z-4.9 
X28.078 Y21.174 Z-4.9 
X29.139 Y20.113 Z-6.4 
X42.626 Y6.625 Z-6.4 
G02 X43.993 Y3.488 Z-6.4 I-3.305 J-3.305 
X43.993 Y-3.488 Z-6.4 I-96.993 J-3.488 
X42.626 Y-6.625 Z-6.4 I-4.671 J0.168 
G01 X29.139 Y-20.113 Z-6.4 
X28.078 Y-21.174 Z-4.9 
X22.174 Y-27.078 Z-4.9 
X21.113 Y-28.139 Z-6.4 
X3.305 Y-45.947 Z-6.4 
G02 X-3.305 Y-45.947 Z-6.4 I-3.305 J3.305 
G01 X-24.197 Y-25.055 Z-6.4 
G03 X-25.611 Y-26.469 I-0.707 J-0.707 
G00 Z5
T0 M06 M05
